; generated by PrusaSlicer 2.3.0+win64 on 2021-11-08 at 11:24:41 UTC

; 

; external perimeters extrusion width = 0.60mm
; perimeters extrusion width = 0.45mm
; infill extrusion width = 0.45mm
; solid infill extrusion width = 0.45mm
; top infill extrusion width = 0.40mm
; support material extrusion width = 0.35mm
; first layer extrusion width = 0.42mm

M201 X1000 Y1000 Z200 E5000 ; sets maximum accelerations, mm/sec^2
M203 X200 Y200 Z8 E60 ; sets maximum feedrates, mm/sec
M204 P1250 R1250 T1250 ; sets acceleration (P, T) and retract acceleration (R), mm/sec^2
M205 X8.00 Y8.00 Z0.40 E5.00 ; sets the jerk limits, mm/sec
M205 S0 T0 ; sets the minimum extruding and travel feed rate, mm/sec
M107 ; disable fan
;TYPE:Custom
G90 ; use absolute coordinates
M83 ; extruder relative mode
M204 S1250 T1250
M104 S215 ; set extruder temp
M140 S60 ; set bed temp
G28 ; home all
G1 Y0 Z1 F100 ; move print head up
M190 S60 ; wait for bed temp
M109 S215 ; wait for extruder temp
G92 E0
G1 E38 F1000; deretract filament
G92 E0
G1 X60 Z0 E9 ; intro line
G1 X100 E12.5 ; intro line
G92 E0
G21 ; set units to millimeters
G90 ; use absolute coordinates
M83 ; use relative distances for extrusion
; Filament gcode
;LAYER_CHANGE
;Z:0.2
;HEIGHT:0.2
;BEFORE_LAYER_CHANGE
;0.2
G1 E-6.00000 F2400.000 ; retract
G1 Z0.075 F10800.000 ; lift Z
G1 Z0.200 ; move to next layer (0)
;AFTER_LAYER_CHANGE
;0.2
G1 Z0.275 ; lift Z
G1 X101.958 Y92.936 ; move to first brim point
G1 Z0.200 ; restore layer Z
G1 E6.00000 F3000.000 ; unretract
M204 S1250 ; adjust acceleration
;TYPE:Skirt
;WIDTH:0.42
G1 F1800.000
G1 X99.323 Y90.562 E0.11122 ; brim
G1 X95.157 Y88.468 E0.14618 ; brim
G1 X88.764 Y87.080 E0.20512 ; brim
G1 X87.305 Y86.143 E0.05436 ; brim
G1 X86.344 Y85.018 E0.04638 ; brim
G1 X86.045 Y84.460 E0.01985 ; brim
G1 X85.495 Y82.608 E0.06059 ; brim
G1 X85.533 Y74.169 E0.26460 ; brim
G1 X85.819 Y73.048 E0.03628 ; brim
G1 X86.493 Y71.810 E0.04419 ; brim
G1 X87.155 Y71.083 E0.03083 ; brim
G1 X88.092 Y70.353 E0.03724 ; brim
G1 X89.005 Y69.882 E0.03222 ; brim
G1 X89.965 Y69.609 E0.03128 ; brim
G1 X91.618 Y69.582 E0.05186 ; brim
G1 X102.124 Y71.920 E0.33745 ; brim
G1 X103.474 Y72.445 E0.04542 ; brim
G1 X113.076 Y78.537 E0.35654 ; brim
G1 X120.224 Y87.346 E0.35568 ; brim
G1 X124.346 Y98.598 E0.37573 ; brim
G1 X124.484 Y110.598 E0.37627 ; brim
G1 X120.582 Y122.013 E0.37825 ; brim
G1 X113.078 Y131.460 E0.37828 ; brim
G1 X102.788 Y137.867 E0.38007 ; brim
G1 X90.938 Y140.479 E0.38047 ; brim
G1 X90.157 Y140.419 E0.02456 ; brim
G1 X89.386 Y140.249 E0.02477 ; brim
G1 X88.305 Y139.780 E0.03693 ; brim
G1 X86.978 Y138.747 E0.05272 ; brim
G1 X86.290 Y137.890 E0.03446 ; brim
G1 X85.800 Y136.902 E0.03456 ; brim
G1 X85.525 Y135.757 E0.03692 ; brim
G1 X85.551 Y127.037 E0.27342 ; brim
G1 X86.002 Y125.640 E0.04604 ; brim
G1 X86.259 Y125.112 E0.01841 ; brim
G1 X87.689 Y123.545 E0.06652 ; brim
G1 X89.269 Y122.724 E0.05584 ; brim
G1 X95.682 Y121.327 E0.20580 ; brim
G1 X100.211 Y118.774 E0.16300 ; brim
G1 X101.613 Y117.296 E0.06386 ; brim
G1 X101.606 Y94.344 E0.71962 ; brim
G1 X101.943 Y92.995 E0.04362 ; brim
G1 E-3.60000 F2400.000 ; retract
;WIPE_START
G1 F8640.000
G1 X99.323 Y90.562 E-0.94362 ; wipe and retract
G1 X95.157 Y88.468 E-1.23031 ; wipe and retract
G1 X94.764 Y88.383 E-0.10608 ; wipe and retract
;WIPE_END
G1 E-0.12000 F2400.000 ; retract
G1 Z0.275 F10800.000 ; lift Z
G1 X101.990 Y117.446 ; move to first brim point
G1 Z0.200 ; restore layer Z
G1 E6.00000 F3000.000 ; unretract
G1 F1800.000
G1 X101.983 Y94.368 E0.72359 ; brim
G1 X102.380 Y92.809 E0.05045 ; brim
G1 X99.537 Y90.248 E0.11997 ; brim
G1 X95.283 Y88.110 E0.14929 ; brim
G1 X88.937 Y86.744 E0.20352 ; brim
G1 X87.573 Y85.877 E0.05068 ; brim
G1 X86.645 Y84.790 E0.04481 ; brim
G1 X86.387 Y84.301 E0.01732 ; brim
G1 X85.872 Y82.581 E0.05628 ; brim
G1 X85.910 Y74.195 E0.26296 ; brim
G1 X86.178 Y73.166 E0.03334 ; brim
G1 X86.788 Y72.047 E0.03996 ; brim
G1 X87.400 Y71.370 E0.02862 ; brim
G1 X88.282 Y70.680 E0.03511 ; brim
G1 X89.127 Y70.239 E0.02987 ; brim
G1 X90.044 Y69.978 E0.02989 ; brim
G1 X91.558 Y69.955 E0.04747 ; brim
G1 X102.028 Y72.285 E0.33632 ; brim
G1 X103.288 Y72.773 E0.04237 ; brim
G1 X112.802 Y78.799 E0.35310 ; brim
G1 X119.911 Y87.559 E0.35374 ; brim
G1 X123.981 Y98.697 E0.37180 ; brim
G1 X124.107 Y110.569 E0.37226 ; brim
G1 X120.236 Y121.860 E0.37424 ; brim
G1 X112.803 Y131.200 E0.37425 ; brim
G1 X102.616 Y137.530 E0.37605 ; brim
G1 X90.939 Y140.101 E0.37490 ; brim
G1 X90.200 Y140.044 E0.02326 ; brim
G1 X89.485 Y139.885 E0.02296 ; brim
G1 X88.517 Y139.467 E0.03307 ; brim
G1 X87.258 Y138.493 E0.04989 ; brim
G1 X86.597 Y137.670 E0.03309 ; brim
G1 X86.148 Y136.755 E0.03197 ; brim
G1 X85.902 Y135.735 E0.03289 ; brim
G1 X85.919 Y127.125 E0.26997 ; brim
G1 X86.357 Y125.769 E0.04468 ; brim
G1 X86.585 Y125.302 E0.01631 ; brim
G1 X87.894 Y123.863 E0.06097 ; brim
G1 X89.375 Y123.087 E0.05243 ; brim
G1 X95.818 Y121.683 E0.20677 ; brim
G1 X100.446 Y119.074 E0.16656 ; brim
G1 X101.949 Y117.490 E0.06848 ; brim
G1 X102.367 Y117.596 F10800.000 ; move to first brim point
G1 F1800.000
G1 X102.360 Y94.392 E0.72754 ; brim
G1 X102.708 Y93.046 E0.04360 ; brim
G1 X102.867 Y92.740 E0.01080 ; brim
G1 X99.752 Y89.933 E0.13147 ; brim
G1 X95.409 Y87.751 E0.15240 ; brim
G1 X89.109 Y86.407 E0.20197 ; brim
G1 X87.841 Y85.610 E0.04696 ; brim
G1 X86.946 Y84.562 E0.04319 ; brim
G1 X86.730 Y84.144 E0.01476 ; brim
G1 X86.250 Y82.555 E0.05205 ; brim
G1 X86.287 Y74.221 E0.26130 ; brim
G1 X86.536 Y73.285 E0.03038 ; brim
G1 X87.083 Y72.282 E0.03581 ; brim
G1 X87.647 Y71.656 E0.02642 ; brim
G1 X88.474 Y71.005 E0.03300 ; brim
G1 X89.250 Y70.596 E0.02749 ; brim
G1 X90.124 Y70.348 E0.02848 ; brim
G1 X91.498 Y70.328 E0.04309 ; brim
G1 X101.933 Y72.650 E0.33519 ; brim
G1 X103.102 Y73.102 E0.03931 ; brim
G1 X112.574 Y79.101 E0.35155 ; brim
G1 X119.598 Y87.772 E0.34989 ; brim
G1 X123.616 Y98.796 E0.36787 ; brim
G1 X123.729 Y110.540 E0.36826 ; brim
G1 X119.890 Y121.706 E0.37022 ; brim
G1 X112.529 Y130.939 E0.37023 ; brim
G1 X102.504 Y137.168 E0.37006 ; brim
G1 X90.939 Y139.723 E0.37133 ; brim
G1 X90.268 Y139.673 E0.02110 ; brim
G1 X89.584 Y139.520 E0.02197 ; brim
G1 X88.727 Y139.153 E0.02923 ; brim
G1 X87.538 Y138.239 E0.04703 ; brim
G1 X86.905 Y137.451 E0.03170 ; brim
G1 X86.496 Y136.609 E0.02936 ; brim
G1 X86.279 Y135.713 E0.02890 ; brim
G1 X86.286 Y127.213 E0.26652 ; brim
G1 X86.711 Y125.898 E0.04332 ; brim
G1 X86.912 Y125.492 E0.01420 ; brim
G1 X88.099 Y124.180 E0.05548 ; brim
G1 X89.481 Y123.450 E0.04899 ; brim
G1 X95.954 Y122.039 E0.20773 ; brim
G1 X100.680 Y119.375 E0.17012 ; brim
G1 X102.326 Y117.640 E0.07497 ; brim
G1 X102.744 Y117.747 F10800.000 ; move to first brim point
G1 F1800.000
G1 X102.737 Y94.417 E0.73149 ; brim
G1 X103.066 Y93.167 E0.04051 ; brim
G1 X103.344 Y92.663 E0.01806 ; brim
G1 X99.967 Y89.619 E0.14256 ; brim
G1 X95.534 Y87.392 E0.15553 ; brim
G1 X89.279 Y86.069 E0.20046 ; brim
G1 X88.108 Y85.342 E0.04321 ; brim
G1 X87.249 Y84.335 E0.04152 ; brim
G1 X87.074 Y83.989 E0.01215 ; brim
G1 X86.627 Y82.528 E0.04792 ; brim
G1 X86.664 Y74.248 E0.25960 ; brim
G1 X86.894 Y73.406 E0.02738 ; brim
G1 X87.379 Y72.517 E0.03175 ; brim
G1 X87.894 Y71.941 E0.02423 ; brim
G1 X88.665 Y71.330 E0.03084 ; brim
G1 X89.407 Y70.940 E0.02630 ; brim
G1 X90.201 Y70.717 E0.02584 ; brim
G1 X91.437 Y70.700 E0.03876 ; brim
G1 X101.837 Y73.015 E0.33407 ; brim
G1 X102.916 Y73.431 E0.03626 ; brim
G1 X112.301 Y79.362 E0.34810 ; brim
G1 X119.286 Y87.985 E0.34793 ; brim
G1 X123.250 Y98.894 E0.36394 ; brim
G1 X123.352 Y110.511 E0.36426 ; brim
G1 X119.544 Y121.553 E0.36621 ; brim
G1 X112.302 Y130.636 E0.36424 ; brim
G1 X102.391 Y136.807 E0.36607 ; brim
G1 X90.940 Y139.345 E0.36775 ; brim
G1 X90.310 Y139.298 E0.01979 ; brim
G1 X89.684 Y139.156 E0.02013 ; brim
G1 X88.937 Y138.839 E0.02546 ; brim
G1 X87.817 Y137.985 E0.04413 ; brim
G1 X87.213 Y137.232 E0.03027 ; brim
G1 X86.845 Y136.464 E0.02672 ; brim
G1 X86.656 Y135.690 E0.02497 ; brim
G1 X86.654 Y127.301 E0.26305 ; brim
G1 X87.066 Y126.028 E0.04193 ; brim
G1 X87.238 Y125.683 E0.01208 ; brim
G1 X88.306 Y124.497 E0.05007 ; brim
G1 X89.587 Y123.813 E0.04552 ; brim
G1 X96.090 Y122.396 E0.20868 ; brim
G1 X100.915 Y119.676 E0.17368 ; brim
G1 X102.703 Y117.790 E0.08147 ; brim
G1 X103.159 Y117.858 F10800.000 ; move to first brim point
G1 F1800.000
G1 X103.115 Y117.584 E0.00868 ; brim
G1 X103.115 Y94.442 E0.72561 ; brim
G1 X103.424 Y93.290 E0.03740 ; brim
G1 X103.824 Y92.588 E0.02535 ; brim
G1 X100.181 Y89.305 E0.15373 ; brim
G1 X95.660 Y87.033 E0.15866 ; brim
G1 X89.448 Y85.730 E0.19901 ; brim
G1 X88.374 Y85.073 E0.03946 ; brim
G1 X87.574 Y84.143 E0.03850 ; brim
G1 X87.429 Y83.860 E0.00994 ; brim
G1 X87.004 Y82.500 E0.04469 ; brim
G1 X87.041 Y74.276 E0.25785 ; brim
G1 X87.251 Y73.529 E0.02433 ; brim
G1 X87.675 Y72.751 E0.02778 ; brim
G1 X88.142 Y72.225 E0.02204 ; brim
G1 X88.858 Y71.654 E0.02872 ; brim
G1 X89.529 Y71.297 E0.02383 ; brim
G1 X90.279 Y71.087 E0.02441 ; brim
G1 X91.376 Y71.073 E0.03441 ; brim
G1 X101.742 Y73.380 E0.33295 ; brim
G1 X102.731 Y73.759 E0.03322 ; brim
G1 X112.027 Y79.624 E0.34463 ; brim
G1 X118.973 Y88.198 E0.34597 ; brim
G1 X122.885 Y98.992 E0.35999 ; brim
G1 X122.975 Y110.482 E0.36026 ; brim
G1 X119.198 Y121.399 E0.36220 ; brim
G1 X112.028 Y130.376 E0.36023 ; brim
G1 X102.219 Y136.470 E0.36207 ; brim
G1 X90.940 Y138.967 E0.36221 ; brim
G1 X90.353 Y138.923 E0.01846 ; brim
G1 X89.784 Y138.793 E0.01829 ; brim
G1 X89.145 Y138.523 E0.02176 ; brim
G1 X88.097 Y137.730 E0.04121 ; brim
G1 X87.521 Y137.014 E0.02882 ; brim
G1 X87.194 Y136.320 E0.02405 ; brim
G1 X87.033 Y135.667 E0.02110 ; brim
G1 X87.022 Y127.388 E0.25957 ; brim
G1 X87.420 Y126.159 E0.04052 ; brim
G1 X87.563 Y125.876 E0.00993 ; brim
G1 X88.515 Y124.813 E0.04475 ; brim
G1 X89.693 Y124.176 E0.04200 ; brim
G1 X96.225 Y122.752 E0.20961 ; brim
G1 X101.150 Y119.976 E0.17723 ; brim
G1 X103.117 Y117.901 E0.08967 ; brim
G1 X103.564 Y117.978 F10800.000 ; move to first brim point
G1 F1800.000
G1 X103.492 Y117.567 E0.01310 ; brim
G1 X103.492 Y94.468 E0.72424 ; brim
G1 X103.780 Y93.415 E0.03424 ; brim
G1 X104.121 Y92.830 E0.02122 ; brim
G1 X104.363 Y92.565 E0.01123 ; brim
G1 X100.396 Y88.991 E0.16742 ; brim
G1 X95.785 Y86.674 E0.16181 ; brim
G1 X89.614 Y85.390 E0.19762 ; brim
G1 X88.639 Y84.803 E0.03569 ; brim
G1 X87.897 Y83.948 E0.03550 ; brim
G1 X87.783 Y83.729 E0.00774 ; brim
G1 X87.381 Y82.471 E0.04140 ; brim
G1 X87.418 Y74.305 E0.25606 ; brim
G1 X87.607 Y73.654 E0.02124 ; brim
G1 X87.972 Y72.984 E0.02393 ; brim
G1 X88.391 Y72.509 E0.01986 ; brim
G1 X89.053 Y71.978 E0.02662 ; brim
G1 X89.652 Y71.654 E0.02132 ; brim
G1 X90.357 Y71.457 E0.02296 ; brim
G1 X91.316 Y71.446 E0.03006 ; brim
G1 X101.647 Y73.745 E0.33185 ; brim
G1 X102.546 Y74.088 E0.03018 ; brim
G1 X111.800 Y79.926 E0.34306 ; brim
G1 X118.660 Y88.410 E0.34209 ; brim
G1 X122.519 Y99.090 E0.35605 ; brim
G1 X122.598 Y110.452 E0.35626 ; brim
G1 X118.883 Y121.189 E0.35622 ; brim
G1 X111.801 Y130.073 E0.35622 ; brim
G1 X102.106 Y136.109 E0.35808 ; brim
G1 X90.940 Y138.589 E0.35862 ; brim
G1 X90.396 Y138.548 E0.01712 ; brim
G1 X89.885 Y138.429 E0.01643 ; brim
G1 X89.351 Y138.207 E0.01812 ; brim
G1 X88.376 Y137.476 E0.03824 ; brim
G1 X87.829 Y136.795 E0.02735 ; brim
G1 X87.554 Y136.210 E0.02029 ; brim
G1 X87.410 Y135.642 E0.01837 ; brim
G1 X87.390 Y127.476 E0.25604 ; brim
G1 X87.774 Y126.290 E0.03908 ; brim
G1 X87.887 Y126.070 E0.00775 ; brim
G1 X88.725 Y125.127 E0.03955 ; brim
G1 X89.801 Y124.538 E0.03845 ; brim
G1 X96.361 Y123.108 E0.21053 ; brim
G1 X101.384 Y120.277 E0.18079 ; brim
G1 X103.523 Y118.021 E0.09746 ; brim
G1 X103.971 Y118.097 F10800.000 ; move to first brim point
G1 F1800.000
G1 X103.869 Y117.548 E0.01750 ; brim
G1 X103.869 Y94.494 E0.72283 ; brim
G1 X104.136 Y93.542 E0.03102 ; brim
G1 X104.432 Y93.044 E0.01816 ; brim
G1 X104.813 Y92.649 E0.01721 ; brim
G1 X104.521 Y92.195 E0.01692 ; brim
G1 X100.611 Y88.677 E0.16495 ; brim
G1 X95.910 Y86.314 E0.16496 ; brim
G1 X89.778 Y85.049 E0.19629 ; brim
G1 X88.902 Y84.531 E0.03192 ; brim
G1 X88.219 Y83.750 E0.03255 ; brim
G1 X88.136 Y83.594 E0.00553 ; brim
G1 X87.758 Y82.442 E0.03803 ; brim
G1 X87.788 Y74.382 E0.25270 ; brim
G1 X87.949 Y73.814 E0.01853 ; brim
G1 X88.271 Y73.215 E0.02130 ; brim
G1 X88.640 Y72.792 E0.01761 ; brim
G1 X89.275 Y72.283 E0.02552 ; brim
G1 X89.810 Y71.997 E0.01900 ; brim
G1 X90.432 Y71.827 E0.02023 ; brim
G1 X91.255 Y71.819 E0.02579 ; brim
G1 X101.552 Y74.110 E0.33076 ; brim
G1 X102.361 Y74.418 E0.02715 ; brim
G1 X111.526 Y80.188 E0.33957 ; brim
G1 X118.347 Y88.623 E0.34012 ; brim
G1 X122.153 Y99.188 E0.35210 ; brim
G1 X122.220 Y110.422 E0.35226 ; brim
G1 X118.538 Y121.035 E0.35222 ; brim
G1 X111.526 Y129.812 E0.35222 ; brim
G1 X101.934 Y135.772 E0.35408 ; brim
G1 X90.940 Y138.210 E0.35308 ; brim
G1 X90.439 Y138.173 E0.01577 ; brim
G1 X89.987 Y138.066 E0.01458 ; brim
G1 X89.556 Y137.890 E0.01458 ; brim
G1 X88.654 Y137.220 E0.03522 ; brim
G1 X88.138 Y136.577 E0.02585 ; brim
G1 X87.914 Y136.097 E0.01662 ; brim
G1 X87.787 Y135.615 E0.01561 ; brim
G1 X87.758 Y127.563 E0.25247 ; brim
G1 X88.127 Y126.422 E0.03760 ; brim
G1 X88.209 Y126.266 E0.00553 ; brim
G1 X88.937 Y125.441 E0.03451 ; brim
G1 X89.909 Y124.901 E0.03484 ; brim
G1 X96.497 Y123.465 E0.21142 ; brim
G1 X101.619 Y120.578 E0.18435 ; brim
G1 X103.930 Y118.140 E0.10531 ; brim
G1 X104.379 Y118.215 F10800.000 ; move to first brim point
G1 F1800.000
G1 X104.246 Y117.529 E0.02189 ; brim
G1 X104.246 Y94.520 E0.72143 ; brim
G1 X104.473 Y93.713 E0.02629 ; brim
G1 X104.744 Y93.258 E0.01662 ; brim
G1 X105.295 Y92.702 E0.02455 ; brim
G1 X104.811 Y91.949 E0.02806 ; brim
G1 X100.825 Y88.363 E0.16812 ; brim
G1 X96.034 Y85.955 E0.16812 ; brim
G1 X89.943 Y84.709 E0.19493 ; brim
G1 X89.121 Y84.223 E0.02995 ; brim
G1 X88.538 Y83.550 E0.02790 ; brim
G1 X88.487 Y83.456 E0.00335 ; brim
G1 X88.136 Y82.411 E0.03458 ; brim
G1 X88.158 Y74.458 E0.24937 ; brim
G1 X88.293 Y73.971 E0.01583 ; brim
G1 X88.571 Y73.445 E0.01866 ; brim
G1 X88.890 Y73.075 E0.01531 ; brim
G1 X89.497 Y72.589 E0.02438 ; brim
G1 X89.966 Y72.341 E0.01663 ; brim
G1 X90.505 Y72.198 E0.01750 ; brim
G1 X91.194 Y72.191 E0.02158 ; brim
G1 X101.457 Y74.476 E0.32967 ; brim
G1 X102.176 Y74.747 E0.02411 ; brim
G1 X111.299 Y80.490 E0.33799 ; brim
G1 X118.033 Y88.835 E0.33622 ; brim
G1 X121.788 Y99.285 E0.34815 ; brim
G1 X121.843 Y110.392 E0.34826 ; brim
G1 X118.192 Y120.881 E0.34822 ; brim
G1 X111.252 Y129.551 E0.34822 ; brim
G1 X101.821 Y135.411 E0.34813 ; brim
G1 X90.939 Y137.833 E0.34955 ; brim
G1 X90.511 Y137.803 E0.01346 ; brim
G1 X90.089 Y137.702 E0.01359 ; brim
G1 X89.723 Y137.551 E0.01241 ; brim
G1 X88.900 Y136.933 E0.03227 ; brim
G1 X88.469 Y136.396 E0.02158 ; brim
G1 X88.274 Y135.983 E0.01432 ; brim
G1 X88.158 Y135.542 E0.01430 ; brim
G1 X88.136 Y127.593 E0.24923 ; brim
G1 X88.479 Y126.559 E0.03418 ; brim
G1 X88.529 Y126.467 E0.00328 ; brim
G1 X89.197 Y125.716 E0.03153 ; brim
G1 X90.016 Y125.263 E0.02931 ; brim
G1 X96.633 Y123.821 E0.21234 ; brim
G1 X101.853 Y120.878 E0.18791 ; brim
G1 X104.338 Y118.258 E0.11320 ; brim
G1 X104.828 Y118.289 F10800.000 ; move to first brim point
G1 F1800.000
G1 X104.735 Y118.072 E0.00741 ; brim
G1 X104.623 Y117.510 E0.01797 ; brim
G1 X104.623 Y94.547 E0.72001 ; brim
G1 X104.811 Y93.881 E0.02169 ; brim
G1 X105.029 Y93.505 E0.01362 ; brim
G1 X105.776 Y92.753 E0.03325 ; brim
G1 X105.101 Y91.702 E0.03914 ; brim
G1 X101.040 Y88.048 E0.17130 ; brim
G1 X96.158 Y85.595 E0.17129 ; brim
G1 X90.104 Y84.367 E0.19369 ; brim
G1 X89.384 Y83.950 E0.02609 ; brim
G1 X88.853 Y83.342 E0.02532 ; brim
G1 X88.513 Y82.379 E0.03202 ; brim
G1 X88.529 Y74.531 E0.24608 ; brim
G1 X88.637 Y74.125 E0.01316 ; brim
G1 X88.872 Y73.672 E0.01600 ; brim
G1 X89.140 Y73.358 E0.01295 ; brim
G1 X89.718 Y72.895 E0.02321 ; brim
G1 X90.119 Y72.686 E0.01419 ; brim
G1 X90.576 Y72.569 E0.01479 ; brim
G1 X91.133 Y72.564 E0.01744 ; brim
G1 X101.362 Y74.841 E0.32860 ; brim
G1 X101.992 Y75.077 E0.02109 ; brim
G1 X111.025 Y80.751 E0.33447 ; brim
G1 X117.720 Y89.047 E0.33424 ; brim
G1 X121.422 Y99.381 E0.34419 ; brim
