; generated by PrusaSlicer 2.3.0+win64 on 2021-11-01 at 11:45:32 UTC

; 

; external perimeters extrusion width = 0.60mm
; perimeters extrusion width = 0.45mm
; infill extrusion width = 0.45mm
; solid infill extrusion width = 0.45mm
; top infill extrusion width = 0.40mm
; support material extrusion width = 0.35mm
; first layer extrusion width = 0.42mm

M201 X1000 Y1000 Z200 E5000 ; sets maximum accelerations, mm/sec^2
M203 X200 Y200 Z8 E60 ; sets maximum feedrates, mm/sec
M204 P1250 R1250 T1250 ; sets acceleration (P, T) and retract acceleration (R), mm/sec^2
M205 X8.00 Y8.00 Z0.40 E5.00 ; sets the jerk limits, mm/sec
M205 S0 T0 ; sets the minimum extruding and travel feed rate, mm/sec
M107 ; disable fan
;TYPE:Custom
G90 ; use absolute coordinates
M83 ; extruder relative mode
M204 S1250 T1250
M104 S215 ; set extruder temp
M140 S60 ; set bed temp
G28 ; home all
G1 Y0 Z1 F100 ; move print head up
M190 S60 ; wait for bed temp
M109 S215 ; wait for extruder temp
G92 E0
G1 E38 F1000; deretract filament
G92 E0
G1 X60 Z0 E9 ; intro line
G1 X100 E12.5 ; intro line
G92 E0
G21 ; set units to millimeters
G90 ; use absolute coordinates
M83 ; use relative distances for extrusion
; Filament gcode
;LAYER_CHANGE
;Z:0.2
;HEIGHT:0.2
;BEFORE_LAYER_CHANGE
;0.2
G1 E-6.00000 F2400.000 ; retract
G1 Z0.075 F10800.000 ; lift Z
G1 Z0.200 ; move to next layer (0)
;AFTER_LAYER_CHANGE
;0.2
G1 Z0.275 ; lift Z
G1 X145.468 Y94.960 ; move to first brim point
G1 Z0.200 ; restore layer Z
G1 E6.00000 F3000.000 ; unretract
M204 S1250 ; adjust acceleration
;TYPE:Skirt
;WIDTH:0.42
G1 F1800.000
G1 X145.468 Y115.054 E0.63002 ; brim
G1 X147.967 Y115.091 E0.07837 ; brim
G1 X149.130 Y115.431 E0.03800 ; brim
G1 X150.190 Y116.026 E0.03811 ; brim
G1 X151.198 Y116.973 E0.04334 ; brim
G1 X151.927 Y118.055 E0.04094 ; brim
G1 X152.468 Y119.916 E0.06074 ; brim
G1 X152.437 Y128.098 E0.25654 ; brim
G1 X152.134 Y129.266 E0.03784 ; brim
G1 X151.658 Y130.233 E0.03380 ; brim
G1 X150.650 Y131.388 E0.04808 ; brim
G1 X149.886 Y131.998 E0.03064 ; brim
G1 X147.608 Y132.770 E0.07541 ; brim
G1 X62.445 Y132.770 E2.67024 ; brim
G1 X61.047 Y132.440 E0.04502 ; brim
G1 X60.069 Y131.960 E0.03415 ; brim
G1 X58.914 Y130.952 E0.04809 ; brim
G1 X58.304 Y130.188 E0.03064 ; brim
G1 X57.532 Y127.910 E0.07541 ; brim
G1 X57.532 Y119.942 E0.24983 ; brim
G1 X57.960 Y118.300 E0.05322 ; brim
G1 X58.576 Y117.246 E0.03828 ; brim
G1 X59.747 Y116.075 E0.05193 ; brim
G1 X60.864 Y115.434 E0.04039 ; brim
G1 X62.262 Y115.058 E0.04539 ; brim
G1 X64.532 Y115.047 E0.07118 ; brim
G1 X64.532 Y94.946 E0.63025 ; brim
G1 X62.023 Y94.907 E0.07868 ; brim
G1 X60.820 Y94.548 E0.03937 ; brim
G1 X59.799 Y93.966 E0.03685 ; brim
G1 X58.772 Y92.992 E0.04439 ; brim
G1 X58.070 Y91.940 E0.03963 ; brim
G1 X57.532 Y90.083 E0.06063 ; brim
G1 X57.571 Y81.845 E0.25829 ; brim
G1 X57.868 Y80.726 E0.03631 ; brim
G1 X58.342 Y79.766 E0.03356 ; brim
G1 X59.350 Y78.612 E0.04806 ; brim
G1 X60.114 Y78.002 E0.03064 ; brim
G1 X62.392 Y77.230 E0.07542 ; brim
G1 X147.523 Y77.234 E2.66922 ; brim
G1 X148.618 Y77.440 E0.03494 ; brim
G1 X149.692 Y77.892 E0.03654 ; brim
G1 X151.079 Y79.036 E0.05639 ; brim
G1 X151.927 Y80.251 E0.04643 ; brim
G1 X152.403 Y81.684 E0.04736 ; brim
G1 X152.469 Y90.065 E0.26278 ; brim
G1 X151.982 Y91.830 E0.05742 ; brim
G1 X151.353 Y92.844 E0.03740 ; brim
G1 X150.383 Y93.824 E0.04322 ; brim
G1 X149.305 Y94.494 E0.03981 ; brim
G1 X147.627 Y94.957 E0.05457 ; brim
G1 X145.528 Y94.960 E0.06583 ; brim
G1 X145.091 Y94.584 F10800.000 ; move to first brim point
G1 F1800.000
G1 X145.091 Y115.427 E0.65352 ; brim
G1 X147.886 Y115.461 E0.08766 ; brim
G1 X149.003 Y115.786 E0.03648 ; brim
G1 X149.983 Y116.343 E0.03533 ; brim
G1 X150.923 Y117.231 E0.04055 ; brim
G1 X151.598 Y118.240 E0.03806 ; brim
G1 X152.091 Y119.941 E0.05553 ; brim
G1 X152.066 Y128.026 E0.25348 ; brim
G1 X151.774 Y129.152 E0.03647 ; brim
G1 X151.332 Y130.043 E0.03118 ; brim
G1 X150.378 Y131.126 E0.04525 ; brim
G1 X149.678 Y131.683 E0.02806 ; brim
G1 X147.578 Y132.393 E0.06951 ; brim
G1 X62.467 Y132.393 E2.66857 ; brim
G1 X61.157 Y132.078 E0.04227 ; brim
G1 X60.259 Y131.634 E0.03139 ; brim
G1 X59.176 Y130.680 E0.04525 ; brim
G1 X58.619 Y129.980 E0.02806 ; brim
G1 X57.909 Y127.880 E0.06951 ; brim
G1 X57.909 Y119.967 E0.24809 ; brim
G1 X58.317 Y118.421 E0.05013 ; brim
G1 X58.859 Y117.495 E0.03363 ; brim
G1 X59.995 Y116.360 E0.05036 ; brim
G1 X61.029 Y115.774 E0.03726 ; brim
G1 X62.289 Y115.435 E0.04090 ; brim
G1 X64.909 Y115.422 E0.08218 ; brim
G1 X64.909 Y94.573 E0.65370 ; brim
G1 X62.106 Y94.538 E0.08791 ; brim
G1 X60.949 Y94.193 E0.03784 ; brim
G1 X60.008 Y93.651 E0.03408 ; brim
G1 X59.048 Y92.734 E0.04161 ; brim
G1 X58.401 Y91.757 E0.03676 ; brim
G1 X57.909 Y90.058 E0.05545 ; brim
G1 X57.941 Y81.919 E0.25519 ; brim
G1 X58.228 Y80.842 E0.03494 ; brim
G1 X58.668 Y79.957 E0.03100 ; brim
G1 X59.622 Y78.874 E0.04524 ; brim
G1 X60.322 Y78.317 E0.02806 ; brim
G1 X62.423 Y77.607 E0.06951 ; brim
G1 X147.505 Y77.611 E2.66769 ; brim
G1 X148.527 Y77.806 E0.03263 ; brim
G1 X149.518 Y78.228 E0.03378 ; brim
G1 X150.818 Y79.309 E0.05301 ; brim
G1 X151.601 Y80.443 E0.04320 ; brim
G1 X152.026 Y81.717 E0.04211 ; brim
G1 X152.091 Y90.042 E0.26103 ; brim
G1 X151.646 Y91.656 E0.05249 ; brim
G1 X151.069 Y92.594 E0.03454 ; brim
G1 X150.131 Y93.542 E0.04181 ; brim
G1 X149.130 Y94.158 E0.03685 ; brim
G1 X147.601 Y94.580 E0.04973 ; brim
G1 X145.151 Y94.584 E0.07685 ; brim
G1 X144.713 Y94.208 F10800.000 ; move to first brim point
G1 F1800.000
G1 X144.713 Y115.801 E0.67705 ; brim
G1 X147.807 Y115.830 E0.09701 ; brim
G1 X148.837 Y116.126 E0.03359 ; brim
G1 X149.777 Y116.659 E0.03388 ; brim
G1 X150.647 Y117.489 E0.03771 ; brim
G1 X151.267 Y118.425 E0.03520 ; brim
G1 X151.713 Y119.967 E0.05036 ; brim
G1 X151.695 Y127.954 E0.25042 ; brim
G1 X151.414 Y129.038 E0.03509 ; brim
G1 X151.006 Y129.851 E0.02853 ; brim
G1 X150.108 Y130.863 E0.04242 ; brim
G1 X149.470 Y131.367 E0.02550 ; brim
G1 X147.547 Y132.015 E0.06363 ; brim
G1 X62.490 Y132.015 E2.66689 ; brim
G1 X61.267 Y131.717 E0.03947 ; brim
G1 X60.451 Y131.308 E0.02862 ; brim
G1 X59.439 Y130.410 E0.04242 ; brim
G1 X58.935 Y129.772 E0.02550 ; brim
G1 X58.287 Y127.849 E0.06363 ; brim
G1 X58.287 Y119.991 E0.24636 ; brim
G1 X58.657 Y118.587 E0.04552 ; brim
G1 X59.144 Y117.744 E0.03054 ; brim
G1 X60.243 Y116.645 E0.04873 ; brim
G1 X61.192 Y116.115 E0.03409 ; brim
G1 X62.315 Y115.812 E0.03646 ; brim
G1 X65.287 Y115.797 E0.09317 ; brim
G1 X65.287 Y94.199 E0.67719 ; brim
G1 X62.188 Y94.169 E0.09716 ; brim
G1 X61.079 Y93.838 E0.03628 ; brim
G1 X60.217 Y93.337 E0.03126 ; brim
G1 X59.325 Y92.478 E0.03883 ; brim
G1 X58.732 Y91.574 E0.03391 ; brim
G1 X58.286 Y90.032 E0.05031 ; brim
G1 X58.312 Y81.992 E0.25208 ; brim
G1 X58.587 Y80.958 E0.03356 ; brim
G1 X58.994 Y80.149 E0.02839 ; brim
G1 X59.892 Y79.137 E0.04242 ; brim
G1 X60.530 Y78.633 E0.02550 ; brim
G1 X62.453 Y77.985 E0.06363 ; brim
G1 X147.486 Y77.988 E2.66615 ; brim
G1 X148.435 Y78.172 E0.03029 ; brim
G1 X149.343 Y78.563 E0.03101 ; brim
G1 X150.556 Y79.581 E0.04966 ; brim
G1 X151.253 Y80.590 E0.03844 ; brim
G1 X151.649 Y81.751 E0.03847 ; brim
G1 X151.714 Y90.019 E0.25924 ; brim
G1 X151.311 Y91.483 E0.04761 ; brim
G1 X150.785 Y92.345 E0.03166 ; brim
G1 X149.880 Y93.261 E0.04038 ; brim
G1 X148.957 Y93.822 E0.03387 ; brim
G1 X147.576 Y94.203 E0.04493 ; brim
G1 X144.773 Y94.207 E0.08786 ; brim
G1 X144.336 Y93.831 F10800.000 ; move to first brim point
G1 F1800.000
G1 X144.336 Y116.176 E0.70061 ; brim
G1 X147.730 Y116.200 E0.10641 ; brim
G1 X148.671 Y116.465 E0.03065 ; brim
G1 X149.570 Y116.975 E0.03240 ; brim
G1 X150.370 Y117.746 E0.03482 ; brim
G1 X150.937 Y118.608 E0.03236 ; brim
G1 X151.336 Y119.993 E0.04522 ; brim
G1 X151.324 Y127.883 E0.24736 ; brim
G1 X151.055 Y128.923 E0.03369 ; brim
G1 X150.682 Y129.658 E0.02584 ; brim
G1 X149.839 Y130.598 E0.03960 ; brim
G1 X149.263 Y131.050 E0.02295 ; brim
G1 X147.516 Y131.638 E0.05778 ; brim
G1 X62.514 Y131.638 E2.66519 ; brim
G1 X61.380 Y131.357 E0.03664 ; brim
G1 X60.644 Y130.984 E0.02585 ; brim
G1 X59.704 Y130.141 E0.03960 ; brim
G1 X59.252 Y129.565 E0.02295 ; brim
G1 X58.664 Y127.818 E0.05778 ; brim
G1 X58.664 Y120.016 E0.24464 ; brim
G1 X58.997 Y118.752 E0.04098 ; brim
G1 X59.429 Y117.992 E0.02740 ; brim
G1 X60.490 Y116.931 E0.04706 ; brim
G1 X61.353 Y116.456 E0.03090 ; brim
G1 X62.341 Y116.189 E0.03209 ; brim
G1 X65.664 Y116.172 E0.10417 ; brim
G1 X65.664 Y93.824 E0.70071 ; brim
G1 X62.270 Y93.800 E0.10641 ; brim
G1 X61.209 Y93.484 E0.03470 ; brim
G1 X60.429 Y93.024 E0.02840 ; brim
G1 X59.603 Y92.222 E0.03607 ; brim
G1 X59.063 Y91.392 E0.03106 ; brim
G1 X58.664 Y90.006 E0.04522 ; brim
G1 X58.683 Y82.066 E0.24897 ; brim
G1 X58.946 Y81.074 E0.03216 ; brim
G1 X59.318 Y80.342 E0.02575 ; brim
G1 X60.161 Y79.402 E0.03960 ; brim
G1 X60.737 Y78.950 E0.02295 ; brim
G1 X62.484 Y78.362 E0.05779 ; brim
G1 X147.468 Y78.365 E2.66460 ; brim
G1 X148.341 Y78.538 E0.02791 ; brim
G1 X149.166 Y78.897 E0.02823 ; brim
G1 X150.293 Y79.853 E0.04631 ; brim
G1 X150.906 Y80.739 E0.03379 ; brim
G1 X151.272 Y81.786 E0.03477 ; brim
G1 X151.337 Y89.995 E0.25742 ; brim
G1 X150.974 Y91.311 E0.04277 ; brim
G1 X150.501 Y92.096 E0.02875 ; brim
G1 X149.629 Y92.978 E0.03890 ; brim
G1 X148.785 Y93.486 E0.03086 ; brim
G1 X147.550 Y93.826 E0.04017 ; brim
G1 X144.396 Y93.831 E0.09888 ; brim
G1 X143.959 Y93.455 F10800.000 ; move to first brim point
G1 F1800.000
G1 X143.959 Y116.550 E0.72415 ; brim
G1 X147.701 Y116.577 E0.11731 ; brim
G1 X148.544 Y116.821 E0.02754 ; brim
G1 X149.326 Y117.264 E0.02818 ; brim
G1 X150.068 Y117.973 E0.03219 ; brim
G1 X150.584 Y118.743 E0.02903 ; brim
G1 X150.959 Y120.021 E0.04177 ; brim
G1 X150.953 Y127.811 E0.24426 ; brim
G1 X150.695 Y128.807 E0.03227 ; brim
G1 X150.358 Y129.462 E0.02309 ; brim
G1 X149.571 Y130.332 E0.03679 ; brim
G1 X149.057 Y130.733 E0.02043 ; brim
G1 X147.486 Y131.261 E0.05197 ; brim
G1 X62.538 Y131.261 E2.66348 ; brim
G1 X61.494 Y130.997 E0.03376 ; brim
G1 X60.840 Y130.660 E0.02308 ; brim
G1 X59.970 Y129.873 E0.03679 ; brim
G1 X59.569 Y129.358 E0.02043 ; brim
G1 X59.041 Y127.788 E0.05197 ; brim
G1 X59.041 Y120.040 E0.24292 ; brim
G1 X59.338 Y118.914 E0.03650 ; brim
G1 X59.714 Y118.240 E0.02422 ; brim
G1 X60.737 Y117.217 E0.04537 ; brim
G1 X61.475 Y116.814 E0.02637 ; brim
G1 X62.369 Y116.566 E0.02907 ; brim
G1 X66.041 Y116.547 E0.11513 ; brim
G1 X66.041 Y93.450 E0.72421 ; brim
G1 X62.300 Y93.423 E0.11730 ; brim
G1 X61.379 Y93.146 E0.03013 ; brim
G1 X60.674 Y92.736 E0.02560 ; brim
G1 X59.906 Y91.996 E0.03343 ; brim
G1 X59.416 Y91.257 E0.02778 ; brim
G1 X59.041 Y89.979 E0.04178 ; brim
G1 X59.053 Y82.139 E0.24582 ; brim
G1 X59.305 Y81.192 E0.03074 ; brim
G1 X59.642 Y80.538 E0.02306 ; brim
G1 X60.429 Y79.668 E0.03679 ; brim
G1 X60.943 Y79.267 E0.02043 ; brim
G1 X62.515 Y78.739 E0.05197 ; brim
G1 X147.448 Y78.742 E2.66304 ; brim
G1 X148.246 Y78.903 E0.02550 ; brim
G1 X148.988 Y79.231 E0.02545 ; brim
G1 X150.028 Y80.122 E0.04294 ; brim
G1 X150.580 Y80.929 E0.03067 ; brim
G1 X150.905 Y81.878 E0.03145 ; brim
G1 X150.960 Y89.971 E0.25374 ; brim
G1 X150.619 Y91.182 E0.03946 ; brim
G1 X150.192 Y91.880 E0.02564 ; brim
G1 X149.379 Y92.695 E0.03609 ; brim
G1 X148.615 Y93.149 E0.02786 ; brim
G1 X147.524 Y93.449 E0.03547 ; brim
G1 X144.019 Y93.454 E0.10989 ; brim
G1 X143.582 Y93.078 F10800.000 ; move to first brim point
G1 F1800.000
G1 X143.582 Y116.925 E0.74770 ; brim
G1 X147.671 Y116.954 E0.12819 ; brim
G1 X148.416 Y117.176 E0.02438 ; brim
G1 X149.084 Y117.554 E0.02407 ; brim
G1 X149.769 Y118.203 E0.02961 ; brim
G1 X150.231 Y118.880 E0.02570 ; brim
G1 X150.582 Y120.049 E0.03826 ; brim
G1 X150.582 Y127.740 E0.24114 ; brim
G1 X150.335 Y128.691 E0.03082 ; brim
G1 X150.036 Y129.265 E0.02030 ; brim
G1 X149.304 Y130.065 E0.03399 ; brim
G1 X148.851 Y130.415 E0.01793 ; brim
G1 X147.455 Y130.884 E0.04619 ; brim
G1 X62.562 Y130.884 E2.66175 ; brim
G1 X61.611 Y130.637 E0.03082 ; brim
G1 X61.037 Y130.338 E0.02030 ; brim
G1 X60.237 Y129.606 E0.03399 ; brim
G1 X59.887 Y129.153 E0.01793 ; brim
G1 X59.418 Y127.757 E0.04619 ; brim
G1 X59.418 Y120.065 E0.24119 ; brim
G1 X59.680 Y119.074 E0.03211 ; brim
G1 X60.001 Y118.487 E0.02099 ; brim
G1 X60.984 Y117.503 E0.04363 ; brim
G1 X61.599 Y117.171 E0.02190 ; brim
G1 X62.397 Y116.943 E0.02603 ; brim
G1 X66.418 Y116.923 E0.12606 ; brim
G1 X66.418 Y93.075 E0.74772 ; brim
G1 X62.330 Y93.046 E0.12818 ; brim
G1 X61.548 Y92.809 E0.02562 ; brim
G1 X60.917 Y92.447 E0.02281 ; brim
G1 X60.206 Y91.768 E0.03083 ; brim
G1 X59.769 Y91.120 E0.02449 ; brim
G1 X59.418 Y89.951 E0.03827 ; brim
G1 X59.424 Y82.212 E0.24265 ; brim
G1 X59.664 Y81.309 E0.02930 ; brim
G1 X59.964 Y80.735 E0.02032 ; brim
G1 X60.696 Y79.935 E0.03399 ; brim
G1 X61.149 Y79.585 E0.01793 ; brim
G1 X62.545 Y79.116 E0.04619 ; brim
G1 X147.429 Y79.119 E2.66146 ; brim
G1 X148.148 Y79.268 E0.02304 ; brim
G1 X148.808 Y79.563 E0.02266 ; brim
G1 X149.761 Y80.390 E0.03956 ; brim
G1 X150.253 Y81.118 E0.02755 ; brim
G1 X150.538 Y81.969 E0.02815 ; brim
G1 X150.582 Y89.945 E0.25009 ; brim
G1 X150.264 Y91.052 E0.03610 ; brim
G1 X149.884 Y91.661 E0.02251 ; brim
G1 X149.131 Y92.410 E0.03331 ; brim
G1 X148.446 Y92.811 E0.02487 ; brim
G1 X147.498 Y93.072 E0.03083 ; brim
G1 X143.642 Y93.078 E0.12090 ; brim
G1 X143.205 Y92.702 F10800.000 ; move to first brim point
G1 F1800.000
G1 X143.205 Y117.299 E0.77124 ; brim
G1 X147.639 Y117.331 E0.13904 ; brim
G1 X148.285 Y117.530 E0.02117 ; brim
G1 X148.841 Y117.843 E0.02004 ; brim
G1 X149.496 Y118.464 E0.02828 ; brim
G1 X149.880 Y119.020 E0.02118 ; brim
G1 X150.205 Y120.078 E0.03471 ; brim
G1 X150.205 Y127.715 E0.23945 ; brim
G1 X149.977 Y128.572 E0.02783 ; brim
G1 X149.715 Y129.066 E0.01752 ; brim
G1 X149.039 Y129.797 E0.03121 ; brim
G1 X148.647 Y130.096 E0.01546 ; brim
G1 X147.424 Y130.507 E0.04045 ; brim
G1 X62.587 Y130.507 E2.66001 ; brim
G1 X61.729 Y130.279 E0.02783 ; brim
G1 X61.236 Y130.017 E0.01752 ; brim
G1 X60.505 Y129.341 E0.03121 ; brim
G1 X60.206 Y128.949 E0.01546 ; brim
G1 X59.795 Y127.726 E0.04045 ; brim
G1 X59.795 Y120.089 E0.23946 ; brim
G1 X60.023 Y119.231 E0.02783 ; brim
G1 X60.288 Y118.733 E0.01770 ; brim
G1 X61.231 Y117.790 E0.04182 ; brim
G1 X61.724 Y117.527 E0.01752 ; brim
G1 X62.427 Y117.320 E0.02296 ; brim
G1 X66.795 Y117.298 E0.13697 ; brim
G1 X66.795 Y92.701 E0.77122 ; brim
G1 X62.361 Y92.669 E0.13904 ; brim
G1 X61.715 Y92.470 E0.02117 ; brim
G1 X61.159 Y92.157 E0.02004 ; brim
G1 X60.504 Y91.536 E0.02828 ; brim
G1 X60.120 Y90.980 E0.02118 ; brim
G1 X59.795 Y89.922 E0.03471 ; brim
G1 X59.795 Y82.285 E0.23945 ; brim
G1 X60.023 Y81.428 E0.02783 ; brim
G1 X60.285 Y80.934 E0.01752 ; brim
G1 X60.961 Y80.203 E0.03121 ; brim
G1 X61.353 Y79.904 E0.01546 ; brim
G1 X62.576 Y79.493 E0.04045 ; brim
G1 X147.410 Y79.497 E2.65991 ; brim
G1 X148.013 Y79.621 E0.01933 ; brim
G1 X148.628 Y79.895 E0.02110 ; brim
G1 X149.493 Y80.656 E0.03611 ; brim
G1 X149.924 Y81.304 E0.02442 ; brim
G1 X150.171 Y82.058 E0.02486 ; brim
G1 X150.205 Y89.919 E0.24648 ; brim
G1 X149.910 Y90.918 E0.03267 ; brim
G1 X149.578 Y91.439 E0.01938 ; brim
G1 X148.884 Y92.124 E0.03057 ; brim
G1 X148.280 Y92.472 E0.02187 ; brim
G1 X147.472 Y92.695 E0.02626 ; brim
G1 X143.265 Y92.702 E0.13191 ; brim
G1 X142.828 Y92.325 F10800.000 ; move to first brim point
G1 F1800.000
G1 X142.828 Y117.675 E0.79482 ; brim
G1 X147.555 Y117.699 E0.14821 ; brim
G1 X148.155 Y117.884 E0.01968 ; brim
G1 X148.599 Y118.133 E0.01597 ; brim
G1 X149.223 Y118.725 E0.02696 ; brim
G1 X149.530 Y119.162 E0.01674 ; brim
G1 X149.828 Y120.107 E0.03108 ; brim
G1 X149.828 Y127.689 E0.23771 ; brim
G1 X149.620 Y128.451 E0.02477 ; brim
G1 X149.396 Y128.864 E0.01474 ; brim
G1 X148.775 Y129.527 E0.02845 ; brim
G1 X148.445 Y129.777 E0.01301 ; brim
G1 X147.394 Y130.130 E0.03476 ; brim
G1 X62.613 Y130.130 E2.65823 ; brim
G1 X61.851 Y129.922 E0.02477 ; brim
G1 X61.438 Y129.698 E0.01474 ; brim
G1 X60.775 Y129.077 E0.02845 ; brim
G1 X60.525 Y128.747 E0.01301 ; brim
G1 X60.172 Y127.696 E0.03476 ; brim
G1 X60.172 Y120.115 E0.23768 ; brim
G1 X60.380 Y119.353 E0.02477 ; brim
G1 X60.606 Y118.937 E0.01483 ; brim
