; generated by PrusaSlicer 2.3.0+win64 on 2021-11-08 at 11:24:04 UTC

; 

; external perimeters extrusion width = 0.60mm
; perimeters extrusion width = 0.45mm
; infill extrusion width = 0.45mm
; solid infill extrusion width = 0.45mm
; top infill extrusion width = 0.40mm
; support material extrusion width = 0.35mm
; first layer extrusion width = 0.42mm

M201 X1000 Y1000 Z200 E5000 ; sets maximum accelerations, mm/sec^2
M203 X200 Y200 Z8 E60 ; sets maximum feedrates, mm/sec
M204 P1250 R1250 T1250 ; sets acceleration (P, T) and retract acceleration (R), mm/sec^2
M205 X8.00 Y8.00 Z0.40 E5.00 ; sets the jerk limits, mm/sec
M205 S0 T0 ; sets the minimum extruding and travel feed rate, mm/sec
M107 ; disable fan
;TYPE:Custom
G90 ; use absolute coordinates
M83 ; extruder relative mode
M204 S1250 T1250
M104 S215 ; set extruder temp
M140 S60 ; set bed temp
G28 ; home all
G1 Y0 Z1 F100 ; move print head up
M190 S60 ; wait for bed temp
M109 S215 ; wait for extruder temp
G92 E0
G1 E38 F1000; deretract filament
G92 E0
G1 X60 Z0 E9 ; intro line
G1 X100 E12.5 ; intro line
G92 E0
G21 ; set units to millimeters
G90 ; use absolute coordinates
M83 ; use relative distances for extrusion
; Filament gcode
;LAYER_CHANGE
;Z:0.2
;HEIGHT:0.2
;BEFORE_LAYER_CHANGE
;0.2
G1 E-6.00000 F2400.000 ; retract
G1 Z0.075 F10800.000 ; lift Z
G1 Z0.200 ; move to next layer (0)
;AFTER_LAYER_CHANGE
;0.2
G1 Z0.275 ; lift Z
G1 X104.182 Y98.680 ; move to first brim point
G1 Z0.200 ; restore layer Z
G1 E6.00000 F3000.000 ; unretract
M204 S1250 ; adjust acceleration
;TYPE:Skirt
;WIDTH:0.42
G1 F1800.000
G1 X103.265 Y105.114 E0.20379 ; brim
G1 X104.116 Y110.344 E0.16612 ; brim
G1 X106.425 Y115.001 E0.16300 ; brim
G1 X110.002 Y118.774 E0.16300 ; brim
G1 X114.535 Y121.329 E0.16314 ; brim
G1 X121.364 Y122.887 E0.21963 ; brim
G1 X122.908 Y123.857 E0.05716 ; brim
G1 X123.981 Y125.163 E0.05298 ; brim
G1 X124.256 Y125.725 E0.01964 ; brim
G1 X124.719 Y127.423 E0.05517 ; brim
G1 X124.643 Y136.091 E0.27180 ; brim
G1 X124.361 Y137.037 E0.03093 ; brim
G1 X124.016 Y137.738 E0.02451 ; brim
G1 X123.583 Y138.373 E0.02410 ; brim
G1 X122.294 Y139.532 E0.05435 ; brim
G1 X120.838 Y140.250 E0.05089 ; brim
G1 X120.071 Y140.417 E0.02461 ; brim
G1 X119.268 Y140.479 E0.02525 ; brim
G1 X107.230 Y137.787 E0.38677 ; brim
G1 X96.827 Y131.182 E0.38638 ; brim
G1 X89.510 Y121.791 E0.37327 ; brim
G1 X85.909 Y111.546 E0.34048 ; brim
G1 X85.284 Y104.735 E0.21445 ; brim
G1 X85.911 Y98.449 E0.19807 ; brim
G1 X89.510 Y88.209 E0.34034 ; brim
G1 X96.830 Y78.814 E0.37342 ; brim
G1 X107.776 Y71.990 E0.40446 ; brim
G1 X118.575 Y69.586 E0.34686 ; brim
G1 X120.056 Y69.577 E0.04644 ; brim
G1 X120.843 Y69.757 E0.02530 ; brim
G1 X121.618 Y70.057 E0.02608 ; brim
G1 X123.049 Y71.074 E0.05503 ; brim
G1 X124.048 Y72.311 E0.04986 ; brim
G1 X124.426 Y73.131 E0.02830 ; brim
G1 X124.655 Y73.984 E0.02771 ; brim
G1 X124.719 Y82.607 E0.27036 ; brim
G1 X124.169 Y84.482 E0.06127 ; brim
G1 X123.023 Y86.035 E0.06053 ; brim
G1 X121.454 Y87.081 E0.05912 ; brim
G1 X115.057 Y88.468 E0.20523 ; brim
G1 X110.890 Y90.562 E0.14622 ; brim
G1 X107.430 Y93.675 E0.14593 ; brim
G1 X104.288 Y98.557 E0.18204 ; brim
G1 X104.222 Y98.634 E0.00320 ; brim
G1 X103.795 Y98.545 F10800.000 ; move to first brim point
G1 F1800.000
G1 X103.796 Y98.743 E0.00622 ; brim
G1 X102.883 Y105.118 E0.20192 ; brim
G1 X103.753 Y110.460 E0.16971 ; brim
G1 X106.113 Y115.220 E0.16656 ; brim
G1 X109.768 Y119.074 E0.16656 ; brim
G1 X114.398 Y121.684 E0.16666 ; brim
G1 X121.193 Y123.224 E0.21845 ; brim
G1 X122.637 Y124.121 E0.05328 ; brim
G1 X123.674 Y125.384 E0.05126 ; brim
G1 X123.909 Y125.872 E0.01699 ; brim
G1 X124.342 Y127.446 E0.05116 ; brim
G1 X124.266 Y136.060 E0.27010 ; brim
G1 X124.006 Y136.911 E0.02790 ; brim
G1 X123.685 Y137.559 E0.02267 ; brim
G1 X123.285 Y138.141 E0.02214 ; brim
G1 X122.062 Y139.233 E0.05142 ; brim
G1 X120.736 Y139.886 E0.04636 ; brim
G1 X120.004 Y140.046 E0.02347 ; brim
G1 X119.268 Y140.101 E0.02315 ; brim
G1 X107.404 Y137.451 E0.38114 ; brim
G1 X97.104 Y130.924 E0.38234 ; brim
G1 X89.855 Y121.637 E0.36939 ; brim
G1 X86.273 Y111.443 E0.33878 ; brim
G1 X85.661 Y104.755 E0.21059 ; brim
G1 X86.274 Y98.553 E0.19540 ; brim
G1 X89.855 Y88.363 E0.33866 ; brim
G1 X97.107 Y79.072 E0.36952 ; brim
G1 X107.890 Y72.351 E0.39840 ; brim
G1 X118.637 Y69.959 E0.34523 ; brim
G1 X119.993 Y69.949 E0.04252 ; brim
G1 X120.745 Y70.121 E0.02417 ; brim
G1 X121.459 Y70.400 E0.02403 ; brim
G1 X122.808 Y71.365 E0.05201 ; brim
G1 X123.739 Y72.527 E0.04670 ; brim
G1 X124.067 Y73.246 E0.02475 ; brim
G1 X124.279 Y74.012 E0.02494 ; brim
G1 X124.341 Y82.581 E0.26868 ; brim
G1 X123.818 Y84.342 E0.05759 ; brim
G1 X122.741 Y85.782 E0.05639 ; brim
G1 X121.291 Y86.736 E0.05443 ; brim
G1 X114.931 Y88.110 E0.20402 ; brim
G1 X110.676 Y90.248 E0.14931 ; brim
G1 X107.141 Y93.428 E0.14910 ; brim
G1 X103.980 Y98.339 E0.18310 ; brim
G1 X103.835 Y98.500 E0.00679 ; brim
G1 X103.414 Y98.401 F10800.000 ; move to first brim point
G1 F1800.000
G1 X103.420 Y98.706 E0.00959 ; brim
G1 X102.502 Y105.122 E0.20320 ; brim
G1 X103.390 Y110.577 E0.17329 ; brim
G1 X105.800 Y115.438 E0.17012 ; brim
G1 X109.533 Y119.375 E0.17012 ; brim
G1 X114.261 Y122.040 E0.17018 ; brim
G1 X121.023 Y123.562 E0.21731 ; brim
G1 X122.366 Y124.385 E0.04937 ; brim
G1 X123.367 Y125.604 E0.04948 ; brim
G1 X123.561 Y126.017 E0.01430 ; brim
G1 X123.964 Y127.469 E0.04725 ; brim
G1 X123.889 Y136.028 E0.26835 ; brim
G1 X123.651 Y136.782 E0.02480 ; brim
G1 X123.354 Y137.378 E0.02089 ; brim
G1 X122.988 Y137.908 E0.02020 ; brim
G1 X121.871 Y138.907 E0.04697 ; brim
G1 X120.631 Y139.523 E0.04341 ; brim
G1 X119.962 Y139.671 E0.02148 ; brim
G1 X119.268 Y139.723 E0.02184 ; brim
G1 X107.519 Y137.090 E0.37752 ; brim
G1 X97.381 Y130.667 E0.37630 ; brim
G1 X90.201 Y121.483 E0.36550 ; brim
G1 X86.636 Y111.340 E0.33708 ; brim
G1 X86.038 Y104.774 E0.20675 ; brim
G1 X86.637 Y98.657 E0.19272 ; brim
G1 X90.201 Y88.517 E0.33698 ; brim
G1 X97.383 Y79.331 E0.36561 ; brim
G1 X108.003 Y72.712 E0.39235 ; brim
G1 X118.700 Y70.331 E0.34360 ; brim
G1 X119.932 Y70.322 E0.03863 ; brim
G1 X120.621 Y70.478 E0.02216 ; brim
G1 X121.299 Y70.742 E0.02282 ; brim
G1 X122.566 Y71.656 E0.04897 ; brim
G1 X123.405 Y72.705 E0.04214 ; brim
G1 X123.717 Y73.388 E0.02354 ; brim
G1 X123.908 Y74.088 E0.02274 ; brim
G1 X123.964 Y82.555 E0.26548 ; brim
G1 X123.467 Y84.200 E0.05388 ; brim
G1 X122.462 Y85.528 E0.05223 ; brim
G1 X121.116 Y86.401 E0.05030 ; brim
G1 X114.805 Y87.751 E0.20235 ; brim
G1 X110.461 Y89.934 E0.15242 ; brim
G1 X106.851 Y93.182 E0.15228 ; brim
G1 X103.673 Y98.120 E0.18413 ; brim
G1 X103.455 Y98.356 E0.01007 ; brim
G1 X103.032 Y98.256 F10800.000 ; move to first brim point
G1 F1800.000
G1 X103.044 Y98.670 E0.01299 ; brim
G1 X102.120 Y105.125 E0.20447 ; brim
G1 X103.027 Y110.693 E0.17688 ; brim
G1 X105.487 Y115.656 E0.17367 ; brim
G1 X109.299 Y119.676 E0.17367 ; brim
G1 X114.125 Y122.396 E0.17371 ; brim
G1 X120.855 Y123.901 E0.21623 ; brim
G1 X122.096 Y124.650 E0.04546 ; brim
G1 X123.037 Y125.788 E0.04629 ; brim
G1 X123.202 Y126.136 E0.01209 ; brim
G1 X123.587 Y127.494 E0.04424 ; brim
G1 X123.521 Y135.942 E0.26490 ; brim
G1 X123.306 Y136.628 E0.02254 ; brim
G1 X123.035 Y137.175 E0.01914 ; brim
G1 X122.690 Y137.675 E0.01905 ; brim
G1 X121.640 Y138.608 E0.04406 ; brim
G1 X120.528 Y139.160 E0.03892 ; brim
G1 X119.895 Y139.299 E0.02032 ; brim
G1 X119.268 Y139.345 E0.01969 ; brim
G1 X107.693 Y136.754 E0.37193 ; brim
G1 X97.658 Y130.408 E0.37226 ; brim
G1 X90.546 Y121.329 E0.36161 ; brim
G1 X87.000 Y111.237 E0.33538 ; brim
G1 X86.415 Y104.793 E0.20291 ; brim
G1 X87.001 Y98.760 E0.19004 ; brim
G1 X90.546 Y88.671 E0.33530 ; brim
G1 X97.660 Y79.589 E0.36170 ; brim
G1 X108.116 Y73.073 E0.38630 ; brim
G1 X118.762 Y70.704 E0.34198 ; brim
G1 X119.870 Y70.695 E0.03473 ; brim
G1 X120.524 Y70.842 E0.02102 ; brim
G1 X121.139 Y71.084 E0.02073 ; brim
G1 X122.289 Y71.912 E0.04442 ; brim
G1 X123.073 Y72.884 E0.03916 ; brim
G1 X123.357 Y73.503 E0.02134 ; brim
G1 X123.538 Y74.163 E0.02147 ; brim
G1 X123.587 Y82.528 E0.26226 ; brim
G1 X123.117 Y84.056 E0.05012 ; brim
G1 X122.183 Y85.271 E0.04806 ; brim
G1 X120.942 Y86.065 E0.04619 ; brim
G1 X114.679 Y87.392 E0.20073 ; brim
G1 X110.247 Y89.619 E0.15554 ; brim
G1 X106.561 Y92.935 E0.15545 ; brim
G1 X103.365 Y97.901 E0.18515 ; brim
G1 X103.073 Y98.212 E0.01339 ; brim
G1 X102.648 Y98.111 F10800.000 ; move to first brim point
G1 F1800.000
G1 X102.668 Y98.634 E0.01642 ; brim
G1 X101.739 Y105.129 E0.20572 ; brim
G1 X102.664 Y110.810 E0.18047 ; brim
G1 X105.175 Y115.875 E0.17723 ; brim
G1 X109.064 Y119.976 E0.17723 ; brim
G1 X113.989 Y122.752 E0.17724 ; brim
G1 X120.686 Y124.240 E0.21513 ; brim
G1 X121.873 Y124.956 E0.04347 ; brim
G1 X122.708 Y125.972 E0.04120 ; brim
G1 X122.845 Y126.257 E0.00993 ; brim
G1 X123.210 Y127.519 E0.04118 ; brim
G1 X123.153 Y135.857 E0.26145 ; brim
G1 X122.961 Y136.476 E0.02029 ; brim
G1 X122.717 Y136.973 E0.01737 ; brim
G1 X122.393 Y137.442 E0.01787 ; brim
G1 X121.409 Y138.309 E0.04112 ; brim
G1 X120.423 Y138.797 E0.03450 ; brim
G1 X119.853 Y138.924 E0.01831 ; brim
G1 X119.269 Y138.967 E0.01838 ; brim
G1 X107.807 Y136.393 E0.36833 ; brim
G1 X97.934 Y130.150 E0.36624 ; brim
G1 X90.892 Y121.175 E0.35771 ; brim
G1 X87.363 Y111.135 E0.33367 ; brim
G1 X86.792 Y104.811 E0.19907 ; brim
G1 X87.364 Y98.863 E0.18735 ; brim
G1 X90.892 Y88.825 E0.33360 ; brim
G1 X97.936 Y79.848 E0.35779 ; brim
G1 X108.229 Y73.434 E0.38026 ; brim
G1 X118.825 Y71.076 E0.34036 ; brim
G1 X119.809 Y71.067 E0.03087 ; brim
G1 X120.400 Y71.199 E0.01896 ; brim
G1 X120.978 Y71.426 E0.01950 ; brim
G1 X122.047 Y72.202 E0.04140 ; brim
G1 X122.740 Y73.063 E0.03466 ; brim
G1 X123.008 Y73.646 E0.02011 ; brim
G1 X123.168 Y74.238 E0.01922 ; brim
G1 X123.210 Y82.500 E0.25906 ; brim
G1 X122.768 Y83.909 E0.04631 ; brim
G1 X121.907 Y85.013 E0.04387 ; brim
G1 X120.771 Y85.727 E0.04211 ; brim
G1 X114.554 Y87.033 E0.19917 ; brim
G1 X110.032 Y89.305 E0.15867 ; brim
G1 X106.271 Y92.689 E0.15862 ; brim
G1 X103.058 Y97.681 E0.18615 ; brim
G1 X102.690 Y98.068 E0.01675 ; brim
G1 X102.264 Y97.966 F10800.000 ; move to first brim point
G1 F1800.000
G1 X102.293 Y98.599 E0.01988 ; brim
G1 X101.357 Y105.133 E0.20695 ; brim
G1 X102.301 Y110.927 E0.18406 ; brim
G1 X104.862 Y116.093 E0.18079 ; brim
G1 X108.829 Y120.277 E0.18079 ; brim
G1 X113.852 Y123.108 E0.18079 ; brim
G1 X120.521 Y124.580 E0.21411 ; brim
G1 X121.604 Y125.223 E0.03951 ; brim
G1 X122.379 Y126.159 E0.03811 ; brim
G1 X122.488 Y126.381 E0.00774 ; brim
G1 X122.833 Y127.545 E0.03808 ; brim
G1 X122.784 Y135.774 E0.25801 ; brim
G1 X122.616 Y136.323 E0.01801 ; brim
G1 X122.385 Y136.793 E0.01643 ; brim
G1 X122.097 Y137.207 E0.01580 ; brim
G1 X121.180 Y138.008 E0.03819 ; brim
G1 X120.319 Y138.434 E0.03012 ; brim
G1 X119.785 Y138.553 E0.01714 ; brim
G1 X119.271 Y138.589 E0.01618 ; brim
G1 X107.981 Y136.057 E0.36277 ; brim
G1 X98.211 Y129.892 E0.36222 ; brim
G1 X91.237 Y121.020 E0.35381 ; brim
G1 X87.727 Y111.032 E0.33196 ; brim
G1 X87.169 Y104.830 E0.19525 ; brim
G1 X87.728 Y98.967 E0.18466 ; brim
G1 X91.237 Y88.980 E0.33191 ; brim
G1 X98.212 Y80.107 E0.35387 ; brim
G1 X108.342 Y73.795 E0.37423 ; brim
G1 X118.888 Y71.448 E0.33874 ; brim
G1 X119.749 Y71.440 E0.02700 ; brim
G1 X120.303 Y71.563 E0.01780 ; brim
G1 X120.816 Y71.767 E0.01732 ; brim
G1 X121.804 Y72.491 E0.03839 ; brim
G1 X122.408 Y73.243 E0.03024 ; brim
G1 X122.648 Y73.760 E0.01787 ; brim
G1 X122.797 Y74.312 E0.01793 ; brim
G1 X122.832 Y82.471 E0.25583 ; brim
G1 X122.420 Y83.761 E0.04245 ; brim
G1 X121.633 Y84.751 E0.03966 ; brim
G1 X120.601 Y85.389 E0.03804 ; brim
G1 X114.429 Y86.674 E0.19768 ; brim
G1 X109.818 Y88.991 E0.16181 ; brim
G1 X105.982 Y92.442 E0.16179 ; brim
G1 X102.752 Y97.461 E0.18713 ; brim
G1 X102.305 Y97.922 E0.02013 ; brim
G1 X101.878 Y97.820 F10800.000 ; move to first brim point
G1 F1800.000
G1 X101.917 Y98.564 E0.02338 ; brim
G1 X100.976 Y105.137 E0.20817 ; brim
G1 X101.938 Y111.043 E0.18765 ; brim
G1 X104.549 Y116.311 E0.18435 ; brim
G1 X108.595 Y120.578 E0.18435 ; brim
G1 X113.717 Y123.465 E0.18434 ; brim
G1 X120.357 Y124.921 E0.21317 ; brim
G1 X121.337 Y125.490 E0.03552 ; brim
G1 X122.053 Y126.349 E0.03506 ; brim
G1 X122.133 Y126.507 E0.00554 ; brim
G1 X122.455 Y127.572 E0.03490 ; brim
G1 X122.415 Y135.692 E0.25458 ; brim
G1 X122.270 Y136.172 E0.01575 ; brim
G1 X122.067 Y136.590 E0.01458 ; brim
G1 X121.801 Y136.972 E0.01458 ; brim
G1 X120.952 Y137.707 E0.03522 ; brim
G1 X120.214 Y138.071 E0.02582 ; brim
G1 X119.745 Y138.178 E0.01508 ; brim
G1 X119.272 Y138.211 E0.01486 ; brim
G1 X108.154 Y135.720 E0.35722 ; brim
G1 X98.487 Y129.633 E0.35820 ; brim
G1 X91.583 Y120.866 E0.34989 ; brim
G1 X88.090 Y110.929 E0.33025 ; brim
G1 X87.546 Y104.848 E0.19143 ; brim
G1 X88.091 Y99.070 E0.18196 ; brim
G1 X91.583 Y89.134 E0.33021 ; brim
G1 X98.488 Y80.366 E0.34994 ; brim
G1 X108.455 Y74.156 E0.36820 ; brim
G1 X118.950 Y71.821 E0.33712 ; brim
G1 X119.690 Y71.813 E0.02318 ; brim
G1 X120.178 Y71.920 E0.01568 ; brim
G1 X120.654 Y72.109 E0.01604 ; brim
G1 X121.559 Y72.780 E0.03534 ; brim
G1 X122.076 Y73.423 E0.02586 ; brim
G1 X122.299 Y73.903 E0.01662 ; brim
G1 X122.426 Y74.385 E0.01561 ; brim
G1 X122.455 Y82.442 E0.25262 ; brim
G1 X122.073 Y83.609 E0.03853 ; brim
G1 X121.362 Y84.488 E0.03543 ; brim
G1 X120.434 Y85.050 E0.03401 ; brim
G1 X114.304 Y86.314 E0.19626 ; brim
G1 X109.603 Y88.677 E0.16496 ; brim
G1 X105.692 Y92.196 E0.16496 ; brim
G1 X102.445 Y97.240 E0.18809 ; brim
G1 X101.920 Y97.777 E0.02355 ; brim
G1 X101.421 Y97.643 F10800.000 ; move to first brim point
G1 F1800.000
G1 X101.508 Y97.962 E0.01038 ; brim
G1 X101.541 Y98.530 E0.01783 ; brim
G1 X100.594 Y105.140 E0.20937 ; brim
G1 X101.575 Y111.160 E0.19123 ; brim
G1 X104.237 Y116.530 E0.18791 ; brim
G1 X108.360 Y120.878 E0.18791 ; brim
G1 X113.581 Y123.821 E0.18791 ; brim
G1 X120.197 Y125.263 E0.21231 ; brim
G1 X121.071 Y125.760 E0.03151 ; brim
G1 X121.729 Y126.543 E0.03209 ; brim
G1 X121.778 Y126.637 E0.00332 ; brim
G1 X122.078 Y127.600 E0.03164 ; brim
G1 X122.046 Y135.611 E0.25116 ; brim
G1 X121.924 Y136.022 E0.01344 ; brim
G1 X121.734 Y136.411 E0.01359 ; brim
G1 X121.507 Y136.735 E0.01241 ; brim
G1 X120.725 Y137.405 E0.03227 ; brim
G1 X120.107 Y137.709 E0.02160 ; brim
G1 X119.703 Y137.803 E0.01300 ; brim
G1 X119.273 Y137.832 E0.01351 ; brim
G1 X108.268 Y135.360 E0.35365 ; brim
G1 X98.763 Y129.374 E0.35221 ; brim
G1 X91.928 Y120.711 E0.34598 ; brim
G1 X88.454 Y110.826 E0.32853 ; brim
G1 X87.923 Y104.866 E0.18762 ; brim
G1 X88.454 Y99.173 E0.17926 ; brim
G1 X91.928 Y89.289 E0.32850 ; brim
G1 X98.764 Y80.625 E0.34601 ; brim
G1 X108.568 Y74.518 E0.36219 ; brim
G1 X119.013 Y72.193 E0.33551 ; brim
G1 X119.630 Y72.186 E0.01935 ; brim
G1 X120.082 Y72.284 E0.01449 ; brim
G1 X120.489 Y72.449 E0.01376 ; brim
G1 X121.314 Y73.067 E0.03232 ; brim
G1 X121.744 Y73.604 E0.02159 ; brim
G1 X121.939 Y74.017 E0.01432 ; brim
G1 X122.056 Y74.458 E0.01430 ; brim
G1 X122.078 Y82.411 E0.24937 ; brim
G1 X121.727 Y83.455 E0.03453 ; brim
G1 X121.094 Y84.221 E0.03117 ; brim
G1 X120.270 Y84.709 E0.03001 ; brim
G1 X114.180 Y85.955 E0.19493 ; brim
G1 X109.389 Y88.363 E0.16812 ; brim
G1 X105.402 Y91.949 E0.16813 ; brim
G1 X102.139 Y97.019 E0.18904 ; brim
G1 X101.695 Y97.468 E0.01980 ; brim
G1 X101.472 Y97.611 E0.00829 ; brim
G1 X100.974 Y97.468 F10800.000 ; move to first brim point
G1 F1800.000
G1 X101.133 Y98.010 E0.01771 ; brim
G1 X101.164 Y98.497 E0.01528 ; brim
G1 X100.213 Y105.144 E0.21055 ; brim
G1 X101.212 Y111.277 E0.19482 ; brim
G1 X103.924 Y116.748 E0.19146 ; brim
G1 X108.126 Y121.179 E0.19146 ; brim
G1 X113.445 Y124.177 E0.19146 ; brim
G1 X120.089 Y125.625 E0.21321 ; brim
G1 X120.805 Y126.029 E0.02577 ; brim
G1 X121.426 Y126.773 E0.03037 ; brim
G1 X121.701 Y127.630 E0.02822 ; brim
G1 X121.676 Y135.531 E0.24775 ; brim
G1 X121.577 Y135.874 E0.01117 ; brim
G1 X121.417 Y136.208 E0.01163 ; brim
G1 X121.213 Y136.499 E0.01113 ; brim
G1 X120.500 Y137.102 E0.02928 ; brim
G1 X120.001 Y137.347 E0.01743 ; brim
G1 X119.634 Y137.432 E0.01182 ; brim
G1 X119.277 Y137.455 E0.01121 ; brim
