; generated by PrusaSlicer 2.3.0+win64 on 2021-11-01 at 10:27:00 UTC

; 

; external perimeters extrusion width = 0.60mm
; perimeters extrusion width = 0.45mm
; infill extrusion width = 0.45mm
; solid infill extrusion width = 0.45mm
; top infill extrusion width = 0.40mm
; support material extrusion width = 0.35mm
; first layer extrusion width = 0.42mm

M201 X1000 Y1000 Z200 E5000 ; sets maximum accelerations, mm/sec^2
M203 X200 Y200 Z8 E60 ; sets maximum feedrates, mm/sec
M204 P1250 R1250 T1250 ; sets acceleration (P, T) and retract acceleration (R), mm/sec^2
M205 X8.00 Y8.00 Z0.40 E5.00 ; sets the jerk limits, mm/sec
M205 S0 T0 ; sets the minimum extruding and travel feed rate, mm/sec
M107 ; disable fan
;TYPE:Custom
G90 ; use absolute coordinates
M83 ; extruder relative mode
M204 S1250 T1250
M104 S215 ; set extruder temp
M140 S60 ; set bed temp
G28 ; home all
G1 Y0 Z1 F100 ; move print head up
M190 S60 ; wait for bed temp
M109 S215 ; wait for extruder temp
G92 E0
G1 E38 F1000; deretract filament
G92 E0
G1 X60 Z0 E9 ; intro line
G1 X100 E12.5 ; intro line
G92 E0
G21 ; set units to millimeters
G90 ; use absolute coordinates
M83 ; use relative distances for extrusion
; Filament gcode
;LAYER_CHANGE
;Z:0.2
;HEIGHT:0.2
;BEFORE_LAYER_CHANGE
;0.2
G1 E-6.00000 F2400.000 ; retract
G1 Z0.075 F10800.000 ; lift Z
G1 Z0.200 ; move to next layer (0)
;AFTER_LAYER_CHANGE
;0.2
G1 Z0.275 ; lift Z
G1 X68.132 Y98.172 ; move to first brim point
G1 Z0.200 ; restore layer Z
G1 E6.00000 F3000.000 ; unretract
M204 S1250 ; adjust acceleration
;TYPE:Skirt
;WIDTH:0.42
G1 F1800.000
G1 X68.593 Y97.309 E0.03070 ; brim
G1 X69.488 Y96.320 E0.04181 ; brim
G1 X70.493 Y95.627 E0.03826 ; brim
G1 X71.651 Y95.151 E0.03927 ; brim
G1 X74.466 Y95.010 E0.08837 ; brim
G1 X75.441 Y95.244 E0.03142 ; brim
G1 X76.389 Y95.012 E0.03062 ; brim
G1 X78.282 Y94.995 E0.05937 ; brim
G1 X79.394 Y95.235 E0.03567 ; brim
G1 X80.243 Y95.024 E0.02743 ; brim
G1 X82.246 Y94.996 E0.06281 ; brim
G1 X83.321 Y95.242 E0.03458 ; brim
G1 X84.276 Y95.012 E0.03080 ; brim
G1 X86.207 Y94.997 E0.06052 ; brim
G1 X87.263 Y95.242 E0.03401 ; brim
G1 X88.216 Y95.012 E0.03074 ; brim
G1 X90.147 Y94.997 E0.06052 ; brim
G1 X91.203 Y95.241 E0.03398 ; brim
G1 X92.156 Y95.012 E0.03074 ; brim
G1 X94.087 Y94.997 E0.06054 ; brim
G1 X95.143 Y95.241 E0.03399 ; brim
G1 X96.096 Y95.012 E0.03074 ; brim
G1 X98.027 Y94.997 E0.06054 ; brim
G1 X99.083 Y95.241 E0.03399 ; brim
G1 X100.036 Y95.012 E0.03074 ; brim
G1 X101.967 Y94.997 E0.06054 ; brim
G1 X103.023 Y95.241 E0.03399 ; brim
G1 X103.976 Y95.012 E0.03075 ; brim
G1 X105.917 Y94.997 E0.06087 ; brim
G1 X106.956 Y95.245 E0.03349 ; brim
G1 X107.929 Y95.010 E0.03139 ; brim
G1 X109.937 Y95.007 E0.06296 ; brim
G1 X110.910 Y95.246 E0.03140 ; brim
G1 X111.921 Y95.004 E0.03260 ; brim
G1 X113.869 Y95.006 E0.06109 ; brim
G1 X114.867 Y95.246 E0.03216 ; brim
G1 X116.017 Y94.987 E0.03696 ; brim
G1 X117.965 Y95.027 E0.06109 ; brim
G1 X118.814 Y95.242 E0.02746 ; brim
G1 X119.882 Y94.995 E0.03439 ; brim
G1 X121.830 Y95.017 E0.06109 ; brim
G1 X122.748 Y95.243 E0.02964 ; brim
G1 X123.815 Y94.995 E0.03435 ; brim
G1 X125.763 Y95.016 E0.06106 ; brim
G1 X126.683 Y95.241 E0.02970 ; brim
G1 X127.768 Y94.995 E0.03491 ; brim
G1 X129.808 Y95.029 E0.06397 ; brim
G1 X130.628 Y95.251 E0.02662 ; brim
G1 X131.602 Y95.005 E0.03150 ; brim
G1 X133.732 Y95.027 E0.06678 ; brim
G1 X134.561 Y95.249 E0.02691 ; brim
G1 X135.471 Y95.014 E0.02946 ; brim
G1 X137.601 Y95.018 E0.06680 ; brim
G1 X139.145 Y95.449 E0.05025 ; brim
G1 X140.324 Y96.162 E0.04320 ; brim
G1 X141.291 Y97.150 E0.04335 ; brim
G1 X141.859 Y98.168 E0.03656 ; brim
G1 X142.002 Y98.218 E0.00476 ; brim
G1 X143.065 Y98.778 E0.03766 ; brim
G1 X144.261 Y99.873 E0.05084 ; brim
G1 X145.265 Y101.728 E0.06612 ; brim
G1 X145.468 Y102.881 E0.03672 ; brim
G1 X145.445 Y110.269 E0.23166 ; brim
G1 X145.008 Y111.819 E0.05049 ; brim
G1 X144.395 Y112.836 E0.03722 ; brim
G1 X143.352 Y113.890 E0.04649 ; brim
G1 X142.285 Y114.547 E0.03928 ; brim
G1 X140.566 Y115.010 E0.05582 ; brim
G1 X69.499 Y115.010 E2.22827 ; brim
G1 X67.841 Y114.601 E0.05354 ; brim
G1 X66.450 Y113.733 E0.05141 ; brim
G1 X65.371 Y112.519 E0.05093 ; brim
G1 X64.960 Y111.752 E0.02726 ; brim
G1 X64.669 Y110.944 E0.02695 ; brim
G1 X64.531 Y102.868 E0.25327 ; brim
G1 X64.962 Y101.132 E0.05608 ; brim
G1 X65.728 Y99.889 E0.04579 ; brim
G1 X66.791 Y98.880 E0.04594 ; brim
G1 X67.976 Y98.227 E0.04242 ; brim
G1 X68.075 Y98.192 E0.00329 ; brim
G1 X68.392 Y98.488 F10800.000 ; move to first brim point
G1 F1800.000
G1 X68.889 Y97.544 E0.03346 ; brim
G1 X69.752 Y96.589 E0.04034 ; brim
G1 X70.688 Y95.950 E0.03553 ; brim
G1 X71.763 Y95.513 E0.03638 ; brim
G1 X74.455 Y95.388 E0.08450 ; brim
G1 X75.441 Y95.633 E0.03184 ; brim
G1 X76.415 Y95.389 E0.03150 ; brim
G1 X78.264 Y95.372 E0.05797 ; brim
G1 X79.401 Y95.623 E0.03650 ; brim
G1 X80.271 Y95.400 E0.02817 ; brim
G1 X82.228 Y95.373 E0.06135 ; brim
G1 X83.324 Y95.630 E0.03529 ; brim
G1 X84.302 Y95.389 E0.03160 ; brim
G1 X86.186 Y95.374 E0.05909 ; brim
G1 X87.265 Y95.630 E0.03476 ; brim
G1 X88.242 Y95.389 E0.03155 ; brim
G1 X90.126 Y95.374 E0.05909 ; brim
G1 X91.204 Y95.630 E0.03474 ; brim
G1 X92.181 Y95.389 E0.03155 ; brim
G1 X94.066 Y95.374 E0.05910 ; brim
G1 X95.144 Y95.630 E0.03474 ; brim
G1 X96.121 Y95.389 E0.03155 ; brim
G1 X98.006 Y95.374 E0.05910 ; brim
G1 X99.084 Y95.630 E0.03474 ; brim
G1 X100.061 Y95.389 E0.03155 ; brim
G1 X101.946 Y95.374 E0.05910 ; brim
G1 X103.024 Y95.630 E0.03474 ; brim
G1 X104.001 Y95.389 E0.03155 ; brim
G1 X105.896 Y95.374 E0.05941 ; brim
G1 X106.956 Y95.634 E0.03423 ; brim
G1 X107.953 Y95.387 E0.03219 ; brim
G1 X109.914 Y95.384 E0.06148 ; brim
G1 X110.909 Y95.635 E0.03216 ; brim
G1 X111.944 Y95.381 E0.03342 ; brim
G1 X113.846 Y95.383 E0.05963 ; brim
G1 X114.864 Y95.633 E0.03288 ; brim
G1 X116.033 Y95.364 E0.03761 ; brim
G1 X117.934 Y95.403 E0.05964 ; brim
G1 X118.809 Y95.631 E0.02834 ; brim
G1 X119.901 Y95.372 E0.03519 ; brim
G1 X121.803 Y95.393 E0.05964 ; brim
G1 X122.745 Y95.632 E0.03047 ; brim
G1 X123.835 Y95.373 E0.03512 ; brim
G1 X125.736 Y95.392 E0.05961 ; brim
G1 X126.679 Y95.630 E0.03049 ; brim
G1 X127.785 Y95.372 E0.03562 ; brim
G1 X129.777 Y95.406 E0.06246 ; brim
G1 X130.625 Y95.641 E0.02758 ; brim
G1 X131.624 Y95.382 E0.03236 ; brim
G1 X133.703 Y95.404 E0.06519 ; brim
G1 X134.559 Y95.640 E0.02786 ; brim
G1 X135.495 Y95.391 E0.03038 ; brim
G1 X137.574 Y95.395 E0.06517 ; brim
G1 X139.016 Y95.805 E0.04701 ; brim
G1 X140.107 Y96.471 E0.04006 ; brim
G1 X141.003 Y97.393 E0.04033 ; brim
G1 X141.603 Y98.486 E0.03909 ; brim
G1 X141.847 Y98.562 E0.00800 ; brim
G1 X142.829 Y99.073 E0.03472 ; brim
G1 X143.983 Y100.130 E0.04906 ; brim
G1 X144.899 Y101.824 E0.06039 ; brim
G1 X145.091 Y102.897 E0.03418 ; brim
G1 X145.068 Y110.241 E0.23029 ; brim
G1 X144.653 Y111.690 E0.04725 ; brim
G1 X144.086 Y112.620 E0.03415 ; brim
G1 X143.102 Y113.607 E0.04370 ; brim
G1 X142.112 Y114.211 E0.03633 ; brim
G1 X140.541 Y114.633 E0.05100 ; brim
G1 X69.521 Y114.633 E2.22679 ; brim
G1 X68.013 Y114.265 E0.04867 ; brim
G1 X66.712 Y113.461 E0.04794 ; brim
G1 X65.692 Y112.320 E0.04799 ; brim
G1 X65.310 Y111.611 E0.02525 ; brim
G1 X65.034 Y110.845 E0.02552 ; brim
G1 X64.908 Y102.886 E0.24960 ; brim
G1 X65.299 Y101.303 E0.05112 ; brim
G1 X66.007 Y100.144 E0.04260 ; brim
G1 X66.995 Y99.198 E0.04287 ; brim
G1 X68.139 Y98.568 E0.04095 ; brim
G1 X68.335 Y98.506 E0.00645 ; brim
G1 X68.653 Y98.806 F10800.000 ; move to first brim point
G1 F1800.000
G1 X69.186 Y97.778 E0.03631 ; brim
G1 X70.016 Y96.859 E0.03883 ; brim
G1 X70.882 Y96.274 E0.03277 ; brim
G1 X71.873 Y95.875 E0.03351 ; brim
G1 X74.442 Y95.766 E0.08061 ; brim
G1 X75.440 Y96.023 E0.03232 ; brim
G1 X76.442 Y95.766 E0.03243 ; brim
G1 X78.245 Y95.749 E0.05654 ; brim
G1 X79.408 Y96.011 E0.03736 ; brim
G1 X80.300 Y95.777 E0.02892 ; brim
G1 X82.209 Y95.750 E0.05986 ; brim
G1 X83.326 Y96.019 E0.03602 ; brim
G1 X84.328 Y95.765 E0.03241 ; brim
G1 X86.166 Y95.751 E0.05762 ; brim
G1 X87.267 Y96.019 E0.03554 ; brim
G1 X88.268 Y95.765 E0.03237 ; brim
G1 X90.106 Y95.751 E0.05762 ; brim
G1 X91.206 Y96.018 E0.03551 ; brim
G1 X92.207 Y95.766 E0.03237 ; brim
G1 X94.046 Y95.751 E0.05763 ; brim
G1 X95.146 Y96.018 E0.03551 ; brim
G1 X96.147 Y95.766 E0.03237 ; brim
G1 X97.986 Y95.751 E0.05763 ; brim
G1 X99.086 Y96.018 E0.03551 ; brim
G1 X100.087 Y95.766 E0.03237 ; brim
G1 X101.926 Y95.751 E0.05763 ; brim
G1 X103.026 Y96.018 E0.03551 ; brim
G1 X104.027 Y95.766 E0.03238 ; brim
G1 X105.875 Y95.751 E0.05792 ; brim
G1 X106.957 Y96.023 E0.03499 ; brim
G1 X107.977 Y95.764 E0.03301 ; brim
G1 X109.890 Y95.761 E0.05996 ; brim
G1 X110.907 Y96.024 E0.03294 ; brim
G1 X111.967 Y95.758 E0.03427 ; brim
G1 X113.822 Y95.761 E0.05814 ; brim
G1 X114.861 Y96.022 E0.03361 ; brim
G1 X116.049 Y95.742 E0.03828 ; brim
G1 X117.903 Y95.780 E0.05815 ; brim
G1 X118.805 Y96.020 E0.02925 ; brim
G1 X119.921 Y95.749 E0.03602 ; brim
G1 X121.776 Y95.770 E0.05815 ; brim
G1 X122.743 Y96.021 E0.03132 ; brim
G1 X123.855 Y95.750 E0.03591 ; brim
G1 X125.709 Y95.769 E0.05812 ; brim
G1 X126.676 Y96.018 E0.03130 ; brim
G1 X127.803 Y95.749 E0.03635 ; brim
G1 X129.745 Y95.783 E0.06090 ; brim
G1 X130.621 Y96.033 E0.02856 ; brim
G1 X131.646 Y95.760 E0.03326 ; brim
G1 X133.673 Y95.781 E0.06355 ; brim
G1 X134.557 Y96.032 E0.02883 ; brim
G1 X135.521 Y95.768 E0.03132 ; brim
G1 X137.546 Y95.772 E0.06351 ; brim
G1 X138.886 Y96.159 E0.04372 ; brim
G1 X139.888 Y96.778 E0.03692 ; brim
G1 X140.713 Y97.636 E0.03731 ; brim
G1 X141.347 Y98.806 E0.04173 ; brim
G1 X141.693 Y98.906 E0.01129 ; brim
G1 X142.593 Y99.369 E0.03174 ; brim
G1 X143.705 Y100.386 E0.04726 ; brim
G1 X144.533 Y101.921 E0.05467 ; brim
G1 X144.714 Y102.913 E0.03162 ; brim
G1 X144.691 Y110.213 E0.22889 ; brim
G1 X144.298 Y111.559 E0.04395 ; brim
G1 X143.777 Y112.402 E0.03108 ; brim
G1 X142.852 Y113.324 E0.04093 ; brim
G1 X141.941 Y113.874 E0.03338 ; brim
G1 X140.517 Y114.255 E0.04622 ; brim
G1 X69.543 Y114.255 E2.22533 ; brim
G1 X68.184 Y113.928 E0.04384 ; brim
G1 X66.974 Y113.188 E0.04448 ; brim
G1 X66.013 Y112.122 E0.04500 ; brim
G1 X65.649 Y111.445 E0.02408 ; brim
G1 X65.399 Y110.748 E0.02322 ; brim
G1 X65.285 Y102.904 E0.24595 ; brim
G1 X65.636 Y101.475 E0.04615 ; brim
G1 X66.316 Y100.362 E0.04089 ; brim
G1 X67.236 Y99.489 E0.03976 ; brim
G1 X68.300 Y98.910 E0.03798 ; brim
G1 X68.595 Y98.823 E0.00965 ; brim
G1 X68.913 Y99.127 F10800.000 ; move to first brim point
G1 F1800.000
G1 X69.482 Y98.012 E0.03924 ; brim
G1 X70.280 Y97.130 E0.03729 ; brim
G1 X71.074 Y96.599 E0.02996 ; brim
G1 X71.982 Y96.237 E0.03064 ; brim
G1 X74.427 Y96.144 E0.07671 ; brim
G1 X75.439 Y96.413 E0.03284 ; brim
G1 X76.470 Y96.143 E0.03339 ; brim
G1 X78.226 Y96.127 E0.05509 ; brim
G1 X79.415 Y96.400 E0.03826 ; brim
G1 X80.330 Y96.154 E0.02968 ; brim
G1 X82.190 Y96.128 E0.05833 ; brim
G1 X83.328 Y96.408 E0.03677 ; brim
G1 X84.355 Y96.142 E0.03324 ; brim
G1 X86.144 Y96.129 E0.05611 ; brim
G1 X87.269 Y96.408 E0.03634 ; brim
G1 X88.295 Y96.142 E0.03321 ; brim
G1 X90.084 Y96.129 E0.05611 ; brim
G1 X91.208 Y96.407 E0.03631 ; brim
G1 X92.234 Y96.142 E0.03322 ; brim
G1 X94.024 Y96.129 E0.05613 ; brim
G1 X95.148 Y96.407 E0.03631 ; brim
G1 X96.174 Y96.142 E0.03322 ; brim
G1 X97.964 Y96.129 E0.05613 ; brim
G1 X99.088 Y96.407 E0.03631 ; brim
G1 X100.114 Y96.142 E0.03322 ; brim
G1 X101.904 Y96.129 E0.05613 ; brim
G1 X103.028 Y96.407 E0.03631 ; brim
G1 X104.054 Y96.142 E0.03322 ; brim
G1 X105.852 Y96.129 E0.05639 ; brim
G1 X106.957 Y96.413 E0.03577 ; brim
G1 X108.002 Y96.141 E0.03386 ; brim
G1 X109.865 Y96.138 E0.05841 ; brim
G1 X110.906 Y96.414 E0.03375 ; brim
G1 X111.991 Y96.135 E0.03514 ; brim
G1 X113.797 Y96.138 E0.05662 ; brim
G1 X114.858 Y96.411 E0.03436 ; brim
G1 X116.066 Y96.119 E0.03897 ; brim
G1 X117.872 Y96.156 E0.05662 ; brim
G1 X118.800 Y96.410 E0.03017 ; brim
G1 X119.942 Y96.126 E0.03688 ; brim
G1 X121.747 Y96.147 E0.05662 ; brim
G1 X122.739 Y96.411 E0.03219 ; brim
G1 X123.876 Y96.127 E0.03672 ; brim
G1 X125.681 Y96.146 E0.05660 ; brim
G1 X126.672 Y96.408 E0.03214 ; brim
G1 X127.822 Y96.127 E0.03711 ; brim
G1 X129.713 Y96.159 E0.05930 ; brim
G1 X130.617 Y96.425 E0.02957 ; brim
G1 X131.669 Y96.137 E0.03419 ; brim
G1 X133.642 Y96.158 E0.06187 ; brim
G1 X134.555 Y96.425 E0.02983 ; brim
G1 X135.547 Y96.145 E0.03230 ; brim
G1 X137.518 Y96.149 E0.06181 ; brim
G1 X138.754 Y96.513 E0.04038 ; brim
G1 X139.667 Y97.085 E0.03378 ; brim
G1 X140.422 Y97.877 E0.03430 ; brim
G1 X141.091 Y99.128 E0.04448 ; brim
G1 X141.539 Y99.251 E0.01458 ; brim
G1 X142.398 Y99.692 E0.03028 ; brim
G1 X143.426 Y100.642 E0.04388 ; brim
G1 X144.168 Y102.019 E0.04904 ; brim
G1 X144.337 Y102.930 E0.02906 ; brim
G1 X144.314 Y110.185 E0.22747 ; brim
G1 X143.945 Y111.426 E0.04061 ; brim
G1 X143.470 Y112.183 E0.02800 ; brim
G1 X142.604 Y113.039 E0.03819 ; brim
G1 X141.770 Y113.537 E0.03044 ; brim
G1 X140.492 Y113.878 E0.04148 ; brim
G1 X69.566 Y113.878 E2.22383 ; brim
G1 X68.303 Y113.568 E0.04080 ; brim
G1 X67.235 Y112.914 E0.03927 ; brim
G1 X66.333 Y111.921 E0.04204 ; brim
G1 X65.999 Y111.304 E0.02201 ; brim
G1 X65.765 Y110.650 E0.02178 ; brim
G1 X65.663 Y102.923 E0.24230 ; brim
G1 X65.973 Y101.644 E0.04126 ; brim
G1 X66.594 Y100.618 E0.03761 ; brim
G1 X67.477 Y99.781 E0.03815 ; brim
G1 X68.458 Y99.253 E0.03493 ; brim
G1 X68.855 Y99.143 E0.01292 ; brim
G1 X69.171 Y99.449 F10800.000 ; move to first brim point
G1 F1800.000
G1 X69.806 Y98.207 E0.04375 ; brim
G1 X70.542 Y97.402 E0.03417 ; brim
G1 X71.265 Y96.925 E0.02716 ; brim
G1 X72.090 Y96.600 E0.02780 ; brim
G1 X74.410 Y96.522 E0.07279 ; brim
G1 X75.438 Y96.804 E0.03342 ; brim
G1 X76.497 Y96.520 E0.03439 ; brim
G1 X78.209 Y96.504 E0.05366 ; brim
G1 X79.180 Y96.722 E0.03123 ; brim
G1 X79.363 Y96.806 E0.00630 ; brim
G1 X80.360 Y96.530 E0.03244 ; brim
G1 X82.170 Y96.505 E0.05676 ; brim
G1 X83.331 Y96.798 E0.03754 ; brim
G1 X84.382 Y96.519 E0.03410 ; brim
G1 X86.122 Y96.506 E0.05458 ; brim
G1 X87.271 Y96.798 E0.03716 ; brim
G1 X88.322 Y96.519 E0.03408 ; brim
G1 X90.062 Y96.506 E0.05458 ; brim
G1 X91.210 Y96.797 E0.03713 ; brim
G1 X92.261 Y96.519 E0.03408 ; brim
G1 X94.002 Y96.506 E0.05460 ; brim
G1 X95.150 Y96.797 E0.03713 ; brim
G1 X96.201 Y96.519 E0.03408 ; brim
G1 X97.942 Y96.506 E0.05460 ; brim
G1 X99.090 Y96.797 E0.03713 ; brim
G1 X100.141 Y96.519 E0.03408 ; brim
G1 X101.882 Y96.506 E0.05460 ; brim
G1 X103.030 Y96.797 E0.03713 ; brim
G1 X104.081 Y96.519 E0.03408 ; brim
G1 X105.830 Y96.506 E0.05483 ; brim
G1 X106.958 Y96.803 E0.03658 ; brim
G1 X108.028 Y96.518 E0.03472 ; brim
G1 X109.840 Y96.515 E0.05681 ; brim
G1 X110.904 Y96.805 E0.03457 ; brim
G1 X112.016 Y96.512 E0.03605 ; brim
G1 X113.772 Y96.515 E0.05506 ; brim
G1 X114.855 Y96.800 E0.03513 ; brim
G1 X116.084 Y96.497 E0.03969 ; brim
G1 X117.840 Y96.533 E0.05506 ; brim
G1 X118.795 Y96.801 E0.03112 ; brim
G1 X119.962 Y96.504 E0.03776 ; brim
G1 X121.718 Y96.524 E0.05506 ; brim
G1 X122.736 Y96.801 E0.03308 ; brim
G1 X123.897 Y96.505 E0.03756 ; brim
G1 X125.653 Y96.523 E0.05505 ; brim
G1 X126.668 Y96.798 E0.03299 ; brim
G1 X127.840 Y96.504 E0.03789 ; brim
G1 X129.679 Y96.536 E0.05767 ; brim
G1 X130.614 Y96.819 E0.03061 ; brim
G1 X131.693 Y96.514 E0.03515 ; brim
G1 X133.611 Y96.535 E0.06014 ; brim
G1 X134.553 Y96.819 E0.03086 ; brim
G1 X135.574 Y96.523 E0.03332 ; brim
G1 X137.490 Y96.526 E0.06010 ; brim
G1 X138.577 Y96.847 E0.03553 ; brim
G1 X139.411 Y97.363 E0.03073 ; brim
G1 X140.130 Y98.118 E0.03269 ; brim
G1 X140.834 Y99.451 E0.04727 ; brim
G1 X141.386 Y99.596 E0.01788 ; brim
G1 X142.202 Y100.015 E0.02877 ; brim
G1 X143.146 Y100.896 E0.04047 ; brim
G1 X143.803 Y102.117 E0.04349 ; brim
G1 X143.960 Y102.947 E0.02647 ; brim
G1 X143.937 Y110.156 E0.22605 ; brim
G1 X143.611 Y111.249 E0.03575 ; brim
G1 X143.188 Y111.932 E0.02518 ; brim
G1 X142.388 Y112.729 E0.03540 ; brim
G1 X141.645 Y113.180 E0.02727 ; brim
G1 X140.467 Y113.501 E0.03829 ; brim
G1 X69.588 Y113.501 E2.22233 ; brim
G1 X68.472 Y113.231 E0.03602 ; brim
G1 X67.494 Y112.639 E0.03584 ; brim
G1 X66.653 Y111.720 E0.03905 ; brim
G1 X66.349 Y111.163 E0.01991 ; brim
G1 X66.131 Y110.553 E0.02032 ; brim
