; generated by PrusaSlicer 2.3.0+win64 on 2021-11-01 at 11:40:23 UTC

; 

; external perimeters extrusion width = 0.60mm
; perimeters extrusion width = 0.45mm
; infill extrusion width = 0.45mm
; solid infill extrusion width = 0.45mm
; top infill extrusion width = 0.40mm
; support material extrusion width = 0.35mm
; first layer extrusion width = 0.42mm

M201 X1000 Y1000 Z200 E5000 ; sets maximum accelerations, mm/sec^2
M203 X200 Y200 Z8 E60 ; sets maximum feedrates, mm/sec
M204 P1250 R1250 T1250 ; sets acceleration (P, T) and retract acceleration (R), mm/sec^2
M205 X8.00 Y8.00 Z0.40 E5.00 ; sets the jerk limits, mm/sec
M205 S0 T0 ; sets the minimum extruding and travel feed rate, mm/sec
M107 ; disable fan
;TYPE:Custom
G90 ; use absolute coordinates
M83 ; extruder relative mode
M204 S1250 T1250
M104 S215 ; set extruder temp
M140 S60 ; set bed temp
G28 ; home all
G1 Y0 Z1 F100 ; move print head up
M190 S60 ; wait for bed temp
M109 S215 ; wait for extruder temp
G92 E0
G1 E38 F1000; deretract filament
G92 E0
G1 X60 Z0 E9 ; intro line
G1 X100 E12.5 ; intro line
G92 E0
G21 ; set units to millimeters
G90 ; use absolute coordinates
M83 ; use relative distances for extrusion
; Filament gcode
;LAYER_CHANGE
;Z:0.2
;HEIGHT:0.2
;BEFORE_LAYER_CHANGE
;0.2
G1 E-6.00000 F2400.000 ; retract
G1 Z0.075 F10800.000 ; lift Z
G1 Z0.200 ; move to next layer (0)
;AFTER_LAYER_CHANGE
;0.2
G1 Z0.275 ; lift Z
G1 X68.136 Y111.845 ; move to first brim point
G1 Z0.200 ; restore layer Z
G1 E6.00000 F3000.000 ; unretract
M204 S1250 ; adjust acceleration
;TYPE:Skirt
;WIDTH:0.42
G1 F1800.000
G1 X66.882 Y111.183 E0.04445 ; brim
G1 X65.627 Y109.980 E0.05449 ; brim
G1 X64.969 Y108.878 E0.04025 ; brim
G1 X64.581 Y107.576 E0.04260 ; brim
G1 X64.600 Y99.438 E0.25518 ; brim
G1 X64.918 Y98.347 E0.03563 ; brim
G1 X65.531 Y97.261 E0.03911 ; brim
G1 X66.566 Y96.178 E0.04695 ; brim
G1 X67.764 Y95.432 E0.04426 ; brim
G1 X69.110 Y95.035 E0.04399 ; brim
G1 X140.723 Y95.015 E2.24537 ; brim
G1 X141.748 Y95.240 E0.03290 ; brim
G1 X142.698 Y95.655 E0.03252 ; brim
G1 X144.073 Y96.791 E0.05592 ; brim
G1 X144.855 Y97.871 E0.04180 ; brim
G1 X145.346 Y99.136 E0.04255 ; brim
G1 X145.468 Y107.060 E0.24848 ; brim
G1 X145.360 Y107.940 E0.02779 ; brim
G1 X144.406 Y109.943 E0.06960 ; brim
G1 X143.154 Y111.159 E0.05468 ; brim
G1 X142.026 Y111.772 E0.04028 ; brim
G1 X141.877 Y111.825 E0.00494 ; brim
G1 X141.450 Y112.629 E0.02856 ; brim
G1 X140.617 Y113.592 E0.03992 ; brim
G1 X139.327 Y114.467 E0.04887 ; brim
G1 X137.800 Y114.952 E0.05024 ; brim
G1 X135.406 Y114.976 E0.07508 ; brim
G1 X134.539 Y114.761 E0.02800 ; brim
G1 X133.533 Y114.997 E0.03240 ; brim
G1 X131.503 Y114.983 E0.06364 ; brim
G1 X130.610 Y114.749 E0.02895 ; brim
G1 X129.714 Y114.983 E0.02902 ; brim
G1 X127.679 Y114.996 E0.06382 ; brim
G1 X126.663 Y114.756 E0.03274 ; brim
G1 X125.664 Y114.996 E0.03220 ; brim
G1 X123.716 Y114.994 E0.06108 ; brim
G1 X122.717 Y114.755 E0.03221 ; brim
G1 X121.650 Y115.004 E0.03437 ; brim
G1 X119.703 Y114.985 E0.06105 ; brim
G1 X118.772 Y114.756 E0.03005 ; brim
G1 X117.710 Y115.004 E0.03421 ; brim
G1 X115.763 Y114.985 E0.06104 ; brim
G1 X114.844 Y114.760 E0.02968 ; brim
G1 X113.833 Y114.997 E0.03255 ; brim
G1 X111.803 Y114.983 E0.06364 ; brim
G1 X110.910 Y114.749 E0.02895 ; brim
G1 X110.014 Y114.983 E0.02902 ; brim
G1 X107.979 Y114.996 E0.06382 ; brim
G1 X106.968 Y114.757 E0.03259 ; brim
G1 X106.046 Y114.986 E0.02978 ; brim
G1 X104.096 Y115.003 E0.06115 ; brim
G1 X103.023 Y114.754 E0.03454 ; brim
G1 X101.949 Y115.004 E0.03457 ; brim
G1 X100.002 Y114.985 E0.06105 ; brim
G1 X99.077 Y114.757 E0.02987 ; brim
G1 X98.083 Y114.996 E0.03203 ; brim
G1 X96.135 Y114.994 E0.06108 ; brim
G1 X95.146 Y114.757 E0.03188 ; brim
G1 X94.225 Y114.986 E0.02977 ; brim
G1 X92.276 Y115.003 E0.06111 ; brim
G1 X91.208 Y114.756 E0.03438 ; brim
G1 X90.115 Y115.005 E0.03513 ; brim
G1 X88.181 Y114.985 E0.06067 ; brim
G1 X87.253 Y114.754 E0.02996 ; brim
G1 X86.375 Y114.983 E0.02845 ; brim
G1 X84.246 Y114.986 E0.06678 ; brim
G1 X83.331 Y114.748 E0.02962 ; brim
G1 X82.433 Y114.984 E0.02911 ; brim
G1 X80.398 Y114.996 E0.06383 ; brim
G1 X79.393 Y114.757 E0.03239 ; brim
G1 X78.624 Y114.966 E0.02496 ; brim
G1 X76.580 Y115.008 E0.06412 ; brim
G1 X75.473 Y114.758 E0.03556 ; brim
G1 X74.624 Y114.974 E0.02748 ; brim
G1 X72.678 Y115.013 E0.06103 ; brim
G1 X70.929 Y114.583 E0.05646 ; brim
G1 X69.391 Y113.600 E0.05724 ; brim
G1 X68.579 Y112.672 E0.03866 ; brim
G1 X68.164 Y111.897 E0.02754 ; brim
G1 X68.389 Y111.517 F10800.000 ; move to first brim point
G1 F1800.000
G1 X68.195 Y111.454 E0.00638 ; brim
G1 X67.123 Y110.892 E0.03795 ; brim
G1 X65.907 Y109.726 E0.05283 ; brim
G1 X65.306 Y108.708 E0.03709 ; brim
G1 X64.950 Y107.497 E0.03957 ; brim
G1 X64.977 Y99.467 E0.25177 ; brim
G1 X65.273 Y98.476 E0.03244 ; brim
G1 X65.821 Y97.503 E0.03500 ; brim
G1 X66.788 Y96.484 E0.04404 ; brim
G1 X67.896 Y95.786 E0.04108 ; brim
G1 X69.191 Y95.404 E0.04231 ; brim
G1 X140.663 Y95.388 E2.24097 ; brim
G1 X141.614 Y95.593 E0.03051 ; brim
G1 X142.522 Y95.990 E0.03108 ; brim
G1 X143.813 Y97.065 E0.05266 ; brim
G1 X144.534 Y98.070 E0.03879 ; brim
G1 X144.981 Y99.239 E0.03925 ; brim
G1 X145.091 Y107.052 E0.24499 ; brim
G1 X144.990 Y107.863 E0.02562 ; brim
G1 X144.119 Y109.697 E0.06366 ; brim
G1 X142.911 Y110.869 E0.05278 ; brim
G1 X141.866 Y111.430 E0.03717 ; brim
G1 X141.616 Y111.509 E0.00821 ; brim
G1 X141.150 Y112.399 E0.03152 ; brim
G1 X140.348 Y113.326 E0.03842 ; brim
G1 X139.140 Y114.138 E0.04565 ; brim
G1 X137.715 Y114.584 E0.04681 ; brim
G1 X135.428 Y114.599 E0.07170 ; brim
G1 X134.542 Y114.373 E0.02868 ; brim
G1 X133.512 Y114.619 E0.03321 ; brim
G1 X131.530 Y114.606 E0.06213 ; brim
G1 X130.610 Y114.358 E0.02989 ; brim
G1 X129.687 Y114.607 E0.02996 ; brim
G1 X127.700 Y114.619 E0.06230 ; brim
G1 X126.662 Y114.367 E0.03349 ; brim
G1 X125.641 Y114.619 E0.03297 ; brim
G1 X123.740 Y114.617 E0.05962 ; brim
G1 X122.718 Y114.367 E0.03298 ; brim
G1 X121.630 Y114.627 E0.03509 ; brim
G1 X119.729 Y114.608 E0.05959 ; brim
G1 X118.775 Y114.368 E0.03087 ; brim
G1 X117.690 Y114.627 E0.03497 ; brim
G1 X115.790 Y114.608 E0.05958 ; brim
G1 X114.846 Y114.372 E0.03052 ; brim
G1 X113.812 Y114.619 E0.03333 ; brim
G1 X111.830 Y114.606 E0.06213 ; brim
G1 X110.910 Y114.358 E0.02989 ; brim
G1 X109.987 Y114.607 E0.02996 ; brim
G1 X108.000 Y114.619 E0.06230 ; brim
G1 X106.965 Y114.368 E0.03339 ; brim
G1 X106.019 Y114.609 E0.03061 ; brim
G1 X104.116 Y114.626 E0.05969 ; brim
G1 X103.022 Y114.366 E0.03523 ; brim
G1 X101.929 Y114.627 E0.03525 ; brim
G1 X100.028 Y114.608 E0.05959 ; brim
G1 X99.078 Y114.369 E0.03073 ; brim
G1 X98.060 Y114.619 E0.03286 ; brim
G1 X96.159 Y114.617 E0.05962 ; brim
G1 X95.145 Y114.368 E0.03274 ; brim
G1 X94.198 Y114.609 E0.03062 ; brim
G1 X92.296 Y114.626 E0.05965 ; brim
G1 X91.208 Y114.368 E0.03504 ; brim
G1 X90.096 Y114.628 E0.03580 ; brim
G1 X88.208 Y114.608 E0.05922 ; brim
G1 X87.251 Y114.364 E0.03096 ; brim
G1 X86.350 Y114.606 E0.02926 ; brim
G1 X84.271 Y114.608 E0.06518 ; brim
G1 X83.331 Y114.357 E0.03050 ; brim
G1 X82.406 Y114.607 E0.03003 ; brim
G1 X80.419 Y114.619 E0.06231 ; brim
G1 X79.386 Y114.366 E0.03335 ; brim
G1 X78.592 Y114.589 E0.02585 ; brim
G1 X76.596 Y114.630 E0.06260 ; brim
G1 X75.468 Y114.370 E0.03630 ; brim
G1 X74.593 Y114.597 E0.02833 ; brim
G1 X72.695 Y114.636 E0.05952 ; brim
G1 X71.051 Y114.224 E0.05315 ; brim
G1 X69.657 Y113.332 E0.05190 ; brim
G1 X68.878 Y112.440 E0.03713 ; brim
G1 X68.417 Y111.570 E0.03088 ; brim
G1 X68.649 Y111.198 F10800.000 ; move to first brim point
G1 F1800.000
G1 X68.350 Y111.110 E0.00977 ; brim
G1 X67.364 Y110.601 E0.03479 ; brim
G1 X66.187 Y109.473 E0.05111 ; brim
G1 X65.644 Y108.539 E0.03388 ; brim
G1 X65.320 Y107.419 E0.03657 ; brim
G1 X65.354 Y99.497 E0.24837 ; brim
G1 X65.628 Y98.606 E0.02922 ; brim
G1 X66.112 Y97.744 E0.03100 ; brim
G1 X67.010 Y96.790 E0.04108 ; brim
G1 X68.075 Y96.119 E0.03947 ; brim
G1 X69.269 Y95.774 E0.03900 ; brim
G1 X140.603 Y95.760 E2.23662 ; brim
G1 X141.515 Y95.958 E0.02926 ; brim
G1 X142.345 Y96.324 E0.02843 ; brim
G1 X143.551 Y97.337 E0.04941 ; brim
G1 X144.212 Y98.268 E0.03578 ; brim
G1 X144.617 Y99.341 E0.03596 ; brim
G1 X144.714 Y107.043 E0.24152 ; brim
G1 X144.620 Y107.786 E0.02347 ; brim
G1 X143.832 Y109.450 E0.05773 ; brim
G1 X142.668 Y110.580 E0.05086 ; brim
G1 X141.709 Y111.087 E0.03402 ; brim
G1 X141.356 Y111.191 E0.01155 ; brim
G1 X140.850 Y112.170 E0.03454 ; brim
G1 X140.080 Y113.059 E0.03689 ; brim
G1 X138.955 Y113.809 E0.04240 ; brim
G1 X137.632 Y114.215 E0.04339 ; brim
G1 X135.453 Y114.222 E0.06832 ; brim
G1 X134.545 Y113.983 E0.02942 ; brim
G1 X133.490 Y114.242 E0.03406 ; brim
G1 X131.558 Y114.229 E0.06058 ; brim
G1 X130.610 Y113.966 E0.03086 ; brim
G1 X129.659 Y114.230 E0.03093 ; brim
G1 X127.722 Y114.242 E0.06074 ; brim
G1 X126.661 Y113.978 E0.03427 ; brim
G1 X125.618 Y114.242 E0.03375 ; brim
G1 X123.764 Y114.240 E0.05813 ; brim
G1 X122.719 Y113.978 E0.03376 ; brim
G1 X121.609 Y114.250 E0.03582 ; brim
G1 X119.757 Y114.231 E0.05810 ; brim
G1 X118.777 Y113.979 E0.03172 ; brim
G1 X117.669 Y114.250 E0.03575 ; brim
G1 X115.817 Y114.231 E0.05809 ; brim
G1 X114.848 Y113.983 E0.03137 ; brim
G1 X113.790 Y114.242 E0.03413 ; brim
G1 X111.858 Y114.229 E0.06058 ; brim
G1 X110.910 Y113.966 E0.03086 ; brim
G1 X109.959 Y114.230 E0.03093 ; brim
G1 X108.022 Y114.242 E0.06074 ; brim
G1 X106.963 Y113.979 E0.03421 ; brim
G1 X105.992 Y114.232 E0.03147 ; brim
G1 X104.136 Y114.249 E0.05819 ; brim
G1 X103.022 Y113.978 E0.03595 ; brim
G1 X101.909 Y114.250 E0.03594 ; brim
G1 X100.056 Y114.231 E0.05810 ; brim
G1 X99.079 Y113.979 E0.03162 ; brim
G1 X98.037 Y114.242 E0.03370 ; brim
G1 X96.183 Y114.240 E0.05813 ; brim
G1 X95.143 Y113.979 E0.03361 ; brim
G1 X94.171 Y114.232 E0.03149 ; brim
G1 X92.316 Y114.249 E0.05816 ; brim
G1 X91.209 Y113.980 E0.03572 ; brim
G1 X90.077 Y114.251 E0.03650 ; brim
G1 X88.235 Y114.231 E0.05773 ; brim
G1 X87.248 Y113.973 E0.03200 ; brim
G1 X86.323 Y114.229 E0.03009 ; brim
G1 X84.296 Y114.231 E0.06355 ; brim
G1 X83.331 Y113.966 E0.03140 ; brim
G1 X82.378 Y114.230 E0.03099 ; brim
G1 X80.441 Y114.242 E0.06074 ; brim
G1 X79.378 Y113.976 E0.03434 ; brim
G1 X78.559 Y114.213 E0.02675 ; brim
G1 X76.612 Y114.253 E0.06104 ; brim
G1 X75.462 Y113.981 E0.03705 ; brim
G1 X74.562 Y114.221 E0.02920 ; brim
G1 X72.712 Y114.258 E0.05802 ; brim
G1 X71.227 Y113.890 E0.04800 ; brim
G1 X69.923 Y113.063 E0.04841 ; brim
G1 X69.176 Y112.209 E0.03555 ; brim
G1 X68.677 Y111.252 E0.03387 ; brim
G1 X68.909 Y110.879 F10800.000 ; move to first brim point
G1 F1800.000
G1 X68.502 Y110.764 E0.01323 ; brim
G1 X67.604 Y110.309 E0.03157 ; brim
G1 X66.468 Y109.220 E0.04935 ; brim
G1 X65.983 Y108.372 E0.03062 ; brim
G1 X65.690 Y107.342 E0.03359 ; brim
G1 X65.731 Y99.529 E0.24498 ; brim
G1 X65.981 Y98.739 E0.02597 ; brim
G1 X66.403 Y97.985 E0.02711 ; brim
G1 X67.233 Y97.095 E0.03815 ; brim
G1 X68.206 Y96.474 E0.03618 ; brim
G1 X69.349 Y96.143 E0.03730 ; brim
G1 X140.545 Y96.133 E2.23230 ; brim
G1 X141.381 Y96.311 E0.02682 ; brim
G1 X142.167 Y96.658 E0.02694 ; brim
G1 X143.289 Y97.609 E0.04610 ; brim
G1 X143.889 Y98.464 E0.03277 ; brim
G1 X144.252 Y99.441 E0.03268 ; brim
G1 X144.337 Y107.034 E0.23808 ; brim
G1 X144.250 Y107.708 E0.02131 ; brim
G1 X143.543 Y109.204 E0.05188 ; brim
G1 X142.467 Y110.259 E0.04725 ; brim
G1 X141.552 Y110.743 E0.03247 ; brim
G1 X141.095 Y110.871 E0.01487 ; brim
G1 X140.550 Y111.941 E0.03764 ; brim
G1 X139.812 Y112.792 E0.03533 ; brim
G1 X138.771 Y113.478 E0.03910 ; brim
G1 X137.550 Y113.846 E0.03997 ; brim
G1 X135.479 Y113.845 E0.06495 ; brim
G1 X134.549 Y113.593 E0.03021 ; brim
G1 X133.468 Y113.865 E0.03493 ; brim
G1 X131.587 Y113.852 E0.05899 ; brim
G1 X130.610 Y113.574 E0.03186 ; brim
G1 X129.631 Y113.853 E0.03193 ; brim
G1 X127.744 Y113.864 E0.05914 ; brim
G1 X126.661 Y113.589 E0.03506 ; brim
G1 X125.593 Y113.865 E0.03456 ; brim
G1 X123.788 Y113.863 E0.05660 ; brim
G1 X122.720 Y113.589 E0.03457 ; brim
G1 X121.589 Y113.872 E0.03658 ; brim
G1 X119.784 Y113.855 E0.05657 ; brim
G1 X118.780 Y113.589 E0.03259 ; brim
G1 X117.649 Y113.872 E0.03656 ; brim
G1 X115.844 Y113.855 E0.05657 ; brim
G1 X114.850 Y113.593 E0.03224 ; brim
G1 X113.768 Y113.865 E0.03496 ; brim
G1 X111.887 Y113.852 E0.05899 ; brim
G1 X110.910 Y113.574 E0.03186 ; brim
G1 X109.931 Y113.853 E0.03193 ; brim
G1 X108.044 Y113.864 E0.05914 ; brim
G1 X106.961 Y113.589 E0.03506 ; brim
G1 X105.964 Y113.855 E0.03234 ; brim
G1 X104.157 Y113.871 E0.05666 ; brim
G1 X103.022 Y113.589 E0.03668 ; brim
G1 X101.888 Y113.873 E0.03666 ; brim
G1 X100.083 Y113.854 E0.05658 ; brim
G1 X99.080 Y113.589 E0.03253 ; brim
G1 X98.013 Y113.865 E0.03457 ; brim
G1 X96.207 Y113.863 E0.05660 ; brim
G1 X95.141 Y113.589 E0.03452 ; brim
G1 X94.143 Y113.855 E0.03238 ; brim
G1 X92.337 Y113.871 E0.05664 ; brim
G1 X91.210 Y113.592 E0.03642 ; brim
G1 X90.057 Y113.873 E0.03722 ; brim
G1 X88.264 Y113.855 E0.05622 ; brim
G1 X87.245 Y113.581 E0.03308 ; brim
G1 X86.296 Y113.852 E0.03094 ; brim
G1 X84.323 Y113.854 E0.06186 ; brim
G1 X83.330 Y113.573 E0.03234 ; brim
G1 X82.350 Y113.853 E0.03197 ; brim
G1 X80.464 Y113.864 E0.05914 ; brim
G1 X79.371 Y113.584 E0.03538 ; brim
G1 X78.525 Y113.836 E0.02768 ; brim
G1 X76.630 Y113.875 E0.05944 ; brim
G1 X75.457 Y113.591 E0.03784 ; brim
G1 X74.531 Y113.844 E0.03009 ; brim
G1 X72.730 Y113.881 E0.05646 ; brim
G1 X71.349 Y113.532 E0.04469 ; brim
G1 X70.189 Y112.794 E0.04309 ; brim
G1 X69.476 Y111.979 E0.03397 ; brim
G1 X68.936 Y110.932 E0.03693 ; brim
G1 X69.168 Y110.557 F10800.000 ; move to first brim point
G1 F1800.000
G1 X68.654 Y110.419 E0.01668 ; brim
G1 X67.801 Y109.986 E0.03002 ; brim
G1 X66.751 Y108.969 E0.04583 ; brim
G1 X66.323 Y108.208 E0.02736 ; brim
G1 X66.060 Y107.266 E0.03066 ; brim
G1 X66.108 Y99.561 E0.24158 ; brim
G1 X66.333 Y98.875 E0.02267 ; brim
G1 X66.696 Y98.223 E0.02337 ; brim
G1 X67.459 Y97.398 E0.03526 ; brim
G1 X68.338 Y96.828 E0.03284 ; brim
G1 X69.428 Y96.513 E0.03557 ; brim
G1 X140.486 Y96.506 E2.22797 ; brim
G1 X141.283 Y96.675 E0.02556 ; brim
G1 X141.988 Y96.990 E0.02420 ; brim
G1 X143.025 Y97.879 E0.04283 ; brim
G1 X143.544 Y98.618 E0.02831 ; brim
G1 X143.887 Y99.541 E0.03089 ; brim
G1 X143.960 Y107.024 E0.23462 ; brim
G1 X143.880 Y107.630 E0.01916 ; brim
G1 X143.254 Y108.960 E0.04610 ; brim
G1 X142.266 Y109.939 E0.04361 ; brim
G1 X141.395 Y110.400 E0.03088 ; brim
G1 X140.836 Y110.549 E0.01815 ; brim
G1 X140.225 Y111.748 E0.04221 ; brim
G1 X139.546 Y112.524 E0.03231 ; brim
G1 X138.589 Y113.147 E0.03580 ; brim
G1 X137.471 Y113.476 E0.03655 ; brim
G1 X135.507 Y113.468 E0.06159 ; brim
G1 X134.553 Y113.202 E0.03104 ; brim
G1 X133.446 Y113.488 E0.03584 ; brim
G1 X131.617 Y113.476 E0.05736 ; brim
G1 X130.610 Y113.180 E0.03289 ; brim
G1 X129.601 Y113.476 E0.03296 ; brim
G1 X127.767 Y113.487 E0.05750 ; brim
G1 X126.660 Y113.199 E0.03588 ; brim
G1 X125.569 Y113.487 E0.03539 ; brim
G1 X123.813 Y113.486 E0.05504 ; brim
G1 X122.722 Y113.199 E0.03539 ; brim
G1 X121.567 Y113.495 E0.03737 ; brim
G1 X119.813 Y113.478 E0.05501 ; brim
G1 X118.782 Y113.199 E0.03347 ; brim
G1 X117.627 Y113.495 E0.03739 ; brim
G1 X115.873 Y113.478 E0.05501 ; brim
G1 X114.852 Y113.203 E0.03314 ; brim
G1 X113.746 Y113.488 E0.03581 ; brim
G1 X111.917 Y113.476 E0.05736 ; brim
G1 X110.910 Y113.180 E0.03289 ; brim
G1 X109.901 Y113.476 E0.03296 ; brim
G1 X108.067 Y113.487 E0.05750 ; brim
G1 X106.958 Y113.198 E0.03593 ; brim
G1 X105.936 Y113.478 E0.03324 ; brim
G1 X104.179 Y113.494 E0.05510 ; brim
G1 X103.022 Y113.199 E0.03744 ; brim
G1 X101.866 Y113.495 E0.03739 ; brim
G1 X100.112 Y113.478 E0.05502 ; brim
G1 X99.082 Y113.199 E0.03347 ; brim
G1 X97.988 Y113.487 E0.03546 ; brim
G1 X96.232 Y113.486 E0.05504 ; brim
G1 X95.139 Y113.198 E0.03545 ; brim
G1 X94.115 Y113.478 E0.03329 ; brim
G1 X92.359 Y113.494 E0.05508 ; brim
G1 X91.211 Y113.203 E0.03714 ; brim
G1 X90.036 Y113.496 E0.03796 ; brim
G1 X88.293 Y113.478 E0.05466 ; brim
G1 X87.241 Y113.189 E0.03419 ; brim
G1 X86.268 Y113.475 E0.03181 ; brim
G1 X84.350 Y113.477 E0.06013 ; brim
G1 X83.330 Y113.180 E0.03331 ; brim
G1 X82.320 Y113.476 E0.03299 ; brim
