; generated by PrusaSlicer 2.3.0+win64 on 2021-11-01 at 13:44:12 UTC

; 

; external perimeters extrusion width = 0.60mm
; perimeters extrusion width = 0.45mm
; infill extrusion width = 0.45mm
; solid infill extrusion width = 0.45mm
; top infill extrusion width = 0.40mm
; support material extrusion width = 0.35mm
; first layer extrusion width = 0.42mm

M201 X1000 Y1000 Z200 E5000 ; sets maximum accelerations, mm/sec^2
M203 X200 Y200 Z8 E60 ; sets maximum feedrates, mm/sec
M204 P1250 R1250 T1250 ; sets acceleration (P, T) and retract acceleration (R), mm/sec^2
M205 X8.00 Y8.00 Z0.40 E5.00 ; sets the jerk limits, mm/sec
M205 S0 T0 ; sets the minimum extruding and travel feed rate, mm/sec
M107 ; disable fan
;TYPE:Custom
G90 ; use absolute coordinates
M83 ; extruder relative mode
M204 S1250 T1250
M104 S215 ; set extruder temp
M140 S60 ; set bed temp
G28 ; home all
G1 Y0 Z1 F100 ; move print head up
M190 S60 ; wait for bed temp
M109 S215 ; wait for extruder temp
G92 E0
G1 E38 F1000; deretract filament
G92 E0
G1 X60 Z0 E9 ; intro line
G1 X100 E12.5 ; intro line
G92 E0
G21 ; set units to millimeters
G90 ; use absolute coordinates
M83 ; use relative distances for extrusion
; Filament gcode
;LAYER_CHANGE
;Z:0.2
;HEIGHT:0.2
;BEFORE_LAYER_CHANGE
;0.2
G1 E-6.00000 F2400.000 ; retract
G1 Z0.075 F10800.000 ; lift Z
G1 Z0.200 ; move to next layer (0)
;AFTER_LAYER_CHANGE
;0.2
G1 Z0.275 ; lift Z
G1 X76.039 Y58.980 ; move to first brim point
G1 Z0.200 ; restore layer Z
G1 E6.00000 F3000.000 ; unretract
M204 S1250 ; adjust acceleration
;TYPE:Skirt
;WIDTH:0.42
G1 F1800.000
G1 X78.016 Y56.765 E0.09310 ; brim
G1 X80.582 Y55.271 E0.09309 ; brim
G1 X83.375 Y54.665 E0.08962 ; brim
G1 X126.023 Y54.662 E1.33719 ; brim
G1 X128.787 Y55.255 E0.08864 ; brim
G1 X130.861 Y56.387 E0.07408 ; brim
G1 X132.557 Y57.965 E0.07263 ; brim
G1 X134.087 Y60.575 E0.09484 ; brim
G1 X134.706 Y63.568 E0.09583 ; brim
G1 X135.470 Y125.461 E1.94078 ; brim
G1 X133.801 Y135.223 E0.31051 ; brim
G1 X128.500 Y144.672 E0.33972 ; brim
G1 X120.202 Y151.686 E0.34065 ; brim
G1 X110.039 Y155.330 E0.33855 ; brim
G1 X99.198 Y155.194 E0.33992 ; brim
G1 X89.739 Y151.652 E0.31670 ; brim
G1 X81.992 Y145.258 E0.31494 ; brim
G1 X76.201 Y135.231 E0.36306 ; brim
G1 X74.532 Y125.513 E0.30917 ; brim
G1 X74.532 Y63.909 E1.93153 ; brim
G1 X74.846 Y61.674 E0.07078 ; brim
G1 X76.015 Y59.035 E0.09048 ; brim
G1 X76.359 Y59.189 F10800.000 ; move to first brim point
G1 F1800.000
G1 X78.276 Y57.039 E0.09031 ; brim
G1 X80.744 Y55.612 E0.08938 ; brim
G1 X83.434 Y55.038 E0.08624 ; brim
G1 X125.964 Y55.035 E1.33350 ; brim
G1 X128.631 Y55.600 E0.08549 ; brim
G1 X130.621 Y56.680 E0.07099 ; brim
G1 X132.280 Y58.222 E0.07100 ; brim
G1 X133.745 Y60.737 E0.09128 ; brim
G1 X134.329 Y63.590 E0.09129 ; brim
G1 X135.093 Y125.449 E1.93968 ; brim
G1 X133.435 Y135.127 E0.30788 ; brim
G1 X128.188 Y144.458 E0.33565 ; brim
G1 X120.043 Y151.342 E0.33438 ; brim
G1 X110.009 Y154.953 E0.33435 ; brim
G1 X99.299 Y154.829 E0.33582 ; brim
G1 X89.955 Y151.341 E0.31274 ; brim
G1 X82.258 Y144.989 E0.31289 ; brim
G1 X76.567 Y135.134 E0.35681 ; brim
G1 X74.909 Y125.497 E0.30661 ; brim
G1 X74.909 Y63.923 E1.93061 ; brim
G1 X75.216 Y61.753 E0.06871 ; brim
G1 X76.335 Y59.243 E0.08614 ; brim
G1 X76.678 Y59.398 F10800.000 ; move to first brim point
G1 F1800.000
G1 X76.703 Y59.343 E0.00188 ; brim
G1 X78.536 Y57.315 E0.08572 ; brim
G1 X80.905 Y55.954 E0.08568 ; brim
G1 X83.492 Y55.411 E0.08287 ; brim
G1 X125.906 Y55.408 E1.32987 ; brim
G1 X128.477 Y55.945 E0.08234 ; brim
G1 X130.382 Y56.973 E0.06788 ; brim
G1 X132.003 Y58.479 E0.06937 ; brim
G1 X133.382 Y60.844 E0.08583 ; brim
G1 X133.952 Y63.613 E0.08864 ; brim
G1 X134.716 Y125.436 E1.93858 ; brim
G1 X133.068 Y135.031 E0.30525 ; brim
G1 X127.876 Y144.243 E0.33156 ; brim
G1 X119.826 Y151.032 E0.33018 ; brim
G1 X109.913 Y154.586 E0.33017 ; brim
G1 X99.400 Y154.464 E0.32965 ; brim
G1 X90.116 Y150.999 E0.31073 ; brim
G1 X82.525 Y144.720 E0.30890 ; brim
G1 X76.933 Y135.037 E0.35058 ; brim
G1 X75.287 Y125.481 E0.30406 ; brim
G1 X75.287 Y63.936 E1.92969 ; brim
G1 X75.585 Y61.832 E0.06662 ; brim
G1 X76.654 Y59.452 E0.08179 ; brim
G1 X76.997 Y59.608 F10800.000 ; move to first brim point
G1 F1800.000
G1 X77.034 Y59.526 E0.00281 ; brim
G1 X78.794 Y57.591 E0.08202 ; brim
G1 X81.066 Y56.297 E0.08197 ; brim
G1 X83.549 Y55.784 E0.07950 ; brim
G1 X125.849 Y55.781 E1.32629 ; brim
G1 X128.322 Y56.290 E0.07917 ; brim
G1 X130.182 Y57.293 E0.06624 ; brim
G1 X131.724 Y58.735 E0.06622 ; brim
G1 X133.040 Y61.006 E0.08228 ; brim
G1 X133.576 Y63.635 E0.08412 ; brim
G1 X134.338 Y125.423 E1.93748 ; brim
G1 X132.702 Y134.935 E0.30262 ; brim
G1 X127.607 Y143.977 E0.32542 ; brim
G1 X119.666 Y150.689 E0.32600 ; brim
G1 X109.884 Y154.209 E0.32598 ; brim
G1 X99.501 Y154.100 E0.32555 ; brim
G1 X90.332 Y150.688 E0.30675 ; brim
G1 X82.791 Y144.451 E0.30685 ; brim
G1 X77.299 Y134.940 E0.34434 ; brim
G1 X75.664 Y125.464 E0.30150 ; brim
G1 X75.664 Y63.949 E1.92876 ; brim
G1 X75.955 Y61.912 E0.06452 ; brim
G1 X76.972 Y59.662 E0.07743 ; brim
G1 X77.315 Y59.818 F10800.000 ; move to first brim point
G1 F1800.000
G1 X77.364 Y59.710 E0.00374 ; brim
G1 X79.052 Y57.868 E0.07832 ; brim
G1 X81.225 Y56.640 E0.07826 ; brim
G1 X83.605 Y56.158 E0.07615 ; brim
G1 X125.793 Y56.154 E1.32278 ; brim
G1 X128.168 Y56.635 E0.07597 ; brim
G1 X129.981 Y57.613 E0.06458 ; brim
G1 X131.446 Y58.991 E0.06305 ; brim
G1 X132.698 Y61.167 E0.07873 ; brim
G1 X133.199 Y63.657 E0.07963 ; brim
G1 X133.961 Y125.411 E1.93640 ; brim
G1 X132.336 Y134.839 E0.29998 ; brim
G1 X127.295 Y143.762 E0.32134 ; brim
G1 X119.449 Y150.379 E0.32182 ; brim
G1 X109.853 Y153.832 E0.31974 ; brim
G1 X99.602 Y153.735 E0.32145 ; brim
G1 X90.493 Y150.346 E0.30472 ; brim
G1 X83.057 Y144.182 E0.30284 ; brim
G1 X77.665 Y134.843 E0.33812 ; brim
G1 X76.041 Y125.448 E0.29894 ; brim
G1 X76.041 Y63.963 E1.92783 ; brim
G1 X76.324 Y61.993 E0.06240 ; brim
G1 X77.290 Y59.873 E0.07305 ; brim
G1 X77.694 Y59.895 F10800.000 ; move to first brim point
G1 F1800.000
G1 X79.308 Y58.146 E0.07461 ; brim
G1 X81.383 Y56.983 E0.07456 ; brim
G1 X83.660 Y56.531 E0.07281 ; brim
G1 X125.738 Y56.528 E1.31933 ; brim
G1 X128.015 Y56.981 E0.07280 ; brim
G1 X129.741 Y57.905 E0.06137 ; brim
G1 X131.166 Y59.246 E0.06137 ; brim
G1 X132.355 Y61.327 E0.07515 ; brim
G1 X132.822 Y63.679 E0.07517 ; brim
G1 X133.584 Y125.398 E1.93532 ; brim
G1 X131.970 Y134.743 E0.29733 ; brim
G1 X126.984 Y143.547 E0.31726 ; brim
G1 X119.289 Y150.036 E0.31559 ; brim
G1 X109.823 Y153.454 E0.31557 ; brim
G1 X99.702 Y153.370 E0.31734 ; brim
G1 X90.709 Y150.035 E0.30072 ; brim
G1 X83.324 Y143.913 E0.30078 ; brim
G1 X78.030 Y134.746 E0.33190 ; brim
G1 X76.418 Y125.432 E0.29638 ; brim
G1 X76.418 Y63.977 E1.92689 ; brim
G1 X76.693 Y62.074 E0.06027 ; brim
G1 X77.669 Y59.949 E0.07332 ; brim
G1 X78.011 Y60.108 F10800.000 ; move to first brim point
G1 F1800.000
G1 X79.563 Y58.425 E0.07178 ; brim
G1 X81.539 Y57.328 E0.07085 ; brim
G1 X83.714 Y56.905 E0.06947 ; brim
G1 X125.720 Y56.905 E1.31707 ; brim
G1 X127.863 Y57.327 E0.06850 ; brim
G1 X129.501 Y58.197 E0.05814 ; brim
G1 X130.888 Y59.501 E0.05969 ; brim
G1 X131.992 Y61.431 E0.06970 ; brim
G1 X132.445 Y63.701 E0.07258 ; brim
G1 X133.207 Y125.385 E1.93422 ; brim
G1 X131.604 Y134.646 E0.29468 ; brim
G1 X126.672 Y143.331 E0.31316 ; brim
G1 X119.072 Y149.726 E0.31141 ; brim
G1 X109.727 Y153.088 E0.31141 ; brim
G1 X99.802 Y153.005 E0.31118 ; brim
G1 X90.870 Y149.693 E0.29869 ; brim
G1 X83.591 Y143.644 E0.29676 ; brim
G1 X78.396 Y134.649 E0.32570 ; brim
G1 X76.795 Y125.416 E0.29382 ; brim
G1 X76.795 Y63.990 E1.92595 ; brim
G1 X77.062 Y62.156 E0.05812 ; brim
G1 X77.986 Y60.162 E0.06890 ; brim
G1 X78.327 Y60.321 F10800.000 ; move to first brim point
G1 F1800.000
G1 X78.352 Y60.268 E0.00185 ; brim
G1 X79.818 Y58.705 E0.06718 ; brim
G1 X81.694 Y57.673 E0.06714 ; brim
G1 X83.767 Y57.279 E0.06615 ; brim
G1 X125.666 Y57.279 E1.31374 ; brim
G1 X127.712 Y57.674 E0.06531 ; brim
G1 X129.301 Y58.518 E0.05644 ; brim
G1 X130.608 Y59.755 E0.05642 ; brim
G1 X131.648 Y61.590 E0.06613 ; brim
G1 X132.068 Y63.722 E0.06814 ; brim
G1 X132.829 Y125.373 E1.93315 ; brim
G1 X131.238 Y134.550 E0.29203 ; brim
G1 X126.404 Y143.065 E0.30702 ; brim
G1 X118.912 Y149.382 E0.30725 ; brim
G1 X109.696 Y152.711 E0.30725 ; brim
G1 X99.902 Y152.640 E0.30708 ; brim
G1 X91.087 Y149.382 E0.29467 ; brim
G1 X83.857 Y143.376 E0.29470 ; brim
G1 X78.762 Y134.551 E0.31949 ; brim
G1 X77.172 Y125.400 E0.29125 ; brim
G1 X77.172 Y64.004 E1.92501 ; brim
G1 X77.431 Y62.239 E0.05596 ; brim
G1 X78.302 Y60.376 E0.06447 ; brim
G1 X78.642 Y60.536 F10800.000 ; move to first brim point
G1 F1800.000
G1 X78.680 Y60.457 E0.00277 ; brim
G1 X80.070 Y58.986 E0.06345 ; brim
G1 X81.847 Y58.018 E0.06344 ; brim
G1 X83.818 Y57.652 E0.06285 ; brim
G1 X125.614 Y57.652 E1.31049 ; brim
G1 X127.560 Y58.020 E0.06210 ; brim
G1 X129.101 Y58.839 E0.05471 ; brim
G1 X130.327 Y60.008 E0.05311 ; brim
G1 X131.305 Y61.748 E0.06257 ; brim
G1 X131.691 Y63.744 E0.06374 ; brim
G1 X132.452 Y125.360 E1.93208 ; brim
G1 X130.872 Y134.453 E0.28937 ; brim
G1 X126.093 Y142.849 E0.30293 ; brim
G1 X118.695 Y149.072 E0.30310 ; brim
G1 X109.665 Y152.334 E0.30105 ; brim
G1 X100.002 Y152.275 E0.30298 ; brim
G1 X91.248 Y149.040 E0.29262 ; brim
G1 X84.124 Y143.107 E0.29066 ; brim
G1 X79.128 Y134.454 E0.31330 ; brim
G1 X77.549 Y125.383 E0.28869 ; brim
G1 X77.549 Y64.018 E1.92406 ; brim
G1 X77.800 Y62.322 E0.05377 ; brim
G1 X78.617 Y60.591 E0.06001 ; brim
G1 X79.007 Y60.647 F10800.000 ; move to first brim point
G1 F1800.000
G1 X80.322 Y59.268 E0.05972 ; brim
G1 X81.999 Y58.365 E0.05973 ; brim
G1 X83.868 Y58.027 E0.05955 ; brim
G1 X125.563 Y58.026 E1.30731 ; brim
G1 X127.411 Y58.368 E0.05892 ; brim
G1 X128.860 Y59.130 E0.05135 ; brim
G1 X130.045 Y60.261 E0.05137 ; brim
G1 X130.960 Y61.904 E0.05896 ; brim
G1 X131.315 Y63.765 E0.05938 ; brim
G1 X132.075 Y125.347 E1.93103 ; brim
G1 X130.507 Y134.356 E0.28671 ; brim
G1 X125.782 Y142.633 E0.29884 ; brim
G1 X118.535 Y148.729 E0.29691 ; brim
G1 X109.633 Y151.957 E0.29691 ; brim
G1 X100.101 Y151.909 E0.29887 ; brim
G1 X91.464 Y148.729 E0.28858 ; brim
G1 X84.391 Y142.839 E0.28860 ; brim
G1 X79.494 Y134.357 E0.30711 ; brim
G1 X77.926 Y125.367 E0.28612 ; brim
G1 X77.926 Y64.032 E1.92310 ; brim
G1 X78.169 Y62.406 E0.05157 ; brim
G1 X78.981 Y60.701 E0.05921 ; brim
G1 X79.321 Y60.864 F10800.000 ; move to first brim point
G1 F1800.000
G1 X80.572 Y59.552 E0.05686 ; brim
G1 X82.149 Y58.712 E0.05602 ; brim
G1 X83.917 Y58.401 E0.05627 ; brim
G1 X125.513 Y58.400 E1.30422 ; brim
G1 X127.263 Y58.715 E0.05574 ; brim
G1 X128.620 Y59.421 E0.04795 ; brim
G1 X129.764 Y60.514 E0.04961 ; brim
G1 X130.615 Y62.059 E0.05532 ; brim
G1 X130.938 Y63.785 E0.05506 ; brim
G1 X131.698 Y125.334 E1.92998 ; brim
G1 X130.141 Y134.258 E0.28404 ; brim
G1 X125.471 Y142.417 E0.29473 ; brim
G1 X118.319 Y148.419 E0.29276 ; brim
G1 X109.536 Y151.591 E0.29277 ; brim
G1 X100.201 Y151.544 E0.29272 ; brim
G1 X91.625 Y148.386 E0.28653 ; brim
G1 X84.658 Y142.571 E0.28454 ; brim
G1 X79.859 Y134.259 E0.30093 ; brim
G1 X78.303 Y125.351 E0.28355 ; brim
G1 X78.303 Y64.046 E1.92215 ; brim
G1 X78.538 Y62.490 E0.04935 ; brim
G1 X79.295 Y60.918 E0.05471 ; brim
G1 X79.633 Y61.083 F10800.000 ; move to first brim point
G1 F1800.000
G1 X79.659 Y61.031 E0.00182 ; brim
G1 X80.821 Y59.837 E0.05225 ; brim
G1 X82.298 Y59.060 E0.05232 ; brim
G1 X83.964 Y58.775 E0.05301 ; brim
G1 X125.497 Y58.777 E1.30223 ; brim
G1 X127.115 Y59.063 E0.05151 ; brim
G1 X128.421 Y59.743 E0.04617 ; brim
G1 X129.482 Y60.765 E0.04619 ; brim
G1 X130.250 Y62.158 E0.04990 ; brim
G1 X130.561 Y63.806 E0.05258 ; brim
G1 X131.320 Y125.321 E1.92891 ; brim
G1 X129.775 Y134.161 E0.28137 ; brim
G1 X125.203 Y142.150 E0.28859 ; brim
G1 X118.159 Y148.076 E0.28863 ; brim
G1 X109.504 Y151.213 E0.28864 ; brim
G1 X100.299 Y151.179 E0.28862 ; brim
G1 X91.841 Y148.076 E0.28247 ; brim
G1 X84.926 Y142.303 E0.28247 ; brim
G1 X80.225 Y134.161 E0.29476 ; brim
G1 X78.680 Y125.334 E0.28098 ; brim
G1 X78.680 Y64.061 E1.92118 ; brim
G1 X78.906 Y62.576 E0.04710 ; brim
G1 X79.607 Y61.137 E0.05017 ; brim
G1 X79.938 Y61.298 F10800.000 ; move to first brim point
G1 F1800.000
G1 X81.025 Y60.155 E0.04947 ; brim
G1 X82.392 Y59.426 E0.04856 ; brim
G1 X83.980 Y59.152 E0.05053 ; brim
G1 X125.481 Y59.154 E1.30123 ; brim
G1 X126.967 Y59.412 E0.04728 ; brim
G1 X128.222 Y60.065 E0.04437 ; brim
G1 X129.198 Y61.015 E0.04270 ; brim
G1 X129.905 Y62.312 E0.04632 ; brim
G1 X130.184 Y63.827 E0.04830 ; brim
G1 X130.943 Y125.308 E1.92787 ; brim
G1 X129.409 Y134.064 E0.27869 ; brim
G1 X124.893 Y141.933 E0.28449 ; brim
G1 X117.942 Y147.766 E0.28450 ; brim
G1 X109.472 Y150.836 E0.28248 ; brim
G1 X100.398 Y150.813 E0.28452 ; brim
G1 X92.058 Y147.766 E0.27840 ; brim
G1 X85.193 Y142.035 E0.28040 ; brim
G1 X80.591 Y134.064 E0.28858 ; brim
G1 X79.057 Y125.318 E0.27840 ; brim
G1 X79.057 Y64.075 E1.92021 ; brim
G1 X79.274 Y62.661 E0.04487 ; brim
G1 X79.911 Y61.352 E0.04564 ; brim
G1 X80.249 Y61.519 F10800.000 ; move to first brim point
G1 F1800.000
G1 X80.275 Y61.465 E0.00187 ; brim
G1 X81.274 Y60.440 E0.04487 ; brim
G1 X82.540 Y59.774 E0.04486 ; brim
G1 X83.996 Y59.529 E0.04628 ; brim
G1 X125.466 Y59.532 E1.30026 ; brim
G1 X126.821 Y59.761 E0.04311 ; brim
G1 X127.980 Y60.355 E0.04081 ; brim
G1 X128.914 Y61.264 E0.04088 ; brim
G1 X129.558 Y62.463 E0.04268 ; brim
G1 X129.807 Y63.847 E0.04407 ; brim
G1 X130.566 Y125.296 E1.92684 ; brim
G1 X129.044 Y133.966 E0.27601 ; brim
G1 X124.582 Y141.716 E0.28039 ; brim
G1 X117.782 Y147.423 E0.27836 ; brim
G1 X109.439 Y150.459 E0.27837 ; brim
G1 X100.496 Y150.448 E0.28041 ; brim
G1 X92.218 Y147.423 E0.27633 ; brim
G1 X85.460 Y141.767 E0.27631 ; brim
G1 X80.956 Y133.966 E0.28243 ; brim
G1 X79.434 Y125.301 E0.27583 ; brim
G1 X79.434 Y64.090 E1.91924 ; brim
G1 X79.642 Y62.748 E0.04259 ; brim
G1 X80.222 Y61.572 E0.04109 ; brim
G1 X80.599 Y61.661 F10800.000 ; move to first brim point
G1 F1800.000
G1 X81.521 Y60.727 E0.04117 ; brim
G1 X82.686 Y60.123 E0.04116 ; brim
G1 X84.010 Y59.906 E0.04208 ; brim
G1 X125.451 Y59.909 E1.29933 ; brim
G1 X126.678 Y60.110 E0.03900 ; brim
G1 X127.738 Y60.645 E0.03721 ; brim
G1 X128.629 Y61.514 E0.03902 ; brim
G1 X129.211 Y62.613 E0.03899 ; brim
G1 X129.430 Y63.866 E0.03990 ; brim
G1 X130.189 Y125.283 E1.92582 ; brim
G1 X128.678 Y133.868 E0.27333 ; brim
G1 X124.314 Y141.449 E0.27425 ; brim
G1 X117.621 Y147.080 E0.27425 ; brim
G1 X109.406 Y150.082 E0.27425 ; brim
G1 X100.594 Y150.082 E0.27628 ; brim
G1 X92.379 Y147.080 E0.27425 ; brim
G1 X85.728 Y141.499 E0.27222 ; brim
G1 X81.322 Y133.868 E0.27629 ; brim
G1 X79.811 Y125.285 E0.27325 ; brim
G1 X79.811 Y64.105 E1.91826 ; brim
G1 X80.010 Y62.836 E0.04028 ; brim
G1 X80.572 Y61.715 E0.03930 ; brim
G1 X81.102 Y61.992 F10800.000 ; move to first perimeter point
;TYPE:External perimeter
G1 F1800.000
G1 X81.897 Y61.197 E0.03527 ; perimeter
G1 X82.899 Y60.686 E0.03527 ; perimeter
G1 X84.042 Y60.505 E0.03629 ; perimeter
G1 X125.390 Y60.505 E1.29643 ; perimeter
G1 X126.466 Y60.674 E0.03416 ; perimeter
G1 X127.410 Y61.150 E0.03314 ; perimeter
G1 X128.162 Y61.893 E0.03314 ; perimeter
G1 X128.650 Y62.831 E0.03314 ; perimeter
G1 X128.832 Y63.905 E0.03416 ; perimeter
G1 X129.590 Y125.252 E1.92363 ; perimeter
G1 X128.101 Y133.693 E0.26876 ; perimeter
G1 X123.832 Y141.087 E0.26770 ; perimeter
G1 X117.292 Y146.575 E0.26770 ; perimeter
G1 X109.269 Y149.495 E0.26770 ; perimeter
G1 X100.731 Y149.495 E0.26770 ; perimeter
G1 X92.708 Y146.575 E0.26770 ; perimeter
G1 X86.168 Y141.087 E0.26770 ; perimeter
G1 X81.899 Y133.693 E0.26770 ; perimeter
G1 X80.410 Y125.249 E0.26884 ; perimeter
G1 X80.410 Y64.137 E1.91612 ; perimeter
G1 X80.591 Y62.994 E0.03629 ; perimeter
G1 X81.074 Y62.045 E0.03338 ; perimeter
G1 X81.500 Y62.033 F10800.000 ; move inwards before travel
G1 X81.410 Y62.217 ; move to first perimeter point
;TYPE:Perimeter
G1 F1800.000
G1 X82.121 Y61.505 E0.03153 ; perimeter
G1 X83.017 Y61.049 E0.03152 ; perimeter
G1 X84.072 Y60.882 E0.03349 ; perimeter
G1 X125.361 Y60.882 E1.29458 ; perimeter
