; generated by PrusaSlicer 2.3.0+win64 on 2021-11-01 at 10:52:01 UTC

; 

; external perimeters extrusion width = 0.60mm
; perimeters extrusion width = 0.45mm
; infill extrusion width = 0.45mm
; solid infill extrusion width = 0.45mm
; top infill extrusion width = 0.40mm
; support material extrusion width = 0.35mm
; first layer extrusion width = 0.42mm

M201 X1000 Y1000 Z200 E5000 ; sets maximum accelerations, mm/sec^2
M203 X200 Y200 Z8 E60 ; sets maximum feedrates, mm/sec
M204 P1250 R1250 T1250 ; sets acceleration (P, T) and retract acceleration (R), mm/sec^2
M205 X8.00 Y8.00 Z0.40 E5.00 ; sets the jerk limits, mm/sec
M205 S0 T0 ; sets the minimum extruding and travel feed rate, mm/sec
M107 ; disable fan
;TYPE:Custom
G90 ; use absolute coordinates
M83 ; extruder relative mode
M204 S1250 T1250
M104 S215 ; set extruder temp
M140 S60 ; set bed temp
G28 ; home all
G1 Y0 Z1 F100 ; move print head up
M190 S60 ; wait for bed temp
M109 S215 ; wait for extruder temp
G92 E0
G1 E38 F1000; deretract filament
G92 E0
G1 X60 Z0 E9 ; intro line
G1 X100 E12.5 ; intro line
G92 E0
G21 ; set units to millimeters
G90 ; use absolute coordinates
M83 ; use relative distances for extrusion
; Filament gcode
;LAYER_CHANGE
;Z:0.2
;HEIGHT:0.2
;BEFORE_LAYER_CHANGE
;0.2
G1 E-6.00000 F2400.000 ; retract
G1 Z0.075 F10800.000 ; lift Z
G1 Z0.200 ; move to next layer (0)
;AFTER_LAYER_CHANGE
;0.2
G1 Z0.275 ; lift Z
G1 X98.585 Y93.917 ; move to first brim point
G1 Z0.200 ; restore layer Z
G1 E6.00000 F3000.000 ; unretract
M204 S1250 ; adjust acceleration
;TYPE:Skirt
;WIDTH:0.42
G1 F1800.000
G1 X98.794 Y93.724 E0.00891 ; brim
G1 X99.687 Y93.116 E0.03387 ; brim
G1 X102.944 Y92.133 E0.10669 ; brim
G1 X104.668 Y92.111 E0.05406 ; brim
G1 X105.016 Y92.194 E0.01120 ; brim
G1 X105.348 Y92.124 E0.01063 ; brim
G1 X107.053 Y92.124 E0.05345 ; brim
G1 X109.712 Y92.848 E0.08642 ; brim
G1 X110.999 Y93.558 E0.04608 ; brim
G1 X111.406 Y93.910 E0.01689 ; brim
G1 X112.180 Y94.207 E0.02598 ; brim
G1 X113.160 Y94.845 E0.03667 ; brim
G1 X115.167 Y96.842 E0.08877 ; brim
G1 X115.972 Y98.247 E0.05076 ; brim
G1 X116.074 Y98.551 E0.01006 ; brim
G1 X116.823 Y99.569 E0.03962 ; brim
G1 X117.947 Y103.568 E0.13026 ; brim
G1 X117.905 Y104.531 E0.03023 ; brim
G1 X117.804 Y105.008 E0.01530 ; brim
G1 X117.877 Y105.352 E0.01102 ; brim
G1 X117.870 Y107.087 E0.05440 ; brim
G1 X116.956 Y110.172 E0.10087 ; brim
G1 X116.554 Y110.847 E0.02465 ; brim
G1 X116.092 Y111.403 E0.02264 ; brim
G1 X115.924 Y111.894 E0.01629 ; brim
G1 X115.261 Y113.030 E0.04120 ; brim
G1 X112.589 Y115.574 E0.11570 ; brim
G1 X111.663 Y116.012 E0.03212 ; brim
G1 X111.400 Y116.095 E0.00866 ; brim
G1 X110.999 Y116.442 E0.01664 ; brim
G1 X109.696 Y117.157 E0.04658 ; brim
G1 X106.640 Y117.924 E0.09880 ; brim
G1 X105.315 Y117.873 E0.04156 ; brim
G1 X104.997 Y117.803 E0.01023 ; brim
G1 X104.644 Y117.877 E0.01128 ; brim
G1 X102.911 Y117.869 E0.05436 ; brim
G1 X99.818 Y116.952 E0.10113 ; brim
G1 X99.122 Y116.531 E0.02551 ; brim
G1 X98.595 Y116.091 E0.02151 ; brim
G1 X98.090 Y115.916 E0.01675 ; brim
G1 X96.833 Y115.157 E0.04607 ; brim
G1 X94.844 Y113.176 E0.08800 ; brim
G1 X94.023 Y111.740 E0.05188 ; brim
G1 X93.912 Y111.400 E0.01121 ; brim
G1 X93.084 Y110.253 E0.04437 ; brim
G1 X92.818 Y109.593 E0.02229 ; brim
G1 X92.054 Y106.418 E0.10242 ; brim
G1 X92.095 Y105.469 E0.02977 ; brim
G1 X92.196 Y104.992 E0.01528 ; brim
G1 X92.124 Y104.652 E0.01091 ; brim
G1 X92.118 Y102.991 E0.05207 ; brim
G1 X92.873 Y100.228 E0.08980 ; brim
G1 X93.566 Y98.989 E0.04453 ; brim
G1 X93.911 Y98.593 E0.01646 ; brim
G1 X94.206 Y97.822 E0.02588 ; brim
G1 X94.836 Y96.851 E0.03631 ; brim
G1 X96.816 Y94.851 E0.08821 ; brim
G1 X98.256 Y94.025 E0.05207 ; brim
G1 X98.528 Y93.935 E0.00897 ; brim
G1 X98.779 Y94.251 F10800.000 ; move to first brim point
G1 F1800.000
G1 X99.021 Y94.026 E0.01037 ; brim
G1 X99.825 Y93.469 E0.03066 ; brim
G1 X103.028 Y92.501 E0.10490 ; brim
G1 X104.604 Y92.484 E0.04942 ; brim
G1 X105.015 Y92.581 E0.01325 ; brim
G1 X105.372 Y92.501 E0.01146 ; brim
G1 X106.978 Y92.494 E0.05039 ; brim
G1 X109.591 Y93.206 E0.08489 ; brim
G1 X110.797 Y93.877 E0.04329 ; brim
G1 X111.208 Y94.239 E0.01718 ; brim
G1 X111.993 Y94.535 E0.02628 ; brim
G1 X112.908 Y95.127 E0.03418 ; brim
G1 X114.883 Y97.091 E0.08733 ; brim
G1 X115.634 Y98.414 E0.04771 ; brim
G1 X115.746 Y98.764 E0.01153 ; brim
G1 X115.841 Y98.861 E0.00425 ; brim
G1 X116.498 Y99.763 E0.03498 ; brim
G1 X117.569 Y103.581 E0.12435 ; brim
G1 X117.529 Y104.498 E0.02877 ; brim
G1 X117.417 Y105.011 E0.01645 ; brim
G1 X117.500 Y105.375 E0.01172 ; brim
G1 X117.500 Y107.007 E0.05118 ; brim
G1 X116.620 Y110.000 E0.09779 ; brim
G1 X116.238 Y110.641 E0.02342 ; brim
G1 X115.757 Y111.216 E0.02350 ; brim
G1 X115.588 Y111.722 E0.01672 ; brim
G1 X114.949 Y112.817 E0.03974 ; brim
G1 X112.401 Y115.246 E0.11039 ; brim
G1 X111.515 Y115.665 E0.03072 ; brim
G1 X111.211 Y115.758 E0.00997 ; brim
G1 X110.797 Y116.123 E0.01731 ; brim
G1 X109.579 Y116.798 E0.04364 ; brim
G1 X106.627 Y117.546 E0.09550 ; brim
G1 X105.349 Y117.497 E0.04011 ; brim
G1 X104.998 Y117.416 E0.01128 ; brim
G1 X104.622 Y117.500 E0.01208 ; brim
G1 X102.991 Y117.500 E0.05115 ; brim
G1 X99.992 Y116.616 E0.09801 ; brim
G1 X99.329 Y116.216 E0.02427 ; brim
G1 X98.783 Y115.757 E0.02239 ; brim
G1 X98.266 Y115.582 E0.01712 ; brim
G1 X97.081 Y114.872 E0.04329 ; brim
G1 X95.159 Y112.966 E0.08489 ; brim
G1 X94.361 Y111.571 E0.05039 ; brim
G1 X94.254 Y111.229 E0.01125 ; brim
G1 X93.424 Y110.089 E0.04421 ; brim
G1 X93.181 Y109.490 E0.02025 ; brim
G1 X92.431 Y106.407 E0.09948 ; brim
G1 X92.471 Y105.502 E0.02841 ; brim
G1 X92.583 Y104.990 E0.01644 ; brim
G1 X92.501 Y104.629 E0.01161 ; brim
G1 X92.495 Y103.016 E0.05057 ; brim
G1 X93.230 Y100.351 E0.08666 ; brim
G1 X93.884 Y99.193 E0.04172 ; brim
G1 X94.239 Y98.791 E0.01681 ; brim
G1 X94.534 Y98.009 E0.02621 ; brim
G1 X95.119 Y97.101 E0.03385 ; brim
G1 X97.026 Y95.166 E0.08520 ; brim
G1 X98.425 Y94.363 E0.05058 ; brim
G1 X98.722 Y94.269 E0.00977 ; brim
G1 X98.973 Y94.588 F10800.000 ; move to first brim point
G1 F1800.000
G1 X99.248 Y94.327 E0.01188 ; brim
G1 X100.015 Y93.796 E0.02925 ; brim
G1 X103.110 Y92.870 E0.10128 ; brim
G1 X104.539 Y92.856 E0.04481 ; brim
G1 X105.017 Y92.969 E0.01540 ; brim
G1 X105.398 Y92.878 E0.01228 ; brim
G1 X106.905 Y92.865 E0.04725 ; brim
G1 X109.469 Y93.564 E0.08332 ; brim
G1 X110.594 Y94.195 E0.04045 ; brim
G1 X111.010 Y94.568 E0.01752 ; brim
G1 X111.807 Y94.863 E0.02666 ; brim
G1 X112.657 Y95.408 E0.03165 ; brim
G1 X114.598 Y97.339 E0.08586 ; brim
G1 X115.294 Y98.580 E0.04460 ; brim
G1 X115.415 Y98.971 E0.01284 ; brim
G1 X115.548 Y99.099 E0.00579 ; brim
G1 X116.174 Y99.957 E0.03330 ; brim
G1 X117.191 Y103.595 E0.11842 ; brim
G1 X117.153 Y104.464 E0.02729 ; brim
G1 X117.030 Y105.015 E0.01768 ; brim
G1 X117.123 Y105.401 E0.01245 ; brim
G1 X117.130 Y106.929 E0.04791 ; brim
G1 X116.284 Y109.827 E0.09468 ; brim
G1 X115.922 Y110.435 E0.02218 ; brim
G1 X115.421 Y111.030 E0.02439 ; brim
G1 X115.251 Y111.552 E0.01722 ; brim
G1 X114.668 Y112.564 E0.03661 ; brim
G1 X112.212 Y114.919 E0.10669 ; brim
G1 X111.367 Y115.317 E0.02929 ; brim
G1 X111.022 Y115.421 E0.01131 ; brim
G1 X110.593 Y115.805 E0.01804 ; brim
G1 X109.461 Y116.439 E0.04068 ; brim
G1 X106.614 Y117.168 E0.09216 ; brim
G1 X105.383 Y117.121 E0.03862 ; brim
G1 X104.999 Y117.028 E0.01239 ; brim
G1 X104.597 Y117.123 E0.01295 ; brim
G1 X103.070 Y117.130 E0.04787 ; brim
G1 X100.124 Y116.262 E0.09632 ; brim
G1 X99.540 Y115.903 E0.02148 ; brim
G1 X98.970 Y115.421 E0.02340 ; brim
G1 X98.440 Y115.247 E0.01751 ; brim
G1 X97.330 Y114.588 E0.04045 ; brim
G1 X95.443 Y112.717 E0.08332 ; brim
G1 X94.700 Y111.405 E0.04726 ; brim
G1 X94.598 Y111.059 E0.01133 ; brim
G1 X93.764 Y109.924 E0.04417 ; brim
G1 X93.543 Y109.386 E0.01821 ; brim
G1 X92.809 Y106.397 E0.09652 ; brim
G1 X92.847 Y105.536 E0.02702 ; brim
G1 X92.970 Y104.986 E0.01767 ; brim
G1 X92.878 Y104.602 E0.01237 ; brim
G1 X92.866 Y103.091 E0.04740 ; brim
G1 X93.587 Y100.475 E0.08508 ; brim
G1 X94.201 Y99.398 E0.03887 ; brim
G1 X94.568 Y98.990 E0.01720 ; brim
G1 X94.863 Y98.194 E0.02661 ; brim
G1 X95.401 Y97.351 E0.03135 ; brim
G1 X97.276 Y95.449 E0.08373 ; brim
G1 X98.591 Y94.702 E0.04743 ; brim
G1 X98.916 Y94.605 E0.01062 ; brim
G1 X99.166 Y94.925 F10800.000 ; move to first brim point
G1 F1800.000
G1 X99.476 Y94.628 E0.01346 ; brim
G1 X100.205 Y94.123 E0.02781 ; brim
G1 X103.191 Y93.239 E0.09765 ; brim
G1 X104.474 Y93.228 E0.04022 ; brim
G1 X105.022 Y93.357 E0.01763 ; brim
G1 X105.427 Y93.254 E0.01311 ; brim
G1 X106.831 Y93.236 E0.04404 ; brim
G1 X109.346 Y93.921 E0.08173 ; brim
G1 X110.388 Y94.512 E0.03756 ; brim
G1 X110.811 Y94.897 E0.01790 ; brim
G1 X111.623 Y95.193 E0.02712 ; brim
G1 X112.406 Y95.690 E0.02907 ; brim
G1 X114.313 Y97.588 E0.08435 ; brim
G1 X114.954 Y98.743 E0.04143 ; brim
G1 X115.083 Y99.181 E0.01432 ; brim
G1 X115.256 Y99.338 E0.00735 ; brim
G1 X115.849 Y100.152 E0.03156 ; brim
G1 X116.813 Y103.608 E0.11249 ; brim
G1 X116.777 Y104.430 E0.02580 ; brim
G1 X116.641 Y105.020 E0.01898 ; brim
G1 X116.746 Y105.429 E0.01323 ; brim
G1 X116.760 Y106.851 E0.04458 ; brim
G1 X115.948 Y109.655 E0.09154 ; brim
G1 X115.606 Y110.228 E0.02092 ; brim
G1 X115.084 Y110.844 E0.02532 ; brim
G1 X114.913 Y111.382 E0.01769 ; brim
G1 X114.355 Y112.352 E0.03511 ; brim
G1 X112.023 Y114.591 E0.10133 ; brim
G1 X111.220 Y114.970 E0.02784 ; brim
G1 X110.832 Y115.083 E0.01269 ; brim
G1 X110.388 Y115.488 E0.01883 ; brim
G1 X109.342 Y116.080 E0.03769 ; brim
G1 X106.601 Y116.791 E0.08880 ; brim
G1 X105.419 Y116.745 E0.03709 ; brim
G1 X105.000 Y116.638 E0.01356 ; brim
G1 X104.569 Y116.746 E0.01391 ; brim
G1 X103.149 Y116.760 E0.04454 ; brim
G1 X100.298 Y115.927 E0.09312 ; brim
G1 X99.772 Y115.606 E0.01932 ; brim
G1 X99.156 Y115.084 E0.02532 ; brim
G1 X98.611 Y114.910 E0.01792 ; brim
G1 X97.579 Y114.303 E0.03756 ; brim
G1 X95.728 Y112.468 E0.08173 ; brim
G1 X95.041 Y111.242 E0.04405 ; brim
G1 X94.929 Y110.843 E0.01302 ; brim
G1 X94.830 Y110.748 E0.00429 ; brim
G1 X94.103 Y109.758 E0.03850 ; brim
G1 X93.906 Y109.281 E0.01618 ; brim
G1 X93.187 Y106.386 E0.09354 ; brim
G1 X93.223 Y105.570 E0.02561 ; brim
G1 X93.359 Y104.980 E0.01898 ; brim
G1 X93.254 Y104.573 E0.01317 ; brim
G1 X93.237 Y103.165 E0.04417 ; brim
G1 X93.944 Y100.598 E0.08347 ; brim
G1 X94.517 Y99.605 E0.03595 ; brim
G1 X94.897 Y99.189 E0.01765 ; brim
G1 X95.193 Y98.378 E0.02709 ; brim
G1 X95.684 Y97.601 E0.02881 ; brim
G1 X97.525 Y95.733 E0.08224 ; brim
G1 X98.755 Y95.042 E0.04422 ; brim
G1 X99.109 Y94.942 E0.01153 ; brim
G1 X99.359 Y95.265 F10800.000 ; move to first brim point
G1 F1800.000
G1 X99.704 Y94.929 E0.01511 ; brim
G1 X100.395 Y94.450 E0.02634 ; brim
G1 X103.272 Y93.608 E0.09399 ; brim
G1 X104.409 Y93.600 E0.03567 ; brim
G1 X105.029 Y93.747 E0.01997 ; brim
G1 X105.459 Y93.631 E0.01396 ; brim
G1 X106.759 Y93.607 E0.04076 ; brim
G1 X109.224 Y94.279 E0.08010 ; brim
G1 X110.181 Y94.828 E0.03461 ; brim
G1 X110.647 Y95.259 E0.01990 ; brim
G1 X110.798 Y95.287 E0.00481 ; brim
G1 X111.439 Y95.523 E0.02143 ; brim
G1 X112.155 Y95.973 E0.02651 ; brim
G1 X114.027 Y97.835 E0.08281 ; brim
G1 X114.612 Y98.904 E0.03819 ; brim
G1 X114.750 Y99.394 E0.01597 ; brim
G1 X114.966 Y99.580 E0.00891 ; brim
G1 X115.524 Y100.347 E0.02974 ; brim
G1 X116.435 Y103.621 E0.10657 ; brim
G1 X116.401 Y104.395 E0.02430 ; brim
G1 X116.252 Y105.028 E0.02037 ; brim
G1 X116.370 Y105.460 E0.01407 ; brim
G1 X116.390 Y106.774 E0.04119 ; brim
G1 X115.611 Y109.484 E0.08841 ; brim
G1 X115.306 Y109.999 E0.01876 ; brim
G1 X114.878 Y110.513 E0.02098 ; brim
G1 X114.761 Y110.612 E0.00482 ; brim
G1 X114.575 Y111.215 E0.01978 ; brim
G1 X114.073 Y112.101 E0.03192 ; brim
G1 X111.834 Y114.263 E0.09758 ; brim
G1 X111.074 Y114.622 E0.02636 ; brim
G1 X110.641 Y114.745 E0.01410 ; brim
G1 X110.181 Y115.172 E0.01969 ; brim
G1 X109.222 Y115.722 E0.03467 ; brim
G1 X106.587 Y116.413 E0.08540 ; brim
G1 X105.455 Y116.369 E0.03551 ; brim
G1 X105.000 Y116.247 E0.01478 ; brim
G1 X104.539 Y116.370 E0.01497 ; brim
G1 X103.226 Y116.390 E0.04116 ; brim
G1 X100.472 Y115.591 E0.08991 ; brim
G1 X100.002 Y115.307 E0.01724 ; brim
G1 X99.487 Y114.878 E0.02101 ; brim
G1 X99.388 Y114.761 E0.00481 ; brim
G1 X98.781 Y114.573 E0.01990 ; brim
G1 X97.827 Y114.018 E0.03461 ; brim
G1 X96.013 Y112.220 E0.08010 ; brim
G1 X95.383 Y111.082 E0.04077 ; brim
G1 X95.264 Y110.632 E0.01458 ; brim
G1 X95.119 Y110.504 E0.00609 ; brim
G1 X94.442 Y109.591 E0.03564 ; brim
G1 X94.268 Y109.175 E0.01413 ; brim
G1 X93.565 Y106.375 E0.09053 ; brim
G1 X93.599 Y105.605 E0.02417 ; brim
G1 X93.748 Y104.973 E0.02036 ; brim
G1 X93.631 Y104.541 E0.01401 ; brim
G1 X93.607 Y103.238 E0.04086 ; brim
G1 X94.301 Y100.723 E0.08182 ; brim
G1 X94.831 Y99.814 E0.03299 ; brim
G1 X95.259 Y99.353 E0.01972 ; brim
G1 X95.287 Y99.202 E0.00482 ; brim
G1 X95.523 Y98.561 E0.02141 ; brim
G1 X95.968 Y97.851 E0.02628 ; brim
G1 X97.775 Y96.017 E0.08072 ; brim
G1 X98.916 Y95.384 E0.04093 ; brim
G1 X99.301 Y95.280 E0.01249 ; brim
G1 E-3.60000 F2400.000 ; retract
;WIPE_START
G1 F8640.000
G1 X99.704 Y94.929 E-0.14121 ; wipe and retract
G1 X100.395 Y94.450 E-0.22166 ; wipe and retract
G1 X103.272 Y93.608 E-0.79108 ; wipe and retract
G1 X104.409 Y93.600 E-0.30019 ; wipe and retract
G1 X105.029 Y93.747 E-0.16807 ; wipe and retract
G1 X105.459 Y93.631 E-0.11747 ; wipe and retract
G1 X106.759 Y93.607 E-0.34309 ; wipe and retract
G1 X107.480 Y93.803 E-0.19723 ; wipe and retract
;WIPE_END
G1 E-0.12000 F2400.000 ; retract
G1 Z0.275 F10800.000 ; lift Z
G1 X95.610 Y99.576 ; move to first brim point
G1 Z0.200 ; restore layer Z
G1 E6.00000 F3000.000 ; unretract
G1 F1800.000
G1 X95.649 Y99.311 E0.00842 ; brim
G1 X95.870 Y98.710 E0.02008 ; brim
G1 X96.251 Y98.101 E0.02252 ; brim
G1 X98.024 Y96.302 E0.07919 ; brim
G1 X99.075 Y95.727 E0.03757 ; brim
G1 X99.550 Y95.606 E0.01538 ; brim
G1 X99.933 Y95.229 E0.01683 ; brim
G1 X100.584 Y94.778 E0.02484 ; brim
G1 X103.351 Y93.978 E0.09031 ; brim
G1 X104.345 Y93.972 E0.03115 ; brim
G1 X104.858 Y94.093 E0.01655 ; brim
G1 X104.997 Y94.149 E0.00467 ; brim
G1 X105.494 Y94.007 E0.01621 ; brim
G1 X106.687 Y93.978 E0.03741 ; brim
G1 X109.100 Y94.636 E0.07844 ; brim
G1 X109.973 Y95.143 E0.03167 ; brim
G1 X110.296 Y95.441 E0.01376 ; brim
G1 X110.424 Y95.610 E0.00665 ; brim
G1 X110.689 Y95.649 E0.00842 ; brim
G1 X111.290 Y95.870 E0.02008 ; brim
G1 X111.904 Y96.255 E0.02271 ; brim
G1 X113.741 Y98.083 E0.08127 ; brim
G1 X114.269 Y99.062 E0.03488 ; brim
G1 X114.418 Y99.611 E0.01783 ; brim
G1 X114.676 Y99.823 E0.01048 ; brim
G1 X115.199 Y100.541 E0.02785 ; brim
G1 X116.057 Y103.634 E0.10064 ; brim
G1 X116.025 Y104.364 E0.02291 ; brim
G1 X115.932 Y104.788 E0.01360 ; brim
G1 X115.848 Y104.989 E0.00685 ; brim
G1 X115.993 Y105.495 E0.01650 ; brim
G1 X116.020 Y106.698 E0.03772 ; brim
G1 X115.255 Y109.355 E0.08671 ; brim
G1 X115.007 Y109.768 E0.01510 ; brim
G1 X114.603 Y110.254 E0.01982 ; brim
G1 X114.392 Y110.420 E0.00842 ; brim
G1 X114.366 Y110.630 E0.00665 ; brim
G1 X114.237 Y111.047 E0.01367 ; brim
G1 X113.758 Y111.891 E0.03044 ; brim
G1 X111.645 Y113.935 E0.09217 ; brim
G1 X110.928 Y114.274 E0.02486 ; brim
G1 X110.402 Y114.419 E0.01711 ; brim
G1 X110.296 Y114.559 E0.00549 ; brim
G1 X109.973 Y114.857 E0.01377 ; brim
G1 X109.100 Y115.364 E0.03168 ; brim
G1 X106.573 Y116.035 E0.08197 ; brim
G1 X105.493 Y115.993 E0.03389 ; brim
G1 X105.000 Y115.855 E0.01605 ; brim
G1 X104.505 Y115.993 E0.01612 ; brim
G1 X103.302 Y116.020 E0.03772 ; brim
G1 X100.645 Y115.255 E0.08671 ; brim
G1 X100.232 Y115.007 E0.01510 ; brim
G1 X99.746 Y114.603 E0.01982 ; brim
G1 X99.580 Y114.392 E0.00842 ; brim
G1 X99.370 Y114.366 E0.00665 ; brim
G1 X98.950 Y114.236 E0.01376 ; brim
G1 X98.074 Y113.733 E0.03167 ; brim
G1 X96.298 Y111.972 E0.07844 ; brim
G1 X95.727 Y110.924 E0.03741 ; brim
G1 X95.600 Y110.418 E0.01636 ; brim
G1 X95.405 Y110.257 E0.00794 ; brim
G1 X94.780 Y109.422 E0.03270 ; brim
G1 X94.630 Y109.068 E0.01206 ; brim
G1 X93.943 Y106.363 E0.08748 ; brim
G1 X93.975 Y105.636 E0.02284 ; brim
G1 X94.068 Y105.212 E0.01360 ; brim
G1 X94.152 Y105.011 E0.00685 ; brim
