; generated by PrusaSlicer 2.3.0+win64 on 2021-11-01 at 11:48:16 UTC

; 

; external perimeters extrusion width = 0.60mm
; perimeters extrusion width = 0.45mm
; infill extrusion width = 0.45mm
; solid infill extrusion width = 0.45mm
; top infill extrusion width = 0.40mm
; support material extrusion width = 0.35mm
; first layer extrusion width = 0.42mm

M201 X1000 Y1000 Z200 E5000 ; sets maximum accelerations, mm/sec^2
M203 X200 Y200 Z8 E60 ; sets maximum feedrates, mm/sec
M204 P1250 R1250 T1250 ; sets acceleration (P, T) and retract acceleration (R), mm/sec^2
M205 X8.00 Y8.00 Z0.40 E5.00 ; sets the jerk limits, mm/sec
M205 S0 T0 ; sets the minimum extruding and travel feed rate, mm/sec
M107 ; disable fan
;TYPE:Custom
G90 ; use absolute coordinates
M83 ; extruder relative mode
M204 S1250 T1250
M104 S215 ; set extruder temp
M140 S60 ; set bed temp
G28 ; home all
G1 Y0 Z1 F100 ; move print head up
M190 S60 ; wait for bed temp
M109 S215 ; wait for extruder temp
G92 E0
G1 E38 F1000; deretract filament
G92 E0
G1 X60 Z0 E9 ; intro line
G1 X100 E12.5 ; intro line
G92 E0
G21 ; set units to millimeters
G90 ; use absolute coordinates
M83 ; use relative distances for extrusion
; Filament gcode
;LAYER_CHANGE
;Z:0.2
;HEIGHT:0.2
;BEFORE_LAYER_CHANGE
;0.2
G1 E-6.00000 F2400.000 ; retract
G1 Z0.075 F10800.000 ; lift Z
G1 Z0.200 ; move to next layer (0)
;AFTER_LAYER_CHANGE
;0.2
G1 Z0.275 ; lift Z
G1 X87.967 Y107.642 ; move to first brim point
G1 Z0.200 ; restore layer Z
G1 E6.00000 F3000.000 ; unretract
M204 S1250 ; adjust acceleration
;TYPE:Skirt
;WIDTH:0.42
G1 F1800.000
G1 X87.956 Y117.476 E0.30835 ; brim
G1 X87.636 Y118.784 E0.04223 ; brim
G1 X87.047 Y119.918 E0.04005 ; brim
G1 X85.705 Y121.290 E0.06017 ; brim
G1 X84.415 Y121.984 E0.04594 ; brim
G1 X83.068 Y122.285 E0.04328 ; brim
G1 X73.781 Y122.289 E0.29119 ; brim
G1 X71.857 Y121.983 E0.06109 ; brim
G1 X69.757 Y121.030 E0.07230 ; brim
G1 X68.024 Y119.526 E0.07194 ; brim
G1 X66.720 Y117.427 E0.07748 ; brim
G1 X66.094 Y114.572 E0.09164 ; brim
G1 X66.146 Y94.794 E0.62013 ; brim
G1 X66.626 Y92.723 E0.06666 ; brim
G1 X67.623 Y90.908 E0.06492 ; brim
G1 X69.092 Y89.390 E0.06625 ; brim
G1 X70.933 Y88.305 E0.06699 ; brim
G1 X73.703 Y87.706 E0.08884 ; brim
G1 X136.359 Y87.709 E1.96454 ; brim
G1 X139.043 Y88.284 E0.08607 ; brim
G1 X140.653 Y89.183 E0.05782 ; brim
G1 X142.037 Y90.454 E0.05893 ; brim
G1 X143.276 Y92.457 E0.07384 ; brim
G1 X143.845 Y94.705 E0.07272 ; brim
G1 X143.907 Y99.879 E0.16223 ; brim
G1 X143.387 Y102.490 E0.08348 ; brim
G1 X142.044 Y104.803 E0.08386 ; brim
G1 X140.647 Y106.100 E0.05977 ; brim
G1 X138.950 Y107.056 E0.06107 ; brim
G1 X136.185 Y107.642 E0.08861 ; brim
G1 X88.027 Y107.642 E1.50997 ; brim
G1 X87.590 Y107.265 F10800.000 ; move to first brim point
G1 F1800.000
G1 X87.579 Y117.452 E0.31943 ; brim
G1 X87.275 Y118.672 E0.03940 ; brim
G1 X86.758 Y119.674 E0.03538 ; brim
G1 X85.457 Y121.005 E0.05834 ; brim
G1 X84.262 Y121.638 E0.04240 ; brim
G1 X83.008 Y121.913 E0.04025 ; brim
G1 X73.795 Y121.911 E0.28884 ; brim
G1 X71.988 Y121.629 E0.05737 ; brim
G1 X69.983 Y120.727 E0.06893 ; brim
G1 X68.293 Y119.260 E0.07015 ; brim
G1 X67.058 Y117.257 E0.07379 ; brim
G1 X66.471 Y114.553 E0.08676 ; brim
G1 X66.518 Y94.857 E0.61754 ; brim
G1 X66.969 Y92.881 E0.06355 ; brim
G1 X67.941 Y91.112 E0.06328 ; brim
G1 X69.344 Y89.672 E0.06306 ; brim
G1 X71.097 Y88.646 E0.06368 ; brim
G1 X73.722 Y88.083 E0.08418 ; brim
G1 X136.339 Y88.086 E1.96330 ; brim
G1 X138.884 Y88.627 E0.08157 ; brim
G1 X140.449 Y89.501 E0.05622 ; brim
G1 X141.762 Y90.713 E0.05602 ; brim
G1 X142.939 Y92.629 E0.07051 ; brim
G1 X143.474 Y94.775 E0.06933 ; brim
G1 X143.530 Y99.864 E0.15958 ; brim
G1 X143.045 Y102.329 E0.07878 ; brim
G1 X141.766 Y104.546 E0.08024 ; brim
G1 X140.407 Y105.809 E0.05816 ; brim
G1 X138.791 Y106.712 E0.05806 ; brim
G1 X136.166 Y107.265 E0.08412 ; brim
G1 X87.650 Y107.265 E1.52117 ; brim
G1 X87.213 Y106.888 F10800.000 ; move to first brim point
G1 F1800.000
G1 X87.202 Y117.428 E0.33050 ; brim
G1 X86.915 Y118.558 E0.03656 ; brim
G1 X86.468 Y119.431 E0.03075 ; brim
G1 X85.208 Y120.719 E0.05649 ; brim
G1 X84.111 Y121.292 E0.03880 ; brim
G1 X82.949 Y121.540 E0.03726 ; brim
G1 X73.811 Y121.534 E0.28653 ; brim
G1 X72.072 Y121.260 E0.05518 ; brim
G1 X70.164 Y120.395 E0.06568 ; brim
G1 X68.563 Y118.996 E0.06667 ; brim
G1 X67.397 Y117.088 E0.07012 ; brim
G1 X66.848 Y114.534 E0.08191 ; brim
G1 X66.890 Y94.919 E0.61499 ; brim
G1 X67.313 Y93.038 E0.06046 ; brim
G1 X68.229 Y91.357 E0.06003 ; brim
G1 X69.596 Y89.954 E0.06142 ; brim
G1 X71.260 Y88.987 E0.06033 ; brim
G1 X73.742 Y88.461 E0.07955 ; brim
G1 X136.319 Y88.463 E1.96208 ; brim
G1 X138.726 Y88.971 E0.07711 ; brim
G1 X140.210 Y89.794 E0.05322 ; brim
G1 X141.487 Y90.972 E0.05447 ; brim
G1 X142.602 Y92.800 E0.06714 ; brim
G1 X143.103 Y94.843 E0.06595 ; brim
G1 X143.153 Y99.849 E0.15696 ; brim
G1 X142.702 Y102.169 E0.07411 ; brim
G1 X141.488 Y104.290 E0.07663 ; brim
G1 X140.203 Y105.491 E0.05513 ; brim
G1 X138.632 Y106.369 E0.05643 ; brim
G1 X136.147 Y106.888 E0.07962 ; brim
G1 X87.273 Y106.888 E1.53238 ; brim
G1 X86.837 Y106.510 F10800.000 ; move to first brim point
G1 F1800.000
G1 X86.831 Y117.358 E0.34012 ; brim
G1 X86.555 Y118.446 E0.03518 ; brim
G1 X86.178 Y119.188 E0.02611 ; brim
G1 X84.961 Y120.433 E0.05459 ; brim
G1 X83.962 Y120.944 E0.03516 ; brim
G1 X82.930 Y121.163 E0.03310 ; brim
G1 X73.826 Y121.157 E0.28545 ; brim
G1 X72.157 Y120.892 E0.05298 ; brim
G1 X70.347 Y120.064 E0.06241 ; brim
G1 X68.835 Y118.732 E0.06319 ; brim
G1 X67.736 Y116.920 E0.06645 ; brim
G1 X67.225 Y114.515 E0.07710 ; brim
G1 X67.263 Y94.980 E0.61248 ; brim
G1 X67.657 Y93.195 E0.05734 ; brim
G1 X68.548 Y91.560 E0.05836 ; brim
G1 X69.847 Y90.237 E0.05816 ; brim
G1 X71.422 Y89.329 E0.05700 ; brim
G1 X73.761 Y88.838 E0.07494 ; brim
G1 X136.300 Y88.840 E1.96087 ; brim
G1 X138.568 Y89.314 E0.07264 ; brim
G1 X140.007 Y90.112 E0.05160 ; brim
G1 X141.211 Y91.230 E0.05150 ; brim
G1 X142.264 Y92.970 E0.06377 ; brim
G1 X142.731 Y94.910 E0.06257 ; brim
G1 X142.775 Y99.834 E0.15438 ; brim
G1 X142.359 Y102.010 E0.06949 ; brim
G1 X141.209 Y104.034 E0.07298 ; brim
G1 X139.963 Y105.199 E0.05349 ; brim
G1 X138.475 Y106.026 E0.05336 ; brim
G1 X136.127 Y106.510 E0.07515 ; brim
G1 X86.897 Y106.510 E1.54360 ; brim
G1 X86.459 Y106.133 F10800.000 ; move to first brim point
G1 F1800.000
G1 X86.459 Y117.288 E0.34976 ; brim
G1 X86.195 Y118.332 E0.03376 ; brim
G1 X85.856 Y118.991 E0.02322 ; brim
G1 X84.760 Y120.113 E0.04919 ; brim
G1 X83.858 Y120.581 E0.03187 ; brim
G1 X82.909 Y120.785 E0.03041 ; brim
G1 X73.841 Y120.780 E0.28434 ; brim
G1 X72.243 Y120.524 E0.05076 ; brim
G1 X70.531 Y119.733 E0.05912 ; brim
G1 X69.107 Y118.470 E0.05970 ; brim
G1 X68.075 Y116.753 E0.06278 ; brim
G1 X67.602 Y114.496 E0.07232 ; brim
G1 X67.636 Y95.040 E0.61001 ; brim
G1 X68.002 Y93.350 E0.05424 ; brim
G1 X68.836 Y91.804 E0.05508 ; brim
G1 X70.058 Y90.550 E0.05489 ; brim
G1 X71.584 Y89.671 E0.05522 ; brim
G1 X73.780 Y89.215 E0.07033 ; brim
G1 X136.281 Y89.217 E1.95967 ; brim
G1 X138.411 Y89.659 E0.06821 ; brim
G1 X139.768 Y90.405 E0.04854 ; brim
G1 X140.934 Y91.488 E0.04992 ; brim
G1 X141.925 Y93.138 E0.06036 ; brim
G1 X142.359 Y94.976 E0.05919 ; brim
G1 X142.398 Y99.819 E0.15185 ; brim
G1 X142.015 Y101.853 E0.06491 ; brim
G1 X140.929 Y103.780 E0.06935 ; brim
G1 X139.759 Y104.881 E0.05039 ; brim
G1 X138.317 Y105.682 E0.05171 ; brim
G1 X136.109 Y106.133 E0.07068 ; brim
G1 X86.519 Y106.133 E1.55484 ; brim
G1 X86.082 Y105.756 F10800.000 ; move to first brim point
G1 F1800.000
G1 X86.082 Y117.264 E0.36081 ; brim
G1 X85.835 Y118.215 E0.03082 ; brim
G1 X85.535 Y118.791 E0.02037 ; brim
G1 X84.557 Y119.794 E0.04390 ; brim
G1 X83.751 Y120.219 E0.02858 ; brim
G1 X82.889 Y120.408 E0.02768 ; brim
G1 X73.856 Y120.403 E0.28320 ; brim
G1 X72.329 Y120.156 E0.04851 ; brim
G1 X70.716 Y119.404 E0.05580 ; brim
G1 X69.380 Y118.208 E0.05621 ; brim
G1 X68.416 Y116.588 E0.05912 ; brim
G1 X67.979 Y114.477 E0.06759 ; brim
G1 X68.009 Y95.099 E0.60759 ; brim
G1 X68.347 Y93.503 E0.05115 ; brim
G1 X69.125 Y92.048 E0.05175 ; brim
G1 X70.309 Y90.832 E0.05320 ; brim
G1 X71.744 Y90.013 E0.05181 ; brim
G1 X73.799 Y89.592 E0.06577 ; brim
G1 X136.262 Y89.594 E1.95848 ; brim
G1 X138.255 Y90.003 E0.06378 ; brim
G1 X139.565 Y90.724 E0.04690 ; brim
G1 X140.657 Y91.745 E0.04687 ; brim
G1 X141.586 Y93.305 E0.05695 ; brim
G1 X141.987 Y95.040 E0.05581 ; brim
G1 X142.021 Y99.803 E0.14936 ; brim
G1 X141.670 Y101.697 E0.06037 ; brim
G1 X140.650 Y103.525 E0.06566 ; brim
G1 X139.518 Y104.590 E0.04872 ; brim
G1 X138.161 Y105.337 E0.04858 ; brim
G1 X136.090 Y105.756 E0.06624 ; brim
G1 X86.142 Y105.756 E1.56608 ; brim
G1 X85.705 Y105.379 F10800.000 ; move to first brim point
G1 F1800.000
G1 X85.705 Y117.239 E0.37185 ; brim
G1 X85.477 Y118.097 E0.02783 ; brim
G1 X85.215 Y118.590 E0.01753 ; brim
G1 X84.353 Y119.476 E0.03874 ; brim
G1 X83.642 Y119.857 E0.02529 ; brim
G1 X82.868 Y120.031 E0.02489 ; brim
G1 X73.872 Y120.026 E0.28205 ; brim
G1 X72.416 Y119.788 E0.04625 ; brim
G1 X70.902 Y119.075 E0.05247 ; brim
G1 X69.655 Y117.948 E0.05271 ; brim
G1 X68.757 Y116.424 E0.05546 ; brim
G1 X68.356 Y114.459 E0.06289 ; brim
G1 X68.382 Y95.158 E0.60516 ; brim
G1 X68.710 Y93.609 E0.04967 ; brim
G1 X69.444 Y92.251 E0.04837 ; brim
G1 X70.559 Y91.116 E0.04990 ; brim
G1 X71.903 Y90.357 E0.04841 ; brim
G1 X73.818 Y89.969 E0.06124 ; brim
G1 X136.243 Y89.971 E1.95732 ; brim
G1 X138.100 Y90.348 E0.05938 ; brim
G1 X139.325 Y91.016 E0.04377 ; brim
G1 X140.379 Y92.001 E0.04525 ; brim
G1 X141.246 Y93.471 E0.05349 ; brim
G1 X141.615 Y95.103 E0.05245 ; brim
G1 X141.644 Y99.788 E0.14693 ; brim
G1 X141.325 Y101.542 E0.05587 ; brim
G1 X140.369 Y103.272 E0.06199 ; brim
G1 X139.315 Y104.272 E0.04554 ; brim
G1 X138.004 Y104.993 E0.04690 ; brim
G1 X136.072 Y105.379 E0.06180 ; brim
G1 X85.765 Y105.379 E1.57732 ; brim
G1 X85.328 Y105.002 F10800.000 ; move to first brim point
G1 F1800.000
G1 X85.328 Y117.213 E0.38286 ; brim
G1 X85.120 Y117.975 E0.02477 ; brim
G1 X84.896 Y118.387 E0.01472 ; brim
G1 X84.147 Y119.159 E0.03372 ; brim
G1 X83.531 Y119.496 E0.02201 ; brim
G1 X82.846 Y119.654 E0.02204 ; brim
G1 X73.888 Y119.649 E0.28087 ; brim
G1 X72.505 Y119.421 E0.04396 ; brim
G1 X71.090 Y118.747 E0.04911 ; brim
G1 X69.930 Y117.690 E0.04921 ; brim
G1 X69.099 Y116.262 E0.05181 ; brim
G1 X68.733 Y114.441 E0.05824 ; brim
G1 X68.755 Y95.215 E0.60280 ; brim
G1 X69.056 Y93.762 E0.04655 ; brim
G1 X69.733 Y92.495 E0.04504 ; brim
G1 X70.768 Y91.431 E0.04654 ; brim
G1 X72.063 Y90.700 E0.04661 ; brim
G1 X73.836 Y90.346 E0.05670 ; brim
G1 X136.225 Y90.348 E1.95616 ; brim
G1 X137.944 Y90.692 E0.05498 ; brim
G1 X139.123 Y91.335 E0.04209 ; brim
G1 X140.100 Y92.257 E0.04212 ; brim
G1 X140.905 Y93.635 E0.05004 ; brim
G1 X141.242 Y95.164 E0.04908 ; brim
G1 X141.267 Y99.774 E0.14455 ; brim
G1 X140.979 Y101.389 E0.05143 ; brim
G1 X140.088 Y103.019 E0.05827 ; brim
G1 X139.073 Y103.981 E0.04382 ; brim
G1 X137.850 Y104.648 E0.04370 ; brim
G1 X136.054 Y105.002 E0.05740 ; brim
G1 X85.388 Y105.002 E1.58858 ; brim
G1 X84.951 Y104.625 F10800.000 ; move to first brim point
G1 F1800.000
G1 X84.951 Y117.186 E0.39384 ; brim
G1 X84.763 Y117.850 E0.02162 ; brim
G1 X84.579 Y118.182 E0.01193 ; brim
G1 X83.940 Y118.842 E0.02877 ; brim
G1 X83.373 Y119.152 E0.02029 ; brim
G1 X82.825 Y119.277 E0.01762 ; brim
G1 X73.904 Y119.272 E0.27972 ; brim
G1 X72.594 Y119.053 E0.04164 ; brim
G1 X71.280 Y118.420 E0.04572 ; brim
G1 X70.208 Y117.433 E0.04571 ; brim
G1 X69.441 Y116.102 E0.04816 ; brim
G1 X69.111 Y114.423 E0.05364 ; brim
G1 X69.128 Y95.271 E0.60049 ; brim
G1 X69.402 Y93.915 E0.04339 ; brim
G1 X70.053 Y92.697 E0.04330 ; brim
G1 X71.018 Y91.715 E0.04316 ; brim
G1 X72.220 Y91.044 E0.04317 ; brim
G1 X73.854 Y90.723 E0.05222 ; brim
G1 X136.207 Y90.725 E1.95503 ; brim
G1 X137.791 Y91.038 E0.05063 ; brim
G1 X138.883 Y91.626 E0.03889 ; brim
G1 X139.821 Y92.512 E0.04045 ; brim
G1 X140.564 Y93.797 E0.04654 ; brim
G1 X140.870 Y95.223 E0.04573 ; brim
G1 X140.889 Y99.759 E0.14222 ; brim
G1 X140.633 Y101.237 E0.04703 ; brim
G1 X139.805 Y102.768 E0.05457 ; brim
G1 X138.870 Y103.662 E0.04056 ; brim
G1 X137.695 Y104.303 E0.04198 ; brim
G1 X136.036 Y104.625 E0.05299 ; brim
G1 X85.011 Y104.625 E1.59984 ; brim
G1 X84.574 Y104.248 F10800.000 ; move to first brim point
G1 F1800.000
G1 X84.574 Y117.158 E0.40478 ; brim
G1 X84.409 Y117.720 E0.01838 ; brim
G1 X84.263 Y117.975 E0.00919 ; brim
G1 X83.734 Y118.525 E0.02393 ; brim
G1 X83.216 Y118.808 E0.01853 ; brim
G1 X82.805 Y118.900 E0.01319 ; brim
G1 X73.920 Y118.895 E0.27859 ; brim
G1 X72.684 Y118.686 E0.03930 ; brim
G1 X71.471 Y118.094 E0.04231 ; brim
G1 X70.486 Y117.177 E0.04220 ; brim
G1 X69.784 Y115.943 E0.04451 ; brim
G1 X69.488 Y114.406 E0.04909 ; brim
G1 X69.502 Y95.325 E0.59825 ; brim
G1 X69.748 Y94.067 E0.04020 ; brim
G1 X70.372 Y92.899 E0.04152 ; brim
G1 X71.265 Y92.001 E0.03972 ; brim
G1 X72.375 Y91.388 E0.03973 ; brim
G1 X73.872 Y91.100 E0.04779 ; brim
G1 X136.189 Y91.102 E1.95392 ; brim
G1 X137.638 Y91.384 E0.04626 ; brim
G1 X138.681 Y91.946 E0.03717 ; brim
G1 X139.541 Y92.765 E0.03722 ; brim
G1 X140.221 Y93.957 E0.04304 ; brim
G1 X140.497 Y95.281 E0.04238 ; brim
G1 X140.512 Y99.745 E0.13997 ; brim
G1 X140.286 Y101.087 E0.04269 ; brim
G1 X139.522 Y102.516 E0.05080 ; brim
G1 X138.629 Y103.372 E0.03879 ; brim
G1 X137.542 Y103.957 E0.03869 ; brim
G1 X136.018 Y104.248 E0.04864 ; brim
G1 X84.634 Y104.248 E1.61112 ; brim
G1 X84.197 Y103.871 F10800.000 ; move to first brim point
G1 F1800.000
G1 X84.197 Y117.128 E0.41568 ; brim
G1 X84.056 Y117.585 E0.01500 ; brim
G1 X83.952 Y117.762 E0.00643 ; brim
G1 X83.486 Y118.239 E0.02090 ; brim
G1 X83.064 Y118.463 E0.01498 ; brim
G1 X82.786 Y118.523 E0.00893 ; brim
G1 X73.936 Y118.518 E0.27747 ; brim
G1 X72.775 Y118.319 E0.03693 ; brim
G1 X71.665 Y117.769 E0.03886 ; brim
G1 X70.766 Y116.923 E0.03869 ; brim
G1 X70.129 Y115.786 E0.04087 ; brim
G1 X69.865 Y114.389 E0.04459 ; brim
G1 X69.875 Y95.378 E0.59608 ; brim
G1 X70.095 Y94.217 E0.03704 ; brim
G1 X70.661 Y93.143 E0.03807 ; brim
G1 X71.472 Y92.317 E0.03628 ; brim
G1 X72.531 Y91.733 E0.03790 ; brim
G1 X73.889 Y91.477 E0.04334 ; brim
G1 X136.172 Y91.479 E1.95283 ; brim
G1 X137.486 Y91.730 E0.04197 ; brim
G1 X138.440 Y92.237 E0.03387 ; brim
G1 X139.260 Y93.018 E0.03550 ; brim
G1 X139.877 Y94.115 E0.03947 ; brim
G1 X140.123 Y95.336 E0.03905 ; brim
G1 X140.135 Y99.730 E0.13778 ; brim
G1 X139.937 Y100.939 E0.03841 ; brim
G1 X139.238 Y102.267 E0.04705 ; brim
G1 X138.426 Y103.052 E0.03541 ; brim
G1 X137.389 Y103.611 E0.03694 ; brim
G1 X136.001 Y103.871 E0.04428 ; brim
G1 X84.257 Y103.871 E1.62241 ; brim
G1 X83.820 Y103.494 F10800.000 ; move to first brim point
G1 F1800.000
G1 X83.820 Y117.097 E0.42651 ; brim
G1 X83.706 Y117.443 E0.01144 ; brim
G1 X83.644 Y117.544 E0.00371 ; brim
G1 X83.241 Y117.951 E0.01795 ; brim
G1 X82.918 Y118.114 E0.01135 ; brim
G1 X82.767 Y118.146 E0.00485 ; brim
G1 X73.953 Y118.141 E0.27636 ; brim
G1 X72.868 Y117.953 E0.03452 ; brim
G1 X71.860 Y117.445 E0.03537 ; brim
G1 X71.048 Y116.671 E0.03519 ; brim
G1 X70.474 Y115.631 E0.03724 ; brim
G1 X70.242 Y114.372 E0.04015 ; brim
G1 X70.249 Y95.428 E0.59398 ; brim
G1 X70.443 Y94.364 E0.03389 ; brim
G1 X70.950 Y93.386 E0.03454 ; brim
G1 X71.721 Y92.602 E0.03448 ; brim
G1 X72.683 Y92.079 E0.03434 ; brim
G1 X73.906 Y91.854 E0.03896 ; brim
G1 X136.155 Y91.857 E1.95178 ; brim
G1 X137.335 Y92.077 E0.03765 ; brim
G1 X138.239 Y92.558 E0.03211 ; brim
G1 X138.977 Y93.269 E0.03214 ; brim
G1 X139.533 Y94.271 E0.03592 ; brim
G1 X139.750 Y95.390 E0.03573 ; brim
G1 X139.758 Y99.717 E0.13567 ; brim
G1 X139.588 Y100.794 E0.03419 ; brim
G1 X138.954 Y102.018 E0.04322 ; brim
G1 X138.184 Y102.762 E0.03359 ; brim
G1 X137.239 Y103.264 E0.03354 ; brim
G1 X135.984 Y103.494 E0.03999 ; brim
G1 X83.880 Y103.494 E1.63371 ; brim
G1 X83.443 Y103.117 F10800.000 ; move to first brim point
G1 F1800.000
G1 X83.443 Y117.062 E0.43723 ; brim
G1 X83.343 Y117.316 E0.00856 ; brim
G1 X83.000 Y117.659 E0.01522 ; brim
G1 X82.750 Y117.769 E0.00857 ; brim
G1 X73.970 Y117.764 E0.27529 ; brim
