; generated by PrusaSlicer 2.3.0+win64 on 2021-11-01 at 11:47:52 UTC

; 

; external perimeters extrusion width = 0.60mm
; perimeters extrusion width = 0.45mm
; infill extrusion width = 0.45mm
; solid infill extrusion width = 0.45mm
; top infill extrusion width = 0.40mm
; support material extrusion width = 0.35mm
; first layer extrusion width = 0.42mm

M201 X1000 Y1000 Z200 E5000 ; sets maximum accelerations, mm/sec^2
M203 X200 Y200 Z8 E60 ; sets maximum feedrates, mm/sec
M204 P1250 R1250 T1250 ; sets acceleration (P, T) and retract acceleration (R), mm/sec^2
M205 X8.00 Y8.00 Z0.40 E5.00 ; sets the jerk limits, mm/sec
M205 S0 T0 ; sets the minimum extruding and travel feed rate, mm/sec
M107 ; disable fan
;TYPE:Custom
G90 ; use absolute coordinates
M83 ; extruder relative mode
M204 S1250 T1250
M104 S215 ; set extruder temp
M140 S60 ; set bed temp
G28 ; home all
G1 Y0 Z1 F100 ; move print head up
M190 S60 ; wait for bed temp
M109 S215 ; wait for extruder temp
G92 E0
G1 E38 F1000; deretract filament
G92 E0
G1 X60 Z0 E9 ; intro line
G1 X100 E12.5 ; intro line
G92 E0
G21 ; set units to millimeters
G90 ; use absolute coordinates
M83 ; use relative distances for extrusion
; Filament gcode
;LAYER_CHANGE
;Z:0.2
;HEIGHT:0.2
;BEFORE_LAYER_CHANGE
;0.2
G1 E-6.00000 F2400.000 ; retract
G1 Z0.075 F10800.000 ; lift Z
G1 Z0.200 ; move to next layer (0)
;AFTER_LAYER_CHANGE
;0.2
G1 Z0.275 ; lift Z
G1 X122.032 Y102.360 ; move to first brim point
G1 Z0.200 ; restore layer Z
G1 E6.00000 F3000.000 ; unretract
M204 S1250 ; adjust acceleration
;TYPE:Skirt
;WIDTH:0.42
G1 F1800.000
G1 X122.032 Y92.618 E0.30544 ; brim
G1 X122.409 Y91.097 E0.04915 ; brim
G1 X123.209 Y89.753 E0.04903 ; brim
G1 X124.761 Y88.392 E0.06471 ; brim
G1 X125.642 Y87.993 E0.03033 ; brim
G1 X126.615 Y87.751 E0.03144 ; brim
G1 X136.534 Y87.741 E0.31099 ; brim
G1 X138.948 Y88.292 E0.07763 ; brim
G1 X140.636 Y89.239 E0.06069 ; brim
G1 X142.023 Y90.524 E0.05929 ; brim
G1 X143.363 Y92.785 E0.08240 ; brim
G1 X143.906 Y95.437 E0.08487 ; brim
G1 X143.848 Y115.264 E0.62169 ; brim
G1 X143.361 Y117.310 E0.06593 ; brim
G1 X142.365 Y119.108 E0.06447 ; brim
G1 X140.902 Y120.614 E0.06582 ; brim
G1 X139.066 Y121.695 E0.06681 ; brim
G1 X136.298 Y122.294 E0.08881 ; brim
G1 X73.701 Y122.294 E1.96267 ; brim
G1 X71.522 Y121.916 E0.06935 ; brim
G1 X69.500 Y120.924 E0.07060 ; brim
G1 X67.844 Y119.397 E0.07062 ; brim
G1 X66.701 Y117.496 E0.06956 ; brim
G1 X66.094 Y114.716 E0.08922 ; brim
G1 X66.094 Y110.086 E0.14517 ; brim
G1 X66.518 Y107.761 E0.07409 ; brim
G1 X67.865 Y105.316 E0.08756 ; brim
G1 X69.343 Y103.906 E0.06403 ; brim
G1 X71.174 Y102.900 E0.06549 ; brim
G1 X73.569 Y102.380 E0.07686 ; brim
G1 X121.972 Y102.360 E1.51765 ; brim
G1 X122.409 Y102.737 F10800.000 ; move to first brim point
G1 F1800.000
G1 X122.409 Y92.642 E0.31652 ; brim
G1 X122.768 Y91.215 E0.04612 ; brim
G1 X123.481 Y90.016 E0.04376 ; brim
G1 X124.942 Y88.724 E0.06115 ; brim
G1 X125.782 Y88.344 E0.02888 ; brim
G1 X126.683 Y88.123 E0.02910 ; brim
G1 X136.472 Y88.114 E0.30692 ; brim
G1 X138.788 Y88.635 E0.07444 ; brim
G1 X140.396 Y89.531 E0.05772 ; brim
G1 X141.746 Y90.782 E0.05770 ; brim
G1 X143.021 Y92.949 E0.07884 ; brim
G1 X143.529 Y95.454 E0.08016 ; brim
G1 X143.476 Y115.200 E0.61910 ; brim
G1 X143.019 Y117.150 E0.06282 ; brim
G1 X142.048 Y118.903 E0.06284 ; brim
G1 X140.651 Y120.332 E0.06265 ; brim
G1 X138.902 Y121.354 E0.06351 ; brim
G1 X136.278 Y121.917 E0.08415 ; brim
G1 X73.718 Y121.917 E1.96154 ; brim
G1 X71.614 Y121.549 E0.06696 ; brim
G1 X69.692 Y120.598 E0.06722 ; brim
G1 X68.121 Y119.140 E0.06723 ; brim
G1 X67.041 Y117.330 E0.06609 ; brim
G1 X66.471 Y114.696 E0.08448 ; brim
G1 X66.471 Y110.103 E0.14400 ; brim
G1 X66.883 Y107.860 E0.07153 ; brim
G1 X68.146 Y105.569 E0.08203 ; brim
G1 X69.586 Y104.197 E0.06234 ; brim
G1 X71.330 Y103.244 E0.06233 ; brim
G1 X73.589 Y102.757 E0.07245 ; brim
G1 X122.349 Y102.737 E1.52885 ; brim
G1 X122.787 Y103.114 F10800.000 ; move to first brim point
G1 F1800.000
G1 X122.787 Y92.665 E0.32762 ; brim
G1 X123.107 Y91.382 E0.04146 ; brim
G1 X123.755 Y90.277 E0.04017 ; brim
G1 X125.124 Y89.056 E0.05754 ; brim
G1 X125.921 Y88.695 E0.02740 ; brim
G1 X126.750 Y88.494 E0.02674 ; brim
G1 X136.411 Y88.487 E0.30292 ; brim
G1 X138.629 Y88.978 E0.07123 ; brim
G1 X140.192 Y89.849 E0.05613 ; brim
G1 X141.469 Y91.038 E0.05469 ; brim
G1 X142.680 Y93.111 E0.07528 ; brim
G1 X143.152 Y95.472 E0.07548 ; brim
G1 X143.104 Y115.136 E0.61654 ; brim
G1 X142.676 Y116.992 E0.05973 ; brim
G1 X141.760 Y118.658 E0.05961 ; brim
G1 X140.399 Y120.050 E0.06102 ; brim
G1 X138.739 Y121.013 E0.06017 ; brim
G1 X136.258 Y121.539 E0.07952 ; brim
G1 X73.734 Y121.539 E1.96041 ; brim
G1 X71.706 Y121.182 E0.06456 ; brim
G1 X69.885 Y120.274 E0.06381 ; brim
G1 X68.398 Y118.883 E0.06383 ; brim
G1 X67.381 Y117.165 E0.06262 ; brim
G1 X66.848 Y114.676 E0.07978 ; brim
G1 X66.848 Y110.121 E0.14284 ; brim
G1 X67.248 Y107.958 E0.06896 ; brim
G1 X68.428 Y105.821 E0.07655 ; brim
G1 X69.789 Y104.515 E0.05911 ; brim
G1 X71.487 Y103.588 E0.06067 ; brim
G1 X73.609 Y103.134 E0.06804 ; brim
G1 X122.727 Y103.114 E1.54005 ; brim
G1 X123.164 Y103.491 F10800.000 ; move to first brim point
G1 F1800.000
G1 X123.164 Y92.688 E0.33872 ; brim
G1 X123.447 Y91.547 E0.03686 ; brim
G1 X124.030 Y90.536 E0.03657 ; brim
G1 X125.308 Y89.386 E0.05391 ; brim
G1 X126.027 Y89.057 E0.02479 ; brim
G1 X126.816 Y88.866 E0.02546 ; brim
G1 X136.351 Y88.859 E0.29893 ; brim
G1 X138.471 Y89.321 E0.06804 ; brim
G1 X139.952 Y90.141 E0.05310 ; brim
G1 X141.192 Y91.296 E0.05310 ; brim
G1 X142.317 Y93.217 E0.06981 ; brim
G1 X142.775 Y95.490 E0.07272 ; brim
G1 X142.732 Y115.073 E0.61400 ; brim
G1 X142.332 Y116.834 E0.05661 ; brim
G1 X141.442 Y118.453 E0.05795 ; brim
G1 X140.149 Y119.767 E0.05778 ; brim
G1 X138.577 Y120.671 E0.05685 ; brim
G1 X136.239 Y121.162 E0.07492 ; brim
G1 X73.750 Y121.162 E1.95930 ; brim
G1 X71.849 Y120.832 E0.06051 ; brim
G1 X70.121 Y119.978 E0.06041 ; brim
G1 X68.709 Y118.667 E0.06042 ; brim
G1 X67.721 Y116.999 E0.06079 ; brim
G1 X67.225 Y114.657 E0.07506 ; brim
G1 X67.225 Y110.138 E0.14168 ; brim
G1 X67.613 Y108.057 E0.06637 ; brim
G1 X68.710 Y106.073 E0.07108 ; brim
G1 X70.031 Y104.805 E0.05742 ; brim
G1 X71.642 Y103.933 E0.05745 ; brim
G1 X73.629 Y103.511 E0.06367 ; brim
G1 X123.104 Y103.491 E1.55125 ; brim
G1 X123.541 Y103.868 F10800.000 ; move to first brim point
G1 F1800.000
G1 X123.541 Y92.712 E0.34979 ; brim
G1 X123.806 Y91.665 E0.03386 ; brim
G1 X124.306 Y90.795 E0.03145 ; brim
G1 X125.492 Y89.717 E0.05026 ; brim
G1 X126.167 Y89.408 E0.02327 ; brim
G1 X126.882 Y89.238 E0.02304 ; brim
G1 X136.291 Y89.232 E0.29503 ; brim
G1 X138.314 Y89.665 E0.06485 ; brim
G1 X139.713 Y90.433 E0.05003 ; brim
G1 X140.914 Y91.552 E0.05147 ; brim
G1 X141.975 Y93.379 E0.06622 ; brim
G1 X142.398 Y95.508 E0.06807 ; brim
G1 X142.359 Y115.011 E0.61151 ; brim
G1 X141.988 Y116.677 E0.05351 ; brim
G1 X141.154 Y118.209 E0.05469 ; brim
G1 X139.938 Y119.453 E0.05453 ; brim
G1 X138.416 Y120.329 E0.05508 ; brim
G1 X136.220 Y120.785 E0.07031 ; brim
G1 X73.767 Y120.785 E1.95818 ; brim
G1 X71.941 Y120.466 E0.05811 ; brim
G1 X70.315 Y119.654 E0.05699 ; brim
G1 X68.987 Y118.411 E0.05702 ; brim
G1 X68.062 Y116.835 E0.05729 ; brim
G1 X67.602 Y114.638 E0.07039 ; brim
G1 X67.602 Y110.156 E0.14052 ; brim
G1 X67.978 Y108.157 E0.06378 ; brim
G1 X68.991 Y106.326 E0.06561 ; brim
G1 X70.273 Y105.095 E0.05571 ; brim
G1 X71.796 Y104.278 E0.05420 ; brim
G1 X73.648 Y103.888 E0.05933 ; brim
G1 X123.481 Y103.868 E1.56246 ; brim
G1 X123.918 Y104.245 F10800.000 ; move to first brim point
G1 F1800.000
G1 X123.918 Y92.736 E0.36084 ; brim
G1 X124.165 Y91.784 E0.03084 ; brim
G1 X124.583 Y91.052 E0.02642 ; brim
G1 X125.678 Y90.046 E0.04663 ; brim
G1 X126.273 Y89.770 E0.02056 ; brim
G1 X126.948 Y89.610 E0.02174 ; brim
G1 X136.233 Y89.605 E0.29115 ; brim
G1 X138.157 Y90.009 E0.06164 ; brim
G1 X139.510 Y90.752 E0.04839 ; brim
G1 X140.635 Y91.808 E0.04837 ; brim
G1 X141.632 Y93.539 E0.06265 ; brim
G1 X142.021 Y95.526 E0.06346 ; brim
G1 X141.986 Y114.951 E0.60907 ; brim
G1 X141.644 Y116.522 E0.05042 ; brim
G1 X140.865 Y117.965 E0.05139 ; brim
G1 X139.687 Y119.170 E0.05286 ; brim
G1 X138.255 Y119.987 E0.05168 ; brim
G1 X136.201 Y120.408 E0.06575 ; brim
G1 X73.783 Y120.408 E1.95707 ; brim
G1 X72.034 Y120.099 E0.05568 ; brim
G1 X70.510 Y119.330 E0.05355 ; brim
G1 X69.266 Y118.156 E0.05362 ; brim
G1 X68.404 Y116.673 E0.05379 ; brim
G1 X67.979 Y114.619 E0.06576 ; brim
G1 X67.979 Y110.174 E0.13937 ; brim
G1 X68.343 Y108.257 E0.06118 ; brim
G1 X69.274 Y106.577 E0.06021 ; brim
G1 X70.475 Y105.415 E0.05240 ; brim
G1 X71.951 Y104.623 E0.05251 ; brim
G1 X73.667 Y104.265 E0.05499 ; brim
G1 X123.858 Y104.245 E1.57368 ; brim
G1 X124.295 Y104.621 F10800.000 ; move to first brim point
G1 F1800.000
G1 X124.295 Y92.761 E0.37187 ; brim
G1 X124.523 Y91.905 E0.02780 ; brim
G1 X124.861 Y91.308 E0.02150 ; brim
G1 X125.864 Y90.375 E0.04293 ; brim
G1 X126.413 Y90.121 E0.01899 ; brim
G1 X127.011 Y89.982 E0.01925 ; brim
G1 X136.177 Y89.978 E0.28737 ; brim
G1 X138.002 Y90.354 E0.05844 ; brim
G1 X139.270 Y91.044 E0.04525 ; brim
G1 X140.356 Y92.063 E0.04671 ; brim
G1 X141.289 Y93.698 E0.05903 ; brim
G1 X141.644 Y95.543 E0.05889 ; brim
G1 X141.614 Y114.890 E0.60663 ; brim
G1 X141.281 Y116.415 E0.04893 ; brim
G1 X140.547 Y117.760 E0.04804 ; brim
G1 X139.438 Y118.886 E0.04957 ; brim
G1 X138.096 Y119.644 E0.04830 ; brim
G1 X136.183 Y120.031 E0.06122 ; brim
G1 X73.799 Y120.031 E1.95599 ; brim
G1 X72.178 Y119.749 E0.05160 ; brim
G1 X70.747 Y119.035 E0.05015 ; brim
G1 X69.578 Y117.942 E0.05017 ; brim
G1 X68.745 Y116.510 E0.05194 ; brim
G1 X68.356 Y114.600 E0.06112 ; brim
G1 X68.356 Y110.192 E0.13822 ; brim
G1 X68.708 Y108.357 E0.05856 ; brim
G1 X69.556 Y106.829 E0.05482 ; brim
G1 X70.718 Y105.705 E0.05069 ; brim
G1 X72.103 Y104.969 E0.04919 ; brim
G1 X73.687 Y104.642 E0.05069 ; brim
G1 X124.235 Y104.621 E1.58491 ; brim
G1 X124.672 Y104.998 F10800.000 ; move to first brim point
G1 F1800.000
G1 X124.672 Y92.787 E0.38287 ; brim
G1 X124.880 Y92.027 E0.02472 ; brim
G1 X125.141 Y91.562 E0.01672 ; brim
G1 X126.051 Y90.704 E0.03919 ; brim
G1 X126.553 Y90.472 E0.01736 ; brim
G1 X127.073 Y90.355 E0.01672 ; brim
G1 X136.121 Y90.352 E0.28369 ; brim
G1 X137.847 Y90.699 E0.05521 ; brim
G1 X139.068 Y91.363 E0.04357 ; brim
G1 X140.077 Y92.318 E0.04355 ; brim
G1 X140.925 Y93.801 E0.05357 ; brim
G1 X141.267 Y95.561 E0.05621 ; brim
G1 X141.241 Y114.832 E0.60422 ; brim
G1 X140.937 Y116.259 E0.04576 ; brim
G1 X140.229 Y117.556 E0.04632 ; brim
G1 X139.190 Y118.601 E0.04623 ; brim
G1 X137.939 Y119.300 E0.04492 ; brim
G1 X136.164 Y119.654 E0.05674 ; brim
G1 X73.815 Y119.654 E1.95492 ; brim
G1 X72.321 Y119.399 E0.04752 ; brim
G1 X70.940 Y118.710 E0.04838 ; brim
G1 X69.857 Y117.688 E0.04670 ; brim
G1 X69.088 Y116.349 E0.04841 ; brim
G1 X68.734 Y114.582 E0.05653 ; brim
G1 X68.734 Y110.210 E0.13707 ; brim
G1 X69.072 Y108.459 E0.05593 ; brim
G1 X69.839 Y107.079 E0.04949 ; brim
G1 X70.919 Y106.025 E0.04732 ; brim
G1 X72.256 Y105.314 E0.04747 ; brim
G1 X73.705 Y105.019 E0.04638 ; brim
G1 X124.612 Y104.998 E1.59614 ; brim
G1 X125.049 Y105.375 F10800.000 ; move to first brim point
G1 F1800.000
G1 X125.049 Y92.814 E0.39385 ; brim
G1 X125.237 Y92.150 E0.02162 ; brim
G1 X125.424 Y91.814 E0.01207 ; brim
G1 X126.240 Y91.032 E0.03546 ; brim
G1 X126.657 Y90.835 E0.01444 ; brim
G1 X127.135 Y90.727 E0.01539 ; brim
G1 X136.067 Y90.725 E0.28004 ; brim
G1 X137.693 Y91.044 E0.05195 ; brim
G1 X138.865 Y91.682 E0.04186 ; brim
G1 X139.796 Y92.571 E0.04034 ; brim
G1 X140.581 Y93.959 E0.05001 ; brim
G1 X140.889 Y95.578 E0.05167 ; brim
G1 X140.868 Y114.774 E0.60189 ; brim
G1 X140.591 Y116.105 E0.04262 ; brim
G1 X139.941 Y117.311 E0.04295 ; brim
G1 X138.982 Y118.285 E0.04287 ; brim
G1 X137.781 Y118.956 E0.04312 ; brim
G1 X136.146 Y119.277 E0.05225 ; brim
G1 X73.831 Y119.277 E1.95385 ; brim
G1 X72.413 Y119.033 E0.04511 ; brim
G1 X71.136 Y118.387 E0.04488 ; brim
G1 X70.138 Y117.435 E0.04325 ; brim
G1 X69.431 Y116.190 E0.04488 ; brim
G1 X69.111 Y114.564 E0.05198 ; brim
G1 X69.111 Y110.228 E0.13593 ; brim
G1 X69.436 Y108.560 E0.05329 ; brim
G1 X70.123 Y107.328 E0.04422 ; brim
G1 X71.122 Y106.344 E0.04398 ; brim
G1 X72.360 Y105.678 E0.04406 ; brim
G1 X73.725 Y105.396 E0.04371 ; brim
G1 X124.989 Y105.375 E1.60735 ; brim
G1 X125.426 Y105.752 F10800.000 ; move to first brim point
G1 F1800.000
G1 X125.426 Y92.842 E0.40479 ; brim
G1 X125.591 Y92.280 E0.01838 ; brim
G1 X125.737 Y92.025 E0.00921 ; brim
G1 X126.429 Y91.359 E0.03011 ; brim
G1 X126.797 Y91.185 E0.01277 ; brim
G1 X127.194 Y91.100 E0.01273 ; brim
G1 X136.049 Y91.102 E0.27764 ; brim
G1 X137.540 Y91.390 E0.04761 ; brim
G1 X138.624 Y91.973 E0.03858 ; brim
G1 X139.515 Y92.824 E0.03862 ; brim
G1 X140.237 Y94.115 E0.04640 ; brim
G1 X140.512 Y95.595 E0.04718 ; brim
G1 X140.494 Y114.719 E0.59962 ; brim
G1 X140.245 Y115.953 E0.03949 ; brim
G1 X139.653 Y117.066 E0.03953 ; brim
G1 X138.733 Y118.001 E0.04113 ; brim
G1 X137.626 Y118.611 E0.03963 ; brim
G1 X136.129 Y118.900 E0.04782 ; brim
G1 X73.846 Y118.900 E1.95281 ; brim
G1 X72.556 Y118.683 E0.04104 ; brim
G1 X71.375 Y118.094 E0.04135 ; brim
G1 X70.419 Y117.182 E0.04145 ; brim
G1 X69.775 Y116.033 E0.04129 ; brim
G1 X69.488 Y114.546 E0.04749 ; brim
G1 X69.488 Y110.246 E0.13483 ; brim
G1 X69.781 Y108.715 E0.04887 ; brim
G1 X70.407 Y107.577 E0.04072 ; brim
G1 X71.367 Y106.632 E0.04223 ; brim
G1 X72.511 Y106.024 E0.04063 ; brim
G1 X73.780 Y105.770 E0.04058 ; brim
G1 X125.366 Y105.752 E1.61744 ; brim
G1 X125.803 Y106.129 F10800.000 ; move to first brim point
G1 F1800.000
G1 X125.803 Y92.872 E0.41568 ; brim
G1 X125.944 Y92.415 E0.01500 ; brim
G1 X126.048 Y92.239 E0.00640 ; brim
G1 X126.619 Y91.687 E0.02489 ; brim
G1 X126.939 Y91.536 E0.01110 ; brim
G1 X127.214 Y91.477 E0.00883 ; brim
G1 X136.032 Y91.480 E0.27648 ; brim
G1 X137.389 Y91.737 E0.04332 ; brim
G1 X138.382 Y92.264 E0.03526 ; brim
G1 X139.233 Y93.076 E0.03688 ; brim
G1 X139.891 Y94.270 E0.04274 ; brim
G1 X140.135 Y95.611 E0.04274 ; brim
G1 X140.121 Y114.665 E0.59742 ; brim
G1 X139.899 Y115.801 E0.03631 ; brim
G1 X139.334 Y116.864 E0.03774 ; brim
G1 X138.486 Y117.715 E0.03765 ; brim
G1 X137.473 Y118.265 E0.03616 ; brim
G1 X136.111 Y118.523 E0.04344 ; brim
G1 X73.863 Y118.523 E1.95177 ; brim
G1 X72.648 Y118.316 E0.03864 ; brim
G1 X71.572 Y117.771 E0.03781 ; brim
G1 X70.702 Y116.931 E0.03792 ; brim
G1 X70.120 Y115.878 E0.03773 ; brim
G1 X69.865 Y114.529 E0.04305 ; brim
G1 X69.865 Y110.263 E0.13375 ; brim
G1 X70.127 Y108.869 E0.04450 ; brim
G1 X70.694 Y107.824 E0.03725 ; brim
G1 X71.569 Y106.952 E0.03875 ; brim
G1 X72.663 Y106.371 E0.03884 ; brim
G1 X73.834 Y106.143 E0.03739 ; brim
G1 X125.743 Y106.129 E1.62758 ; brim
G1 X126.180 Y106.506 F10800.000 ; move to first brim point
G1 F1800.000
G1 X126.180 Y92.903 E0.42651 ; brim
G1 X126.294 Y92.557 E0.01144 ; brim
G1 X126.355 Y92.458 E0.00366 ; brim
G1 X126.809 Y92.014 E0.01988 ; brim
G1 X127.079 Y91.886 E0.00938 ; brim
G1 X127.233 Y91.854 E0.00492 ; brim
G1 X136.015 Y91.857 E0.27535 ; brim
G1 X137.238 Y92.083 E0.03901 ; brim
G1 X138.182 Y92.584 E0.03350 ; brim
G1 X138.951 Y93.327 E0.03353 ; brim
G1 X139.526 Y94.368 E0.03730 ; brim
G1 X139.758 Y95.628 E0.04017 ; brim
G1 X139.747 Y114.613 E0.59525 ; brim
G1 X139.551 Y115.653 E0.03317 ; brim
G1 X139.045 Y116.621 E0.03426 ; brim
G1 X138.281 Y117.397 E0.03415 ; brim
G1 X137.319 Y117.920 E0.03432 ; brim
G1 X136.094 Y118.146 E0.03904 ; brim
G1 X73.878 Y118.146 E1.95077 ; brim
G1 X72.789 Y117.965 E0.03458 ; brim
G1 X71.813 Y117.479 E0.03421 ; brim
G1 X70.985 Y116.680 E0.03607 ; brim
G1 X70.465 Y115.725 E0.03409 ; brim
G1 X70.242 Y114.512 E0.03867 ; brim
G1 X70.242 Y110.280 E0.13270 ; brim
G1 X70.473 Y109.022 E0.04011 ; brim
G1 X71.011 Y108.029 E0.03541 ; brim
G1 X71.812 Y107.241 E0.03524 ; brim
G1 X72.812 Y106.718 E0.03535 ; brim
G1 X73.885 Y106.517 E0.03425 ; brim
G1 X126.120 Y106.506 E1.63779 ; brim
G1 X126.557 Y106.883 F10800.000 ; move to first brim point
G1 F1800.000
G1 X126.557 Y92.938 E0.43723 ; brim
G1 X126.657 Y92.684 E0.00856 ; brim
